P2
#CREATOR : MyProgram
119 99
255
251 251 251 251 251 251 230 230 230 230 230 236 236 236 249 249 249 249 219 243 139 204 142 200 246 246 251 251 154 164 84 105 105 105 105 99 105 105 105 105 105 105 105 105 105 100 100 100 100 100 100 100 100 100 100 100 100 100 100 100 100 100 100 100 100 100 100 100 100 100 100 100 100 100 100 100 100 100 100 100 100 100 100 100 100 100 100 100 98 98 98 98 98 98 98 98 98 98 98 98 98 98 98 98 98 98 98 98 98 98 98 98 98 98 98 98 98 98 98 
251 251 251 251 251 251 230 230 230 230 230 236 236 236 213 193 249 142 219 186 139 142 142 200 188 243 234 251 251 164 181 105 105 105 117 99 105 105 105 105 105 105 105 105 105 100 100 100 100 100 100 100 100 100 100 100 100 100 100 100 100 100 100 100 100 100 100 100 100 100 100 100 100 100 100 100 100 100 100 100 100 100 100 100 100 100 100 100 98 98 98 98 98 98 98 98 98 98 98 98 98 98 98 98 98 98 98 98 98 98 98 98 98 98 98 98 98 98 98 
253 253 253 251 251 251 230 230 230 230 199 176 236 236 136 193 169 142 121 121 119 142 142 137 188 243 237 253 251 250 181 181 92 92 117 99 105 105 105 105 105 105 105 105 100 100 100 100 100 100 100 100 100 100 100 100 100 100 100 100 100 100 100 100 100 100 100 100 100 100 100 100 100 100 100 100 100 100 100 100 100 100 100 100 100 100 100 100 98 98 98 98 98 98 98 98 98 98 98 98 98 98 98 98 98 98 98 98 98 98 98 98 98 98 98 98 98 98 98 
253 253 253 253 251 251 184 230 230 230 199 176 176 152 136 193 119 119 121 119 119 146 114 114 134 187 237 220 253 250 252 181 92 108 74 99 105 105 105 105 105 105 105 105 100 100 100 100 100 100 100 100 100 100 100 100 100 100 100 100 100 100 100 100 100 100 99 99 99 99 100 100 100 100 100 100 100 100 100 100 100 100 100 100 100 100 100 100 98 98 98 98 98 98 98 98 98 98 98 98 98 98 98 98 98 98 98 98 98 98 98 98 98 98 96 98 98 98 98 
253 217 253 253 145 219 136 184 146 146 199 137 137 152 125 125 119 141 121 184 184 146 140 114 134 187 167 220 253 240 240 181 205 108 127 80 105 108 108 108 108 108 108 108 101 101 101 101 101 101 100 100 100 100 100 100 100 100 100 100 100 100 100 100 100 99 99 99 99 99 100 100 100 100 100 100 100 100 100 100 100 100 100 100 100 100 100 100 100 100 100 100 100 100 100 100 100 100 100 100 100 100 100 100 100 100 100 100 100 100 100 100 100 98 96 96 96 95 95 
253 217 183 183 145 145 136 136 133 133 147 137 137 142 142 246 176 203 203 250 250 185 187 140 149 126 126 153 141 194 252 253 253 213 127 80 105 108 108 108 105 105 85 108 101 101 101 101 101 101 101 101 100 100 100 100 100 100 100 100 100 100 100 100 100 99 99 99 99 99 100 100 100 100 100 100 100 100 100 100 100 100 100 100 100 100 100 100 100 100 100 100 100 100 100 100 100 100 100 100 100 100 100 100 100 100 100 100 100 100 100 100 100 98 96 96 96 95 95 
146 146 146 141 144 145 131 131 137 164 147 228 246 246 214 246 176 253 253 250 250 238 187 183 149 149 126 123 141 194 184 236 253 253 228 128 151 77 112 115 96 105 102 102 101 101 101 101 101 101 101 101 101 101 100 100 100 100 100 100 100 100 100 100 99 99 99 99 99 99 100 100 100 100 100 100 100 100 100 100 100 100 100 100 100 100 100 100 100 100 100 100 100 100 100 100 100 100 100 100 100 100 100 100 100 100 100 100 100 100 100 100 100 100 96 96 96 95 95 
117 146 120 120 137 158 131 216 137 164 201 228 248 246 246 246 253 253 253 253 253 253 234 183 209 166 166 123 141 143 184 236 223 253 228 249 151 133 82 115 96 96 102 101 101 101 101 101 101 101 101 101 101 101 101 100 100 100 100 100 100 100 100 99 99 99 99 99 99 99 100 100 100 100 100 100 100 100 100 100 100 100 100 100 100 100 100 100 100 100 100 100 100 100 100 100 100 100 100 100 100 100 100 100 100 100 100 100 100 100 100 100 100 100 96 96 96 95 95 
117 184 147 147 250 158 189 216 236 164 201 228 248 246 246 246 253 253 253 253 253 253 234 242 209 166 174 143 143 143 184 165 164 231 252 249 239 133 86 77 96 96 102 101 101 101 101 101 101 101 101 101 101 101 101 101 101 100 100 100 100 100 100 99 99 99 99 99 99 99 100 100 100 100 100 100 100 100 100 100 100 100 100 100 100 100 100 100 100 100 100 100 100 100 100 100 100 100 100 100 100 100 100 100 100 100 100 100 100 100 106 106 84 96 96 96 132 95 95 
162 184 206 222 250 158 248 216 236 248 248 248 248 248 248 248 248 248 247 247 253 253 242 242 209 215 174 183 147 147 137 137 164 231 218 250 223 133 154 77 102 85 97 97 101 101 101 101 101 101 101 101 101 101 101 101 101 101 101 100 100 100 99 99 99 99 99 99 99 99 100 100 100 100 100 100 100 100 100 100 100 100 100 100 100 100 100 100 100 100 100 100 100 100 100 100 100 100 100 100 100 100 100 100 100 100 100 100 100 100 106 106 84 118 194 87 132 250 116 
244 244 206 251 251 250 248 248 248 248 248 248 248 248 248 248 248 247 247 247 253 253 242 242 246 246 218 183 147 147 139 137 134 138 156 225 249 223 251 175 209 114 97 97 101 101 101 101 101 101 101 101 101 101 101 101 101 101 101 101 101 99 99 99 99 99 99 99 99 99 100 100 100 100 100 100 100 100 100 100 100 100 100 100 100 100 100 100 100 100 100 100 100 100 100 100 100 100 100 100 100 100 100 100 100 100 100 100 100 100 106 106 84 118 194 237 132 250 218 
244 244 244 251 251 248 248 248 248 248 248 248 248 248 248 248 247 247 247 247 253 253 242 246 246 246 218 230 232 139 183 150 150 138 154 225 249 249 251 253 209 226 153 89 115 97 97 105 105 110 110 101 101 101 101 101 101 101 101 101 101 99 99 99 99 99 99 99 99 99 99 99 99 99 99 99 99 99 99 99 99 99 99 99 99 99 99 99 100 100 100 100 100 100 100 100 100 100 100 100 100 100 100 100 100 100 100 100 100 106 106 87 87 118 194 237 250 250 218 
244 244 244 251 251 251 248 248 248 248 248 248 248 248 248 247 247 247 247 247 247 247 234 234 234 234 250 250 232 232 183 150 150 132 154 154 148 217 253 253 253 226 153 89 94 97 105 105 105 110 110 110 110 101 101 101 101 101 101 101 101 99 99 99 99 99 99 99 99 99 99 99 99 99 99 99 99 99 99 99 99 99 99 99 99 99 99 99 99 100 100 100 100 100 100 100 100 100 100 100 100 100 100 100 100 100 100 100 102 102 108 108 87 152 253 248 248 229 237 
244 244 251 251 251 251 251 248 248 248 248 248 248 248 248 247 247 247 247 247 247 247 234 234 234 234 234 250 251 232 235 191 164 142 154 148 148 155 200 237 253 253 153 184 217 114 105 105 105 110 110 110 110 103 103 103 103 103 103 103 103 99 99 99 99 99 99 99 99 99 99 99 99 99 99 99 99 99 99 99 99 99 99 99 99 99 101 101 101 101 101 101 101 101 101 101 101 101 101 102 102 102 102 102 102 102 102 102 102 102 108 108 87 134 253 230 245 225 220 
244 251 251 251 251 251 251 251 251 248 248 248 248 248 247 247 247 247 247 247 247 247 234 234 234 234 234 252 251 252 250 248 192 142 142 134 128 155 200 184 252 251 253 253 217 114 83 75 105 84 84 87 103 103 103 103 103 103 103 103 103 99 99 99 99 99 99 99 99 99 99 99 99 99 99 99 99 99 99 99 99 99 99 99 99 101 101 101 101 101 101 101 101 101 101 101 101 101 101 101 102 102 102 102 102 102 102 102 102 102 96 108 91 139 252 230 245 225 236 
251 251 251 251 251 251 251 251 251 251 248 248 248 247 247 247 247 247 247 247 247 247 247 234 234 234 252 252 252 233 250 248 192 218 157 134 128 128 184 184 233 251 245 253 253 114 139 75 105 84 121 110 103 103 103 103 103 103 103 103 103 99 99 99 99 99 99 99 99 99 99 99 99 99 99 99 99 99 99 99 99 99 99 99 99 101 101 101 101 101 101 101 101 101 101 101 101 101 101 101 101 102 102 102 102 102 102 102 102 96 96 91 91 139 252 230 224 225 252 
251 251 251 251 251 251 251 251 251 251 251 251 247 247 247 247 247 247 247 247 247 247 247 247 241 241 241 241 241 241 250 234 252 218 218 134 130 142 137 137 159 212 211 249 253 254 254 204 230 134 121 107 103 103 103 103 103 103 103 103 103 101 101 101 101 101 101 101 101 101 99 99 99 99 99 99 99 99 99 99 99 99 99 99 99 101 101 101 101 101 101 101 101 101 101 101 101 101 101 101 101 101 102 102 102 102 102 102 85 96 96 91 91 189 220 237 224 224 224 
251 251 251 251 251 251 251 251 251 251 251 251 247 247 247 247 247 247 247 247 247 247 247 247 241 241 241 241 241 241 234 234 252 218 157 243 162 142 142 137 159 171 171 210 240 254 254 254 230 134 81 107 107 103 103 103 103 103 103 103 101 101 101 101 101 101 101 101 101 101 99 99 99 99 99 99 99 99 99 99 99 99 99 99 101 101 101 101 101 101 101 101 101 101 101 101 101 101 101 101 101 101 101 102 102 88 85 85 85 96 96 96 127 189 237 237 219 219 209 
251 251 251 251 251 251 251 251 251 251 251 251 247 247 247 247 247 247 247 247 247 247 247 247 241 241 241 241 241 241 234 234 252 218 243 243 178 178 148 148 139 139 171 210 240 240 254 254 230 190 81 107 107 104 104 104 104 104 104 104 101 101 101 101 101 101 101 101 101 99 99 99 99 99 99 99 99 99 99 99 99 99 99 99 101 101 101 101 101 101 101 101 101 101 101 101 101 101 101 101 101 101 101 101 102 88 85 85 85 96 96 118 210 189 237 237 216 219 219 
251 251 251 251 251 251 251 251 251 251 251 251 252 252 247 247 247 247 247 247 247 247 247 247 241 241 241 241 241 241 234 234 243 243 243 243 246 178 208 148 139 139 171 157 217 202 240 240 212 212 93 107 104 104 104 104 104 104 104 104 104 101 101 101 101 101 101 101 101 99 99 99 99 99 99 99 99 99 99 99 99 99 99 99 101 101 101 101 101 101 101 101 101 101 101 101 101 101 101 101 101 101 101 101 101 88 88 85 85 130 170 139 210 193 224 216 216 243 208 
251 251 251 251 251 251 251 251 251 251 251 252 252 252 252 252 252 252 247 247 247 247 247 247 241 241 241 241 241 244 244 234 243 243 243 246 246 252 208 148 166 139 139 157 161 202 240 220 249 232 111 104 104 104 104 104 104 104 104 104 104 101 101 101 101 101 101 101 101 99 99 99 99 99 99 99 99 99 99 99 99 99 99 101 101 101 101 101 101 101 101 101 101 101 101 101 101 101 101 101 101 101 101 101 101 88 185 85 109 130 234 213 241 241 224 216 216 243 220 
251 251 251 251 251 251 251 251 251 251 252 252 252 252 252 252 252 252 252 252 247 247 247 247 244 244 244 244 244 244 244 244 243 243 246 246 246 252 148 227 166 201 139 132 132 202 178 220 194 253 111 87 104 104 104 104 104 104 104 104 104 104 101 101 101 101 101 101 101 99 99 99 99 99 99 99 99 99 99 99 99 99 99 101 101 101 101 101 101 101 101 101 101 101 101 101 101 101 101 101 101 101 101 101 101 111 185 253 109 228 234 234 213 220 224 220 220 220 220 
251 251 251 251 251 251 251 251 251 251 252 252 252 252 252 252 252 252 252 252 247 247 247 244 244 244 244 244 244 244 244 244 244 246 246 246 246 252 252 227 245 201 235 172 138 137 137 156 194 161 128 87 104 104 104 104 104 104 104 104 104 104 104 101 101 101 101 101 101 101 101 101 101 101 101 101 101 101 101 101 101 101 101 101 101 101 101 101 101 101 101 101 101 101 101 101 101 101 101 101 101 101 111 111 111 111 232 253 236 228 224 224 241 220 220 235 220 220 166 
251 251 251 251 251 251 251 251 251 252 252 252 252 252 252 252 252 252 252 252 247 247 244 244 244 244 244 244 244 244 244 244 244 244 246 246 246 245 245 245 245 252 235 172 173 135 137 156 145 161 161 114 104 104 104 104 104 104 104 104 104 104 104 101 101 101 101 101 101 101 101 101 101 101 101 101 101 101 101 101 101 101 101 101 101 101 101 101 101 101 101 101 101 101 101 101 101 101 101 101 101 101 100 100 100 100 236 253 236 221 241 202 241 138 209 235 235 248 166 
251 251 251 251 251 251 251 251 251 252 252 252 252 252 252 252 252 252 252 252 247 244 244 244 244 244 244 244 244 244 244 244 244 244 244 245 245 245 245 245 245 245 235 252 173 135 99 141 121 90 90 114 104 104 104 104 104 104 104 104 104 104 104 104 101 101 101 101 101 101 101 101 101 101 101 101 101 101 101 101 101 101 101 101 101 101 101 101 101 101 101 101 101 101 101 101 101 101 101 101 101 101 100 100 100 99 236 236 248 150 241 202 174 138 209 235 248 248 215 
251 251 251 251 251 251 251 251 252 252 252 252 252 252 252 252 252 252 252 244 244 244 244 244 244 244 244 244 244 244 244 244 244 244 245 245 245 245 245 245 245 245 245 252 248 174 99 99 121 90 114 114 104 104 104 104 104 104 104 104 104 104 104 104 101 101 101 101 101 101 101 101 101 101 101 101 101 101 101 101 101 101 101 101 101 101 101 101 101 101 101 101 101 101 101 101 101 99 99 99 99 99 99 99 99 99 217 217 173 150 120 93 174 112 218 235 248 248 215 
251 251 251 251 251 251 251 252 252 252 252 252 252 252 252 252 252 252 252 244 244 244 244 244 244 244 244 244 244 244 244 244 244 244 245 245 245 245 245 245 245 245 245 245 248 174 99 99 121 90 114 114 114 104 104 104 104 104 104 104 104 104 104 104 104 104 104 104 101 101 101 101 101 101 101 101 101 101 101 101 101 101 101 105 101 101 101 101 101 101 101 101 101 101 101 101 101 99 99 99 99 99 99 99 99 99 217 107 107 150 120 113 137 197 201 238 221 248 172 
251 251 251 251 251 251 251 252 252 252 252 252 252 252 252 252 252 252 252 244 244 244 244 244 244 244 244 244 244 244 244 244 244 244 245 245 245 245 245 245 245 245 245 245 238 99 99 99 99 90 114 114 114 104 104 104 104 104 104 104 104 104 104 104 104 104 104 104 101 101 101 101 101 101 101 101 101 101 101 101 101 105 105 105 105 105 101 101 101 101 101 101 101 101 101 101 101 99 99 99 99 99 99 99 99 99 99 107 107 150 94 94 137 132 201 238 221 224 224 
251 251 251 251 251 251 252 252 252 252 252 252 252 252 252 252 252 252 252 244 244 244 244 244 244 244 244 244 244 244 244 244 244 244 245 245 245 245 245 245 245 245 245 245 238 238 99 102 102 114 114 114 114 104 104 104 104 104 104 104 104 104 104 104 104 104 104 104 101 101 101 101 101 101 101 101 101 101 101 101 105 105 105 105 105 105 105 101 101 101 101 101 101 101 101 101 101 99 99 99 99 99 99 99 99 99 107 107 107 107 94 94 137 88 202 202 221 224 224 
251 251 251 251 251 252 252 252 252 252 252 252 252 252 252 252 252 252 252 244 244 244 244 244 244 244 244 244 244 244 244 244 244 244 245 245 245 245 245 245 245 245 245 245 238 238 99 102 102 102 102 114 104 104 104 104 104 104 104 104 104 104 104 104 104 104 104 104 101 101 101 101 101 101 101 101 101 101 101 105 105 105 105 105 105 105 105 105 105 101 101 101 101 101 101 101 101 99 99 99 99 99 99 99 99 99 107 107 107 94 94 94 88 88 202 233 221 242 205 
251 251 251 251 251 252 252 252 252 252 252 252 252 252 252 252 252 252 252 244 244 244 244 244 244 244 244 244 244 244 244 244 244 244 245 245 245 245 245 245 245 245 245 245 242 102 102 102 102 102 102 102 104 104 104 104 104 104 104 104 104 104 104 104 104 104 104 104 101 101 101 101 101 101 101 101 101 105 105 105 105 105 105 105 105 105 105 105 105 105 105 101 101 101 101 101 101 99 99 99 99 99 99 107 107 107 107 107 107 107 107 101 101 85 233 233 233 242 242 
251 251 251 251 252 252 252 252 252 252 252 252 252 252 252 252 252 252 252 244 244 244 244 244 244 244 244 244 244 244 244 244 244 244 245 245 245 245 245 245 245 245 245 245 242 102 102 102 102 102 102 102 102 104 104 104 104 104 104 104 104 104 104 104 104 104 104 104 101 101 101 101 101 101 101 101 105 105 105 105 105 105 105 105 105 105 105 105 105 105 105 105 105 101 101 101 101 99 99 99 99 107 107 107 107 107 107 107 107 107 107 101 101 85 205 233 242 242 242 
251 251 251 251 252 252 252 252 252 252 252 252 252 252 252 252 252 252 252 244 244 244 244 244 244 244 244 244 244 244 244 244 244 244 245 245 245 245 245 245 245 245 245 243 242 102 102 102 102 102 102 102 102 102 104 104 104 104 104 104 104 104 104 104 104 104 104 104 101 101 101 101 101 101 101 105 105 105 105 105 105 105 105 105 105 105 105 105 105 105 105 105 105 105 105 105 105 105 107 107 107 107 107 107 107 107 107 107 107 107 107 107 101 85 205 243 243 242 218 
253 253 253 253 252 252 252 252 252 252 252 252 252 252 252 252 252 252 252 252 244 244 244 244 244 244 244 244 244 244 244 244 244 244 245 245 245 245 245 245 243 243 243 243 242 242 102 112 112 112 112 112 104 104 104 104 104 104 104 104 104 104 104 104 104 104 104 104 101 101 101 101 101 105 105 105 105 105 105 105 105 105 105 105 105 105 105 105 105 105 105 105 105 105 105 105 105 105 105 107 107 107 107 107 107 107 107 107 107 107 107 101 101 186 186 251 234 243 218 
253 253 253 253 253 253 252 252 252 252 252 252 252 252 252 252 252 252 252 252 252 252 244 244 244 244 244 244 244 244 244 244 244 244 245 245 243 243 243 243 243 243 243 243 242 242 102 112 112 112 112 112 112 112 104 104 104 104 104 104 104 104 104 104 104 104 104 104 101 101 101 101 105 105 105 105 105 105 105 105 105 105 105 105 105 105 105 105 105 105 105 105 105 105 105 105 105 105 105 105 107 107 107 107 107 107 107 107 107 107 107 98 168 168 168 251 234 234 218 
253 253 253 253 253 253 253 253 252 252 252 252 252 252 252 252 252 252 252 252 252 252 252 249 249 244 244 244 244 244 244 244 244 243 243 243 243 243 243 243 243 243 243 243 232 96 96 112 112 112 112 112 112 112 112 112 104 104 104 104 104 104 104 104 104 104 104 104 101 101 101 105 105 105 105 105 105 105 105 105 105 105 105 105 105 105 105 105 105 105 105 105 105 105 105 105 105 105 105 105 105 107 107 107 107 107 107 107 107 107 98 98 98 98 154 251 210 210 218 
253 253 253 253 253 253 253 253 253 253 252 252 252 252 252 252 252 252 252 252 252 252 252 249 249 249 249 249 244 244 244 244 243 243 243 243 243 243 243 243 243 243 243 243 232 96 96 112 112 112 112 112 112 112 112 112 112 112 104 104 104 104 104 104 104 104 105 105 101 105 105 105 105 105 105 105 105 105 105 105 105 105 105 105 105 105 105 105 105 105 105 105 105 105 105 105 105 105 105 105 105 92 107 107 107 107 107 107 107 98 98 98 98 98 154 246 210 114 218 
253 253 253 253 253 253 253 253 253 253 253 253 252 252 252 252 252 252 252 252 252 252 252 249 249 249 249 249 249 244 244 243 243 243 243 243 243 243 243 243 243 243 243 232 232 232 96 96 112 112 112 112 112 112 112 112 112 112 112 112 104 104 104 104 105 105 105 105 105 105 105 105 105 105 105 105 105 105 105 105 105 105 105 105 105 105 105 105 105 105 105 105 105 105 105 105 105 105 105 105 105 92 92 92 102 102 102 102 107 98 98 98 98 98 148 246 246 114 218 
253 253 253 253 253 253 253 253 253 253 253 253 253 253 252 252 252 252 252 252 252 252 252 249 249 249 249 249 249 244 243 243 243 243 243 243 243 243 243 243 243 243 243 243 232 232 96 96 112 112 112 112 112 112 112 112 112 112 112 112 112 112 105 105 105 105 105 105 105 105 105 105 105 105 105 105 105 105 105 105 105 105 105 105 105 105 105 105 105 105 105 105 105 105 105 105 105 105 105 105 105 92 92 92 102 102 102 102 102 85 98 98 102 148 148 129 114 114 129 
253 253 253 253 253 253 253 253 253 253 253 253 253 253 253 253 252 252 252 252 252 252 252 249 249 249 249 249 249 243 243 243 243 243 243 243 243 243 243 243 243 243 243 243 243 232 88 112 112 112 112 112 112 112 112 112 112 112 112 112 112 105 105 105 105 105 105 105 105 105 105 105 105 105 105 105 105 105 105 105 105 105 105 105 105 105 105 105 105 105 105 105 105 105 105 105 105 105 105 105 105 92 92 92 102 102 102 102 102 85 85 102 102 102 102 129 97 114 129 
253 253 253 253 253 253 253 253 253 253 253 253 253 253 253 253 253 252 252 252 252 252 252 249 249 249 249 249 249 243 243 243 243 243 243 243 243 243 243 243 243 243 243 243 243 88 88 112 112 112 112 112 112 112 112 112 112 112 112 112 112 105 105 105 105 105 105 105 105 105 105 105 105 105 105 105 105 105 105 105 105 105 105 105 105 105 105 105 105 105 105 105 105 105 105 105 105 105 105 105 105 92 92 92 102 102 102 102 102 85 85 85 102 102 102 66 97 114 129 
253 253 253 253 253 253 253 253 253 253 253 253 253 253 253 253 253 252 252 252 252 252 252 249 249 249 249 249 249 249 249 249 249 244 243 243 243 243 243 243 243 243 243 243 253 88 88 112 112 112 112 112 112 112 112 112 112 112 112 112 105 105 105 105 105 105 105 105 105 105 105 105 105 105 105 105 105 105 105 105 105 105 105 105 105 105 105 105 105 105 105 105 105 105 105 105 105 105 105 105 105 92 92 92 92 102 102 102 102 85 85 85 85 84 84 66 97 88 129 
249 253 253 253 253 253 253 253 253 253 253 253 253 253 253 253 253 252 252 252 252 252 252 249 249 249 249 249 249 249 249 249 249 244 244 243 243 243 243 243 243 243 243 253 253 253 88 112 112 112 112 112 112 112 112 112 112 112 112 112 105 105 105 105 105 105 105 105 105 105 105 105 105 105 105 105 105 105 105 105 105 105 105 105 105 105 105 105 105 105 105 109 96 96 96 105 105 105 105 105 105 92 92 92 92 102 102 102 78 85 116 85 85 84 84 66 105 105 129 
249 253 253 253 253 253 253 253 253 253 253 253 253 253 253 253 253 252 252 252 252 252 249 249 249 249 249 249 249 249 249 249 249 244 244 244 243 243 243 243 243 249 249 253 253 253 88 112 112 112 112 112 112 112 112 112 112 112 112 105 105 105 105 105 105 105 105 105 105 105 105 105 105 105 105 105 105 105 105 105 105 105 105 105 105 105 105 105 105 109 109 109 96 96 96 105 105 105 105 89 95 95 95 126 92 161 81 81 78 116 116 137 167 167 84 84 180 105 189 
249 253 253 253 253 253 253 253 253 253 253 253 253 253 253 253 253 252 252 252 252 252 249 249 249 249 249 249 249 249 249 249 249 244 244 244 244 249 249 249 249 249 249 249 249 184 184 184 112 112 112 112 112 112 112 112 112 112 112 105 105 105 105 105 105 105 105 105 105 105 105 105 105 105 105 105 105 105 105 105 105 101 101 101 105 105 105 105 109 109 109 109 96 96 96 96 105 105 89 162 95 95 95 126 144 161 81 195 195 166 116 196 167 167 167 180 180 180 189 
249 253 253 253 253 253 253 253 253 253 253 253 253 253 253 253 253 252 252 252 252 252 249 249 249 249 249 249 249 249 249 249 249 244 244 244 244 249 249 249 249 249 249 249 249 249 184 184 112 112 112 112 112 112 112 112 112 112 105 105 105 105 105 105 105 105 105 105 105 105 105 105 105 105 105 105 105 105 105 105 105 101 101 101 101 98 98 109 109 109 109 100 96 96 147 90 105 105 146 162 95 95 183 183 183 161 81 166 166 166 166 166 166 166 166 161 161 180 189 
249 249 253 253 253 253 253 253 253 253 253 253 253 253 253 253 251 251 252 252 252 186 211 249 249 249 249 249 249 249 249 249 249 244 244 244 244 244 249 249 249 249 249 249 249 249 184 113 113 113 113 113 113 113 113 113 113 113 105 105 105 105 105 105 105 105 105 105 105 105 105 105 105 105 105 105 105 105 105 105 105 137 101 101 101 98 98 98 105 93 135 100 118 118 147 173 180 121 146 180 168 168 183 183 166 166 166 166 166 166 166 166 166 166 161 161 161 161 161 
249 249 253 253 253 253 253 253 253 253 245 245 245 229 229 213 251 178 236 252 186 186 211 215 249 242 249 249 249 249 249 249 249 244 244 244 244 244 249 249 249 249 249 249 251 187 187 113 113 113 113 113 113 113 113 113 113 113 105 105 105 105 105 105 105 105 105 105 105 105 105 105 105 105 105 105 105 105 105 105 105 137 101 101 101 101 98 139 105 176 193 100 188 118 186 186 168 168 168 180 168 168 168 183 166 166 166 166 166 166 166 166 166 161 161 161 161 161 161 
249 249 253 253 253 253 253 253 237 221 245 245 169 229 229 213 197 178 159 159 165 186 165 215 192 242 249 249 249 244 244 244 244 244 244 244 244 244 244 249 249 249 249 249 251 187 94 113 113 113 113 113 113 113 113 113 113 113 105 105 105 105 105 105 105 105 105 105 105 105 105 105 105 105 105 105 105 105 105 105 105 137 137 101 101 101 120 139 158 176 193 171 188 186 186 168 168 168 168 168 168 168 168 166 166 166 166 166 166 166 166 166 161 161 161 161 161 161 161 
249 249 248 253 253 253 253 237 237 221 206 169 169 169 229 147 197 133 133 130 137 137 165 151 192 172 249 249 249 244 244 244 244 244 244 244 244 244 244 244 249 249 249 249 251 188 94 113 113 113 113 113 113 113 113 113 113 113 105 105 105 105 105 105 105 105 105 105 105 105 105 105 105 105 105 105 105 105 105 105 105 137 137 188 166 188 120 139 158 176 171 171 171 168 168 168 168 168 168 168 168 168 168 166 166 166 166 166 166 166 166 166 161 161 161 161 161 161 161 
249 197 248 155 202 202 143 167 237 148 148 148 136 145 145 147 131 131 112 130 137 137 151 151 142 172 163 249 244 244 244 244 244 244 244 244 244 244 244 244 249 249 249 249 252 193 113 113 113 113 113 113 113 113 113 113 113 113 105 105 105 105 105 105 105 105 105 105 105 105 105 105 105 105 105 105 84 106 136 95 178 137 137 188 188 188 188 139 158 171 171 171 171 168 168 168 168 168 168 168 168 168 168 166 166 166 166 166 166 166 166 161 161 161 161 161 161 145 145 
220 197 172 155 143 143 143 143 167 132 148 136 136 156 125 125 131 131 148 130 171 161 136 249 125 163 163 158 204 249 244 244 244 244 244 244 244 244 244 244 244 249 249 249 252 193 193 113 113 113 113 113 113 113 113 113 113 105 105 112 99 99 99 105 105 105 105 105 105 105 105 105 105 105 105 105 84 168 136 161 178 137 169 188 169 169 169 169 158 171 171 171 171 168 168 168 168 168 168 168 168 168 168 137 137 137 137 161 161 161 161 161 161 161 161 161 161 145 145 
220 140 172 133 133 131 143 130 132 132 132 136 136 231 169 192 192 131 221 249 224 161 163 136 125 144 134 158 204 201 233 209 209 244 244 244 240 240 240 240 240 251 251 251 252 214 97 97 113 113 113 113 113 113 113 112 112 112 112 112 99 99 99 99 99 105 105 105 105 91 105 102 102 102 149 151 151 168 168 161 149 169 169 169 169 169 169 169 169 171 171 171 171 168 168 168 168 168 168 168 168 168 168 137 137 137 137 137 161 161 161 161 161 161 161 161 161 145 145 
123 140 140 133 131 131 188 130 232 132 132 213 213 231 231 192 192 221 221 249 253 194 163 202 144 144 134 137 175 201 201 233 209 209 241 240 240 240 240 240 240 240 251 251 214 214 97 97 97 97 113 113 113 113 112 112 112 112 112 112 112 99 99 99 99 99 99 105 91 91 102 102 102 102 149 149 191 191 191 191 149 149 169 169 169 169 169 169 169 171 149 149 149 149 149 168 168 168 168 168 168 168 137 137 137 137 137 137 137 145 145 145 145 145 145 145 145 145 145 
123 170 195 232 232 131 188 212 232 232 232 232 213 253 253 232 192 250 233 233 253 194 232 202 213 144 142 153 175 162 201 201 236 220 241 225 240 240 240 240 240 240 240 251 251 214 97 97 97 97 113 113 113 113 112 112 112 112 112 112 112 99 99 99 99 99 99 90 90 91 162 157 157 102 193 193 191 191 191 191 149 149 149 169 169 169 169 169 169 149 149 149 149 149 149 149 168 168 168 137 137 137 137 137 137 137 137 137 137 145 145 145 145 145 145 145 145 145 145 
152 170 213 213 250 232 232 232 232 232 232 232 232 232 232 232 250 250 250 233 233 232 232 241 213 213 174 199 176 138 158 158 185 220 241 225 210 210 237 237 243 251 251 251 251 109 109 109 109 97 113 113 113 112 112 112 112 112 112 112 95 100 100 99 99 99 118 90 90 122 162 157 157 193 193 193 191 191 191 149 149 149 149 149 169 169 169 169 149 149 149 149 149 149 149 149 168 168 137 137 137 137 137 137 137 137 137 137 137 137 145 145 145 145 145 145 145 145 145 
245 245 213 213 250 232 232 232 232 232 232 232 232 232 232 232 250 250 250 233 235 235 235 241 213 248 221 199 176 172 158 160 143 180 200 225 210 210 237 237 243 243 250 250 250 250 109 109 123 97 113 113 112 112 112 112 112 112 112 112 95 100 100 100 99 136 118 199 90 122 185 185 185 185 185 185 149 149 149 149 149 149 149 149 149 169 169 149 149 149 149 149 149 149 149 149 137 137 137 137 137 137 137 137 137 137 137 137 137 137 145 145 145 145 145 145 145 136 136 
245 245 245 213 250 232 232 232 232 232 232 232 232 227 227 227 227 227 227 227 252 235 235 241 248 248 221 252 231 172 208 160 143 152 200 162 250 217 237 237 243 243 243 252 250 250 109 86 123 97 113 113 112 112 112 112 112 112 112 112 95 95 112 100 183 136 173 199 164 185 185 185 185 185 185 149 149 149 149 149 149 149 149 149 149 149 149 149 149 149 149 149 149 149 149 137 137 137 137 137 137 137 137 137 137 137 137 137 137 137 145 145 145 145 145 136 136 136 136 
245 245 245 213 250 232 232 232 232 232 232 232 232 227 227 227 227 227 227 227 252 252 252 252 252 252 252 252 231 233 208 181 214 163 146 162 217 217 180 216 243 243 243 252 252 136 136 86 123 97 116 116 98 112 112 112 112 112 112 112 112 139 112 146 183 136 183 164 164 164 185 185 185 185 185 149 149 149 149 149 149 149 149 149 149 149 149 149 149 149 149 149 149 149 149 137 137 137 137 137 137 137 137 137 137 137 137 137 137 137 136 136 136 136 136 136 136 136 136 
245 245 245 213 250 232 232 232 232 232 232 232 232 227 227 227 227 227 227 227 252 252 252 252 252 252 252 247 247 233 208 248 214 163 158 162 165 165 180 216 243 243 243 252 252 252 187 194 88 77 116 125 98 116 116 116 116 101 101 83 168 139 172 172 164 164 164 164 164 164 164 164 164 164 149 149 149 149 149 149 149 149 149 149 149 149 149 149 149 149 149 149 149 149 149 137 137 137 137 137 137 137 137 137 137 137 137 137 137 137 136 136 136 136 136 136 136 136 136 
245 245 245 245 250 232 232 232 232 232 232 232 232 227 227 227 227 227 227 227 252 252 252 252 252 252 247 247 247 248 248 248 214 201 218 180 134 165 158 174 146 204 187 227 227 253 235 194 117 77 106 125 98 116 116 116 116 130 101 134 168 139 172 185 175 164 164 164 164 164 164 164 164 164 149 149 149 149 149 149 149 149 149 149 149 149 149 149 149 149 149 149 149 149 149 149 149 137 137 137 137 137 137 137 137 137 137 137 137 137 136 136 136 136 136 136 136 136 136 
248 248 248 248 248 248 248 232 232 232 232 232 232 227 227 227 227 227 227 227 252 252 252 252 252 247 247 247 247 247 247 248 247 247 218 180 150 176 158 146 146 163 173 217 235 253 231 253 117 142 119 125 125 116 93 93 146 130 161 189 168 168 168 168 175 175 164 164 164 164 164 164 164 164 149 149 149 149 149 149 149 149 149 149 149 149 149 149 149 149 149 149 149 149 149 149 137 137 137 137 137 137 137 137 137 137 137 137 137 137 136 136 136 136 136 136 136 136 136 
248 248 248 248 248 248 248 248 232 232 232 232 232 227 227 227 227 227 227 227 252 252 252 252 247 247 247 247 247 247 247 247 247 247 218 180 218 176 187 139 146 149 173 217 235 209 231 237 237 253 119 100 100 137 137 112 146 183 183 187 168 168 175 175 175 175 175 164 164 164 164 164 164 164 149 149 149 149 149 149 149 149 149 149 149 149 149 149 149 149 149 149 149 149 149 149 137 137 137 137 137 137 137 137 137 137 137 137 137 137 136 136 136 136 136 136 136 136 136 
248 248 248 248 248 248 248 248 250 250 250 250 250 250 250 227 227 227 227 227 252 252 252 247 247 247 247 247 247 247 247 247 251 247 218 251 251 226 187 204 179 149 152 178 178 209 244 244 237 253 144 75 119 163 137 179 194 183 187 187 181 175 175 175 175 175 175 175 164 164 164 164 164 164 149 149 149 149 149 149 149 149 149 149 149 149 149 149 149 149 149 149 149 149 149 149 137 137 137 137 137 137 137 137 137 137 137 137 137 137 115 115 136 136 136 136 136 136 136 
248 248 248 248 248 248 248 248 250 250 250 250 250 250 250 250 250 250 227 227 252 252 247 247 247 247 247 247 247 247 247 247 251 251 251 251 251 226 244 204 179 219 152 135 209 209 183 183 214 248 127 155 197 181 193 179 174 183 163 163 181 158 158 158 158 158 158 158 158 164 164 164 164 164 149 149 149 149 149 149 149 109 109 149 149 149 149 149 149 149 149 149 149 149 149 149 137 137 137 137 137 137 137 137 137 137 137 137 137 115 115 115 115 136 136 136 136 136 136 
248 248 248 248 248 248 248 248 250 250 250 250 250 250 250 250 250 250 250 250 252 247 247 247 247 247 247 247 247 247 247 247 247 251 251 251 251 244 244 204 253 219 169 143 143 140 144 144 214 182 106 155 197 181 181 181 162 163 163 163 181 158 158 158 158 158 158 158 158 164 164 164 164 164 164 149 149 149 149 149 149 109 109 109 109 149 149 149 149 149 149 149 149 149 149 137 137 137 137 137 137 137 137 137 137 137 137 115 115 115 115 115 115 115 115 136 136 136 136 
229 229 229 229 229 229 229 229 250 250 250 250 250 250 250 250 250 250 250 250 250 247 247 247 247 247 247 247 247 247 247 247 247 251 251 251 244 244 244 253 253 219 214 227 176 140 140 162 135 182 106 186 186 181 181 181 162 162 163 163 181 158 158 158 158 158 158 158 158 164 164 164 164 164 164 149 149 149 149 149 149 109 109 109 109 109 149 149 149 149 149 115 115 115 115 115 115 115 137 137 137 137 137 137 137 137 115 115 115 115 115 115 115 115 115 115 115 136 136 
229 229 229 229 229 229 229 250 250 250 250 250 250 250 250 250 250 250 250 250 250 247 247 247 247 247 247 247 247 247 247 247 247 247 244 244 244 244 253 253 253 246 246 227 222 177 177 162 151 151 186 186 186 181 181 162 162 162 162 163 181 158 158 158 158 158 158 158 158 164 164 164 164 164 109 109 109 109 109 109 109 109 109 109 109 109 109 109 115 115 115 115 115 115 115 115 115 115 115 115 115 137 137 137 115 115 115 115 115 115 115 115 115 115 115 115 115 115 136 
229 229 229 229 229 229 229 250 250 250 250 250 250 250 250 250 250 250 250 250 250 247 247 247 247 247 247 247 247 247 247 247 247 247 247 246 246 246 246 246 246 246 246 252 222 177 192 162 162 182 186 186 186 186 162 162 162 162 162 162 181 158 158 158 158 158 158 158 158 164 164 164 164 109 109 109 109 109 109 109 109 109 109 109 109 109 109 109 115 115 115 115 115 115 115 115 115 115 115 115 115 115 115 115 115 115 115 115 115 115 115 115 115 115 115 115 115 115 115 
229 229 229 229 229 229 229 250 250 250 250 250 250 250 250 250 250 250 250 250 250 247 247 247 247 247 247 247 247 247 247 247 247 247 247 246 246 246 246 246 246 246 252 252 252 223 208 178 186 186 163 163 186 162 162 162 162 162 162 162 162 158 158 158 158 158 158 158 158 164 164 109 109 109 109 109 109 109 109 109 109 109 109 109 109 109 109 109 115 115 115 115 115 115 115 115 115 115 115 115 115 115 115 115 115 115 115 115 115 115 115 115 115 115 115 115 115 115 115 
229 229 229 229 229 229 250 250 250 250 250 250 250 250 250 250 250 250 250 250 250 250 247 247 247 247 247 247 247 247 247 247 247 247 247 246 246 246 246 246 246 246 252 252 252 244 208 178 178 163 163 163 163 162 162 162 162 162 162 162 162 162 158 158 158 158 158 158 158 164 109 109 109 109 109 109 109 109 109 109 109 109 109 109 109 109 109 109 115 115 115 115 115 115 115 115 115 115 115 115 115 115 115 115 115 115 115 115 115 115 115 115 115 115 115 115 115 115 115 
244 244 244 244 244 244 244 244 250 250 250 250 250 250 250 250 250 250 250 250 250 250 247 247 247 247 247 247 247 247 247 247 247 247 247 246 246 246 246 246 232 232 232 232 232 244 244 158 163 163 163 163 162 162 162 162 162 162 162 162 162 162 162 158 158 158 158 158 158 109 109 109 109 109 109 109 109 109 109 109 109 109 109 109 109 109 109 109 109 115 115 115 115 115 115 115 115 115 115 115 115 115 115 115 115 115 115 115 115 115 115 115 115 115 115 115 115 115 115 
244 244 244 244 244 244 244 244 244 250 250 250 250 250 250 250 250 250 250 250 250 250 247 247 247 247 247 247 247 247 247 247 247 247 247 246 246 232 232 232 232 232 232 232 232 232 184 158 158 163 163 163 162 162 162 162 162 162 162 162 162 162 162 158 158 158 158 158 158 109 109 109 109 109 109 109 109 109 109 109 109 109 109 109 109 109 109 109 109 115 115 115 115 115 115 115 115 115 115 115 115 115 115 115 115 115 115 115 115 115 115 115 115 115 115 115 115 115 115 
167 167 225 244 244 244 244 244 244 250 250 250 250 250 250 250 250 250 250 250 250 250 247 247 247 247 247 247 247 247 247 247 247 247 247 232 232 232 232 232 232 232 232 232 232 184 184 158 158 163 163 163 162 162 162 162 162 162 162 162 162 162 162 162 158 158 158 111 111 109 109 109 109 109 109 109 109 109 109 109 109 109 109 109 109 109 109 109 109 115 115 115 115 115 115 115 115 115 115 115 115 115 115 104 104 104 104 115 115 115 115 115 115 115 115 115 115 115 115 
167 209 225 225 244 244 244 244 244 250 250 250 250 250 250 250 250 250 250 250 250 250 250 247 247 247 247 247 247 247 247 247 247 247 247 232 232 232 232 232 232 232 232 232 248 248 184 158 158 163 163 163 128 162 162 162 162 162 162 162 162 162 162 162 111 111 111 111 111 109 109 109 109 109 109 109 109 109 109 109 109 109 109 109 109 109 109 109 109 115 115 115 115 115 115 115 115 115 115 115 115 115 115 104 104 104 104 104 115 115 115 115 115 115 115 115 115 115 115 
246 246 246 252 244 244 244 244 244 250 250 250 250 250 250 250 250 250 250 250 250 250 250 247 247 247 247 247 247 247 247 247 247 247 232 232 232 232 232 232 232 248 248 248 248 248 248 158 158 163 163 163 128 128 128 128 162 162 162 162 162 162 162 111 111 111 111 111 111 109 109 109 109 109 109 109 109 109 109 109 109 109 109 109 109 109 109 109 109 115 115 115 115 115 115 115 115 115 115 115 115 104 104 104 104 104 104 104 104 115 115 115 115 115 115 115 115 115 115 
246 246 252 252 252 252 252 252 252 252 250 250 250 250 250 250 250 250 250 250 250 250 250 247 247 247 247 247 247 247 247 247 247 247 248 248 248 248 248 248 248 248 248 248 248 248 180 180 158 128 128 128 128 128 128 128 162 162 162 162 162 162 111 111 111 111 111 111 111 111 111 111 109 109 109 109 109 109 109 109 109 109 109 109 109 109 109 109 109 115 115 115 115 115 115 115 115 115 104 104 104 104 104 104 104 104 104 104 104 104 115 115 115 115 115 115 115 115 115 
246 252 252 252 252 252 252 252 252 252 252 250 250 250 250 250 250 250 250 250 250 250 250 247 247 247 247 247 247 247 247 247 247 247 248 248 248 248 248 248 248 248 248 248 248 180 180 180 158 128 128 128 128 128 128 128 162 162 162 162 162 111 111 111 111 111 111 111 111 111 111 111 111 109 109 109 109 109 109 109 109 109 109 109 109 109 109 109 109 115 115 115 115 115 115 115 115 115 104 104 104 104 104 104 104 104 104 104 104 104 115 115 115 115 115 115 115 115 115 
252 252 252 252 252 252 252 252 252 252 252 252 252 250 250 250 250 250 250 250 250 250 250 224 224 224 247 247 247 247 247 247 247 240 240 240 240 240 240 240 240 240 240 240 240 168 168 133 128 128 128 128 128 128 128 128 162 162 162 111 111 111 111 111 111 111 111 111 111 111 111 111 111 111 109 109 109 109 109 109 109 109 109 109 109 109 109 109 109 115 115 115 115 115 115 115 115 115 104 104 104 104 104 104 104 104 104 104 104 104 115 115 115 115 115 115 115 115 115 
252 252 252 252 252 252 252 252 252 252 252 252 252 250 250 250 250 250 250 250 250 224 224 224 224 224 224 224 247 247 247 247 240 240 240 240 240 240 240 240 240 240 240 240 240 240 168 133 133 133 111 111 128 128 128 128 162 162 111 111 111 111 111 111 111 111 111 111 111 111 111 111 111 111 109 109 109 109 109 109 109 109 109 109 109 109 109 109 109 115 115 115 115 115 115 115 115 115 104 104 104 104 104 104 104 104 104 104 104 104 115 115 115 115 115 115 115 115 115 
252 252 252 252 252 252 252 252 252 252 252 252 252 250 250 250 250 250 250 224 224 224 224 224 224 224 224 224 247 247 247 240 240 240 240 240 240 240 240 240 240 240 240 240 240 240 168 133 126 126 111 111 128 128 128 128 162 111 111 111 111 111 111 111 111 111 111 111 111 111 111 111 111 111 111 109 109 109 109 109 109 109 109 109 109 109 109 109 109 109 115 115 115 115 115 115 115 115 104 104 104 104 104 104 104 104 104 104 104 104 115 115 115 115 115 115 115 115 115 
252 252 252 252 252 252 252 252 252 252 252 252 249 250 250 250 250 224 224 224 224 224 224 224 224 224 224 224 224 252 252 252 252 240 240 240 240 240 240 240 240 240 240 240 240 240 126 126 111 111 111 111 128 128 128 128 111 111 111 111 111 111 111 111 111 111 111 111 111 111 111 111 111 111 111 109 109 109 109 109 109 109 109 109 109 109 109 109 109 109 115 115 115 115 115 115 115 115 104 104 104 104 104 104 104 104 104 104 104 104 115 115 115 115 115 115 115 115 115 
252 252 252 252 252 252 252 252 252 252 252 249 249 250 250 224 224 224 224 224 224 224 224 224 224 224 224 224 224 252 252 252 252 252 239 239 239 239 239 239 239 239 239 239 239 143 143 143 120 111 111 111 128 128 128 128 111 111 111 111 111 111 111 111 111 111 111 111 111 111 111 111 111 111 111 111 109 109 109 109 109 109 109 109 109 109 109 109 109 109 115 115 115 115 115 115 115 115 104 104 104 104 104 104 104 104 104 104 104 104 115 115 115 115 115 115 115 115 115 
252 252 252 252 252 252 252 252 252 249 249 249 249 224 224 224 224 224 224 224 224 224 224 224 224 224 224 224 224 252 252 252 252 252 239 239 239 239 239 239 239 239 239 239 239 239 143 120 120 120 111 111 128 111 111 111 111 111 111 111 111 111 111 111 111 111 111 111 111 111 111 111 111 111 111 111 104 104 109 109 109 109 109 109 109 109 109 109 109 109 115 115 115 115 115 115 115 115 104 104 104 104 104 104 104 104 104 104 104 104 115 115 115 115 115 115 115 115 115 
252 252 252 252 252 252 252 250 250 249 249 249 249 224 224 224 224 224 224 224 224 224 224 224 224 224 224 224 224 252 252 252 252 252 239 239 239 239 239 239 239 239 239 239 239 239 120 120 120 120 120 111 128 111 111 111 111 111 111 111 111 111 111 111 111 111 111 111 111 111 111 111 111 111 111 104 104 104 104 104 104 104 109 109 109 109 109 109 109 109 115 115 115 115 115 115 115 115 104 104 104 104 104 104 104 104 104 104 104 104 115 115 115 115 115 115 115 115 115 
252 252 252 252 252 250 250 250 250 249 249 249 249 224 224 224 224 224 224 224 224 224 224 224 224 224 224 224 224 252 252 252 252 252 252 239 239 239 239 239 239 239 239 239 239 239 136 99 99 99 99 99 99 111 111 111 111 111 111 111 111 111 111 111 111 111 111 111 111 111 111 111 111 111 104 104 104 104 104 104 104 104 104 104 104 109 109 109 109 109 115 115 115 115 115 115 115 115 104 104 104 104 104 104 104 104 104 104 104 104 115 115 115 115 115 115 115 100 100 
252 252 252 252 250 250 250 250 250 249 249 249 249 224 224 224 224 224 224 224 224 224 224 224 224 224 224 224 224 252 252 252 252 252 252 237 237 237 237 237 237 237 237 237 237 239 136 99 99 99 99 99 99 99 111 111 111 111 111 111 111 111 111 111 111 111 111 111 111 111 111 111 111 104 104 104 104 104 104 104 104 104 104 104 104 104 104 104 104 109 115 115 115 115 115 115 115 115 104 104 104 104 104 104 104 104 104 104 104 104 115 115 115 115 100 100 100 100 100 
252 252 252 252 250 250 250 250 250 250 249 249 249 224 224 224 224 224 224 224 224 224 224 224 224 224 224 224 224 252 252 252 252 252 252 237 237 237 237 237 237 237 237 237 237 133 133 99 99 99 99 99 99 99 99 111 111 111 111 111 111 111 111 111 111 111 111 111 111 111 111 111 104 104 104 104 104 104 104 104 104 104 104 104 104 104 104 104 104 104 104 115 115 115 115 115 115 115 104 104 104 104 104 104 104 104 104 104 104 104 115 100 100 100 100 100 100 100 100 
252 252 252 252 250 250 250 250 250 250 249 249 249 224 224 224 224 224 224 224 224 224 224 224 224 224 224 224 224 252 252 252 252 252 252 237 237 237 237 237 237 237 237 237 237 133 133 99 99 99 99 99 99 99 99 99 111 111 111 111 111 111 111 111 111 111 111 111 111 111 111 104 104 104 104 104 104 104 104 104 104 104 104 104 104 104 104 104 104 104 104 104 115 115 115 115 115 115 104 104 104 104 104 104 104 104 104 104 104 104 100 100 100 100 100 100 100 100 100 
252 252 252 252 250 250 250 250 250 250 249 249 249 228 206 250 250 224 224 224 224 224 224 224 224 224 224 224 224 252 252 252 252 252 252 237 237 237 237 237 237 237 237 237 237 237 133 99 99 99 99 99 99 99 99 99 111 111 111 111 111 111 111 111 111 111 111 111 111 111 104 104 104 104 104 104 104 104 104 104 104 104 104 104 104 104 104 104 104 104 104 104 115 115 115 115 115 115 104 104 104 104 104 104 104 104 104 104 104 104 100 100 100 100 100 100 100 100 100 
252 252 252 252 250 250 250 250 250 250 234 249 249 228 206 206 223 223 224 224 224 224 224 224 224 252 224 224 224 252 252 252 252 252 252 252 237 237 237 237 237 237 237 237 237 237 133 99 99 99 99 99 99 99 99 99 99 111 111 111 111 111 111 111 111 111 111 111 111 104 104 104 104 104 104 104 104 104 104 104 104 104 104 104 104 104 104 104 104 104 104 104 104 115 115 115 115 115 104 104 104 104 104 104 104 104 104 104 100 100 100 100 100 100 100 100 100 100 100 
252 252 252 237 237 237 250 250 250 250 234 234 220 228 230 230 223 223 211 221 221 221 232 252 252 252 252 252 252 252 252 252 252 252 252 252 237 237 237 237 237 237 237 237 237 237 139 99 99 99 99 99 99 99 99 99 99 99 111 111 111 111 111 111 111 111 111 111 111 104 104 104 104 104 104 104 104 104 104 104 104 104 104 104 104 104 104 104 104 104 104 104 104 104 104 104 104 104 104 104 104 104 104 104 104 104 104 100 100 100 100 100 100 100 100 100 100 100 100 
252 252 237 237 237 237 250 250 250 234 234 247 247 247 252 230 252 236 211 221 221 221 203 252 252 232 232 252 252 252 252 252 251 251 251 251 251 244 244 244 244 244 244 244 244 139 139 99 99 99 99 99 99 99 99 99 99 99 99 111 111 111 111 111 111 111 111 111 104 104 104 104 104 104 104 104 104 104 104 104 104 104 104 104 104 104 104 104 104 104 104 104 104 104 104 104 104 104 104 104 104 104 104 104 104 100 100 100 100 100 100 100 100 100 100 100 100 100 100 
252 252 237 237 237 237 250 250 218 218 251 251 247 233 252 198 252 155 211 211 186 137 203 203 252 252 232 249 249 252 252 251 251 251 251 251 251 251 244 244 244 244 244 244 244 139 139 99 99 99 99 99 99 99 99 99 99 99 99 99 111 111 111 111 111 111 111 104 104 104 104 104 104 104 104 104 104 104 104 104 104 104 104 104 104 104 104 104 104 104 104 104 104 104 104 104 104 104 104 104 104 104 104 100 100 100 100 100 100 100 100 100 100 100 100 100 100 100 100 
229 229 237 237 217 217 234 234 247 247 251 251 180 233 252 198 174 127 104 148 110 125 173 203 179 227 249 249 249 252 251 251 251 251 251 251 251 251 244 244 244 244 244 244 244 244 139 109 99 99 99 99 99 99 99 99 99 99 99 99 111 111 111 111 111 111 104 104 104 104 104 104 104 104 104 104 104 104 104 104 104 104 104 104 104 104 104 104 104 104 104 104 104 104 104 104 104 104 104 104 104 104 100 100 100 100 100 100 100 100 100 100 100 100 100 100 100 100 100 
251 251 170 251 251 251 234 234 216 216 251 180 180 162 162 198 147 127 104 148 93 125 173 140 179 227 200 249 249 251 251 251 251 251 251 251 251 251 244 244 244 244 244 244 244 244 139 109 99 99 99 99 99 99 99 99 99 99 99 99 99 111 111 111 111 104 104 104 104 104 104 104 104 104 104 104 104 104 104 104 104 104 104 104 104 104 104 104 104 104 104 104 104 104 104 104 104 104 104 104 100 100 100 100 100 100 100 100 100 100 100 100 100 100 100 100 100 100 100 
180 180 170 170 251 195 195 158 158 146 146 137 137 162 130 135 125 125 127 155 138 125 160 140 148 167 200 203 249 251 251 251 251 251 251 251 251 251 251 244 244 244 244 244 244 244 139 109 99 99 99 99 99 99 99 99 99 99 99 99 99 99 111 111 104 104 104 104 104 104 104 104 104 104 104 104 104 104 104 104 104 104 104 104 104 104 104 104 104 104 104 104 104 104 104 104 104 104 104 100 100 100 100 100 100 100 100 100 100 100 100 100 100 100 100 100 100 100 100 
180 133 170 151 151 151 123 134 134 146 137 137 133 130 130 135 193 231 155 155 155 249 172 172 148 249 203 203 169 203 251 251 251 251 251 251 251 251 251 238 238 238 238 238 238 174 99 99 99 99 99 99 99 99 99 99 99 99 99 99 99 99 99 104 104 104 104 104 104 104 104 104 104 104 104 104 104 104 104 104 104 104 104 104 104 104 104 104 104 104 104 104 104 104 104 104 104 100 100 100 100 100 100 100 100 100 100 100 100 100 100 100 100 100 100 100 100 100 100 
107 133 133 123 123 123 123 123 123 135 135 135 133 230 248 158 193 231 231 249 249 249 249 249 249 252 251 148 169 203 186 251 251 251 251 251 251 251 251 238 238 238 238 238 238 174 99 99 99 99 99 99 99 99 99 99 99 99 99 99 99 99 99 104 104 104 104 104 104 104 104 104 104 104 104 104 104 104 104 104 104 104 104 104 104 104 104 104 104 104 104 104 104 104 104 104 104 100 100 100 100 100 100 100 100 100 100 100 100 100 100 100 100 100 100 100 100 100 100 
