P2
#CREATOR : MyProgram
481 321
255
31 31 31 31 31 31 31 31 31 31 31 31 31 31 31 31 31 31 31 31 31 31 31 31 31 31 31 31 31 31 31 31 31 31 31 31 31 31 31 31 31 31 31 31 31 31 31 31 31 31 31 31 31 31 31 31 31 31 31 31 31 31 31 31 31 31 31 31 31 31 31 31 31 31 31 31 31 31 31 31 31 31 31 31 31 31 31 31 31 31 31 31 31 31 31 31 31 31 31 31 31 31 31 31 31 31 31 31 31 31 31 31 31 31 31 31 31 31 31 31 31 31 31 31 31 31 31 31 31 31 31 31 31 31 31 31 31 31 31 31 31 31 31 31 31 31 31 31 31 31 31 31 31 31 31 31 31 31 31 31 32 32 32 32 32 32 32 32 32 32 32 32 32 32 32 32 32 32 32 32 32 32 32 32 32 32 32 32 32 32 32 32 32 32 32 32 32 32 32 32 32 32 32 32 32 32 32 32 32 32 32 32 32 32 32 32 32 32 32 32 32 32 32 32 32 32 32 32 32 32 32 32 32 32 32 32 32 32 32 32 32 32 32 32 32 32 32 32 32 32 32 32 32 32 32 32 32 32 32 32 32 32 32 32 32 32 32 32 32 32 32 32 32 32 32 32 32 32 32 32 32 32 32 32 32 32 32 32 32 32 32 32 32 32 32 32 32 32 32 32 32 32 32 32 32 32 32 32 32 32 32 32 32 32 32 32 32 32 32 32 32 -1 -1 -1 -1 -1 -1 -1 -1 -1 -1 -1 -1 -1 -1 -1 -1 -1 -1 -1 -1 -1 -1 -1 -1 -1 -1 -1 -1 -1 -1 -1 -1 -1 -1 -1 -1 -1 -1 -1 -1 -1 -1 -1 -1 -1 -1 -1 -1 -1 -1 -1 -1 -1 -1 -1 -1 -1 -1 -1 -1 -1 -1 -1 -1 -1 -1 -1 -1 -1 -1 -1 -1 -1 -1 -1 -1 -1 -1 -1 -1 -1 -1 -1 -1 -1 -1 -1 -1 -1 -1 -1 -1 -1 -1 -1 -1 -1 -1 -1 -1 -1 -1 -1 -1 -1 -1 -1 -1 -1 -1 -1 -1 -1 -1 -1 -1 -1 -1 -1 -1 -1 -1 -1 -1 -1 -1 -1 -1 -1 -1 -1 -1 -1 -1 -1 -1 -1 -1 -1 -1 -1 -1 -1 -1 -1 -1 -1 -1 -1 -1 -1 -1 -1 -1 -1 -1 -1 -1 -1 -1 
49 42 36 33 36 39 39 39 39 39 39 39 39 39 39 39 39 39 39 39 39 39 39 39 39 39 39 39 39 39 39 39 39 39 39 39 39 39 39 39 39 39 39 39 39 39 39 39 39 39 39 39 39 39 39 39 39 39 39 39 39 39 39 39 39 39 39 39 39 39 39 39 39 39 39 39 39 39 39 39 39 39 39 39 39 39 39 39 39 39 39 39 39 39 39 39 39 39 39 39 39 39 39 39 39 39 39 39 39 39 39 39 39 39 39 39 39 39 39 39 39 39 39 39 39 39 39 39 39 39 39 39 39 39 39 39 39 39 39 39 39 39 39 39 39 39 39 39 39 39 39 39 39 39 39 39 39 39 39 39 39 39 39 39 39 39 39 39 39 39 39 39 39 39 39 39 39 39 39 39 39 39 39 39 39 39 39 39 39 39 39 39 39 39 39 39 39 39 39 39 39 39 39 39 39 39 39 39 39 39 39 39 39 39 39 39 39 39 39 39 39 39 39 39 39 40 40 40 40 40 40 40 40 40 40 40 40 40 40 40 40 40 40 40 40 40 40 40 40 40 40 40 40 40 40 40 40 40 40 40 40 40 40 40 40 40 40 40 40 40 40 40 40 40 40 40 40 40 40 40 40 40 40 40 40 40 40 40 40 40 40 40 40 40 40 40 40 40 40 40 40 40 40 40 40 40 40 40 40 40 40 40 40 40 40 40 40 40 40 39 33 -1 -1 -1 -1 -1 -1 -1 -1 -1 -1 -1 -1 -1 -1 -1 -1 -1 -1 -1 -1 -1 -1 -1 -1 -1 -1 -1 -1 -1 -1 -1 -1 -1 -1 -1 -1 -1 -1 -1 -1 -1 -1 -1 -1 -1 -1 -1 -1 -1 -1 -1 -1 -1 -1 -1 -1 -1 -1 -1 -1 -1 -1 -1 -1 -1 -1 -1 -1 -1 -1 -1 -1 -1 -1 -1 -1 -1 -1 -1 -1 -1 -1 -1 -1 -1 -1 -1 -1 -1 -1 -1 -1 -1 -1 -1 -1 -1 -1 -1 -1 -1 -1 -1 -1 -1 -1 -1 -1 -1 -1 -1 -1 -1 -1 -1 -1 -1 -1 -1 -1 -1 -1 -1 -1 -1 -1 -1 -1 -1 -1 -1 -1 -1 -1 -1 -1 -1 -1 -1 -1 -1 -1 -1 -1 -1 -1 -1 -1 -1 -1 -1 -1 -1 -1 -1 -1 -1 -1 -1 -1 
66 60 53 47 40 34 36 38 41 44 46 47 47 47 47 47 47 47 47 47 47 47 47 47 47 47 47 47 47 47 47 47 47 47 47 47 47 47 47 47 47 47 47 47 47 47 47 47 47 47 47 47 47 47 47 47 47 47 47 47 47 47 47 47 47 47 47 47 47 47 47 47 47 47 47 47 47 47 47 47 47 47 47 47 47 47 47 47 47 47 47 47 47 47 47 47 47 47 47 47 47 47 47 47 47 47 47 47 47 47 47 47 47 47 47 47 47 47 47 47 47 47 47 47 47 47 47 47 47 47 47 47 47 47 47 47 47 47 47 47 47 47 47 47 47 47 47 47 47 47 47 47 47 47 47 47 47 47 47 47 47 47 47 47 47 47 47 47 47 47 47 47 47 47 47 47 47 47 47 47 47 47 47 47 47 47 47 47 47 47 47 47 47 47 47 47 47 47 47 47 47 47 47 47 47 47 47 47 47 47 47 47 47 47 47 47 47 47 47 47 47 47 47 47 47 47 47 47 47 47 47 47 47 47 47 47 47 47 47 47 47 47 47 47 47 47 47 47 47 47 47 47 47 47 47 47 47 47 47 47 47 47 47 47 47 47 47 47 47 47 47 47 47 47 47 47 47 47 47 47 47 47 47 47 47 47 47 47 47 48 48 48 48 48 48 48 48 48 48 48 48 48 48 48 48 48 48 48 48 48 47 47 47 47 47 47 47 47 47 35 34 -1 -1 -1 -1 -1 -1 -1 -1 -1 -1 -1 -1 -1 -1 -1 -1 -1 -1 -1 -1 -1 -1 -1 -1 -1 -1 -1 -1 -1 -1 -1 -1 -1 -1 -1 -1 -1 -1 -1 -1 -1 -1 -1 -1 -1 -1 -1 -1 -1 -1 -1 -1 -1 -1 -1 -1 -1 -1 -1 -1 -1 -1 -1 -1 -1 -1 -1 -1 -1 -1 -1 -1 -1 -1 -1 -1 -1 -1 -1 -1 -1 -1 -1 -1 -1 -1 -1 -1 -1 -1 -1 -1 -1 -1 -1 -1 -1 -1 -1 -1 -1 -1 -1 -1 -1 -1 -1 -1 -1 -1 -1 -1 -1 -1 -1 -1 -1 -1 -1 -1 -1 -1 -1 -1 -1 -1 -1 -1 -1 -1 -1 -1 -1 -1 -1 -1 -1 -1 -1 -1 -1 -1 -1 -1 -1 -1 -1 -1 -1 -1 -1 -1 -1 -1 -1 -1 -1 -1 -1 -1 
84 77 71 64 58 51 45 38 36 38 41 44 46 49 51 54 54 54 54 54 54 54 54 54 54 54 54 54 54 54 54 54 54 55 55 55 55 55 55 55 55 55 55 55 55 55 55 55 55 55 55 55 55 55 55 55 55 55 55 55 55 55 55 55 55 55 55 55 55 55 55 55 55 55 55 55 55 55 55 55 55 55 55 55 55 55 55 55 55 55 55 55 55 55 55 55 55 55 55 55 55 55 55 55 55 55 55 55 55 55 55 55 55 55 55 55 55 55 55 55 55 55 55 55 55 55 55 55 55 55 55 55 55 55 55 55 55 55 55 55 55 55 55 55 55 55 55 55 55 55 55 55 55 55 55 55 55 55 55 55 55 55 55 55 55 55 55 55 55 55 55 55 55 55 55 55 55 55 55 55 55 55 55 55 55 55 55 55 55 55 55 55 55 55 55 55 55 55 55 55 55 55 55 55 55 55 55 55 55 55 55 55 55 55 55 55 55 55 55 55 55 55 55 55 55 55 55 55 55 55 55 55 55 55 55 55 55 55 55 55 55 55 55 55 55 55 55 55 55 55 55 55 55 55 55 55 55 55 55 55 55 55 55 55 55 55 55 55 55 55 55 55 55 55 55 55 55 55 55 55 55 55 55 55 55 55 55 55 55 55 55 55 55 55 55 55 55 55 55 55 55 55 55 55 55 55 55 55 55 55 55 55 55 55 55 55 55 54 42 31 36 -1 -1 -1 -1 -1 -1 -1 -1 -1 -1 -1 -1 -1 -1 -1 -1 -1 -1 -1 -1 -1 -1 -1 -1 -1 -1 -1 -1 -1 -1 -1 -1 -1 -1 -1 -1 -1 -1 -1 -1 -1 -1 -1 -1 -1 -1 -1 -1 -1 -1 -1 -1 -1 -1 -1 -1 -1 -1 -1 -1 -1 -1 -1 -1 -1 -1 -1 -1 -1 -1 -1 -1 -1 -1 -1 -1 -1 -1 -1 -1 -1 -1 -1 -1 -1 -1 -1 -1 -1 -1 -1 -1 -1 -1 -1 -1 -1 -1 -1 -1 -1 -1 -1 -1 -1 -1 -1 -1 -1 -1 -1 -1 -1 -1 -1 -1 -1 -1 -1 -1 -1 -1 -1 -1 -1 -1 -1 -1 -1 -1 -1 -1 -1 -1 -1 -1 -1 -1 -1 -1 -1 -1 -1 -1 -1 -1 -1 -1 -1 -1 -1 -1 -1 -1 -1 -1 -1 -1 -1 -1 
84 84 84 82 76 69 63 56 50 43 37 38 41 43 46 49 51 54 57 59 62 62 62 62 62 62 62 62 62 62 62 62 62 62 62 62 62 62 62 62 62 62 62 62 62 62 62 62 62 62 62 62 62 62 62 62 62 62 62 62 62 62 62 62 62 62 62 62 62 62 62 62 62 62 62 62 62 62 62 62 62 62 62 62 62 62 62 62 62 62 62 62 62 62 62 62 62 62 63 63 63 63 63 63 63 63 63 63 63 63 63 63 63 63 63 63 63 63 63 63 63 63 63 63 63 63 63 63 63 63 63 63 63 63 63 63 63 63 63 63 63 63 63 63 63 63 63 63 63 63 63 63 63 63 63 63 63 63 63 63 63 63 63 63 63 63 63 63 63 63 63 63 63 63 63 63 63 63 63 63 63 63 63 63 63 63 63 63 63 63 63 63 63 63 63 63 63 63 63 63 63 63 63 63 63 63 63 63 63 63 63 63 63 63 63 63 63 63 63 63 63 63 63 63 63 63 63 63 63 63 63 63 63 63 63 63 63 63 63 63 63 63 63 63 63 63 63 63 63 63 63 63 63 63 63 63 63 63 63 63 63 63 63 63 63 63 63 63 63 63 63 63 63 63 63 63 63 63 63 63 63 63 63 63 63 63 63 63 63 63 63 63 63 63 63 63 63 63 63 63 63 63 63 63 63 63 63 63 63 63 63 63 63 63 63 63 61 49 38 32 37 -1 -1 -1 -1 -1 -1 -1 -1 -1 -1 -1 -1 -1 -1 -1 -1 -1 -1 -1 -1 -1 -1 -1 -1 -1 -1 -1 -1 -1 -1 -1 -1 -1 -1 -1 -1 -1 -1 -1 -1 -1 -1 -1 -1 -1 -1 -1 -1 -1 -1 -1 -1 -1 -1 -1 -1 -1 -1 -1 -1 -1 -1 -1 -1 -1 -1 -1 -1 -1 -1 -1 -1 -1 -1 -1 -1 -1 -1 -1 -1 -1 -1 -1 -1 -1 -1 -1 -1 -1 -1 -1 -1 -1 -1 -1 -1 -1 -1 -1 -1 -1 -1 -1 -1 -1 -1 -1 -1 -1 -1 -1 -1 -1 -1 -1 -1 -1 -1 -1 -1 -1 -1 -1 -1 -1 -1 -1 -1 -1 -1 -1 -1 -1 -1 -1 -1 -1 -1 -1 -1 -1 -1 -1 -1 -1 -1 -1 -1 -1 -1 -1 -1 -1 -1 -1 -1 -1 -1 -1 -1 
84 84 84 84 84 84 80 74 67 61 54 48 41 38 40 43 46 48 51 54 56 59 62 64 67 70 70 70 70 70 70 70 70 70 70 70 70 70 70 70 70 70 70 70 70 70 70 70 70 70 70 70 70 70 70 70 70 70 70 70 70 70 70 70 70 70 70 70 70 70 70 70 70 70 70 70 70 70 70 70 70 70 70 70 70 70 70 70 70 70 70 70 70 70 70 70 70 70 70 70 70 70 70 70 70 70 70 70 70 70 70 70 70 70 70 70 70 70 70 70 70 70 70 70 70 70 70 70 70 70 70 70 70 70 70 70 70 70 70 70 70 70 70 70 70 70 70 70 70 70 70 70 70 70 70 70 70 70 70 70 70 70 71 71 71 71 71 71 71 71 71 71 71 71 71 71 71 71 71 71 71 71 71 71 71 71 71 71 71 71 71 71 71 71 71 71 71 71 71 71 71 71 71 71 71 71 71 71 71 71 71 71 71 71 71 71 71 71 71 71 71 71 71 71 71 71 71 71 71 71 71 71 71 71 71 71 71 71 71 71 71 71 71 71 71 71 71 71 71 71 71 71 71 71 71 71 71 71 71 71 71 71 71 71 71 71 71 71 71 71 71 71 71 71 71 71 71 71 71 71 71 71 71 71 71 71 71 71 71 71 71 71 71 71 71 71 71 71 71 71 71 71 71 71 71 71 71 71 71 70 70 70 70 70 70 68 57 45 33 33 38 -1 -1 -1 -1 -1 -1 -1 -1 -1 -1 -1 -1 -1 -1 -1 -1 -1 -1 -1 -1 -1 -1 -1 -1 -1 -1 -1 -1 -1 -1 -1 -1 -1 -1 -1 -1 -1 -1 -1 -1 -1 -1 -1 -1 -1 -1 -1 -1 -1 -1 -1 -1 -1 -1 -1 -1 -1 -1 -1 -1 -1 -1 -1 -1 -1 -1 -1 -1 -1 -1 -1 -1 -1 -1 -1 -1 -1 -1 -1 -1 -1 -1 -1 -1 -1 -1 -1 -1 -1 -1 -1 -1 -1 -1 -1 -1 -1 -1 -1 -1 -1 -1 -1 -1 -1 -1 -1 -1 -1 -1 -1 -1 -1 -1 -1 -1 -1 -1 -1 -1 -1 -1 -1 -1 -1 -1 -1 -1 -1 -1 -1 -1 -1 -1 -1 -1 -1 -1 -1 -1 -1 -1 -1 -1 -1 -1 -1 -1 -1 -1 -1 -1 -1 -1 -1 -1 -1 -1 -1 -1 
84 84 84 84 84 84 84 84 84 78 72 65 59 52 46 39 40 43 45 48 51 53 56 59 61 64 67 69 72 75 77 78 78 78 78 78 78 78 78 78 78 78 78 78 78 78 78 78 78 78 78 78 78 78 78 78 78 78 78 78 78 78 78 78 78 78 78 78 78 78 78 78 78 78 78 78 78 78 78 78 78 78 78 78 78 78 78 78 78 78 78 78 78 78 78 78 78 78 78 78 78 78 78 78 78 78 78 78 78 78 78 78 78 78 78 78 78 78 78 78 78 78 78 78 78 78 78 78 78 78 78 78 78 78 78 78 78 78 78 78 78 78 78 78 78 78 78 78 78 78 78 78 78 78 78 78 78 78 78 78 78 78 78 78 78 78 78 78 78 78 78 78 78 78 78 78 78 78 78 78 78 78 78 78 78 78 78 78 78 78 78 78 78 78 78 78 78 78 78 78 78 78 78 78 78 78 78 78 78 78 78 78 78 78 78 78 78 78 78 78 78 78 78 78 78 78 79 79 79 79 79 79 79 79 79 79 79 79 79 79 79 79 79 79 79 79 79 79 79 79 79 79 79 79 79 79 79 79 79 79 79 79 79 79 79 79 79 79 79 79 79 79 79 79 79 79 79 79 79 79 79 79 79 79 79 79 79 79 79 78 78 78 78 78 78 78 78 78 78 78 78 78 78 78 78 78 78 78 78 78 78 78 78 78 76 64 52 41 30 35 39 -1 -1 -1 -1 -1 -1 -1 -1 -1 -1 -1 -1 -1 -1 -1 -1 -1 -1 -1 -1 -1 -1 -1 -1 -1 -1 -1 -1 -1 -1 -1 -1 -1 -1 -1 -1 -1 -1 -1 -1 -1 -1 -1 -1 -1 -1 -1 -1 -1 -1 -1 -1 -1 -1 -1 -1 -1 -1 -1 -1 -1 -1 -1 -1 -1 -1 -1 -1 -1 -1 -1 -1 -1 -1 -1 -1 -1 -1 -1 -1 -1 -1 -1 -1 -1 -1 -1 -1 -1 -1 -1 -1 -1 -1 -1 -1 -1 -1 -1 -1 -1 -1 -1 -1 -1 -1 -1 -1 -1 -1 -1 -1 -1 -1 -1 -1 -1 -1 -1 -1 -1 -1 -1 -1 -1 -1 -1 -1 -1 -1 -1 -1 -1 -1 -1 -1 -1 -1 -1 -1 -1 -1 -1 -1 -1 -1 -1 -1 -1 -1 -1 -1 -1 -1 -1 -1 -1 -1 -1 -1 
84 84 84 84 84 84 83 84 84 84 84 83 76 70 63 57 50 44 40 43 45 48 51 53 56 58 61 64 66 69 72 74 77 80 82 85 86 86 86 86 86 86 86 86 86 86 86 86 86 86 86 86 86 86 86 86 86 86 86 86 86 86 86 86 86 86 86 86 86 86 86 86 86 86 86 86 86 86 86 86 86 86 86 86 86 86 86 86 86 86 86 86 86 86 86 86 86 86 86 86 86 86 86 86 86 86 86 86 86 86 86 86 86 86 86 86 86 86 86 86 86 86 86 86 86 86 86 86 86 86 86 86 86 86 86 86 86 86 86 86 86 86 86 86 86 86 86 86 86 86 86 86 86 86 86 86 86 86 86 86 86 86 86 86 86 86 86 86 86 86 86 86 86 86 86 86 86 86 86 86 86 86 86 86 86 86 86 86 86 86 86 86 86 86 86 86 86 86 86 86 86 86 86 86 86 86 86 86 86 86 86 86 86 86 86 86 86 86 86 86 86 86 86 86 86 86 86 86 86 86 86 86 86 86 86 86 86 86 86 86 86 86 86 86 86 86 86 86 86 86 86 86 86 86 86 86 86 86 86 86 86 86 86 86 86 86 86 86 86 86 86 86 86 86 86 86 86 86 86 86 86 86 86 86 86 86 86 86 86 86 86 86 86 86 86 86 86 86 86 86 86 86 86 86 86 86 86 86 86 86 86 86 86 83 71 60 48 36 31 36 40 -1 -1 -1 -1 -1 -1 -1 -1 -1 -1 -1 -1 -1 -1 -1 -1 -1 -1 -1 -1 -1 -1 -1 -1 -1 -1 -1 -1 -1 -1 -1 -1 -1 -1 -1 -1 -1 -1 -1 -1 -1 -1 -1 -1 -1 -1 -1 -1 -1 -1 -1 -1 -1 -1 -1 -1 -1 -1 -1 -1 -1 -1 -1 -1 -1 -1 -1 -1 -1 -1 -1 -1 -1 -1 -1 -1 -1 -1 -1 -1 -1 -1 -1 -1 -1 -1 -1 -1 -1 -1 -1 -1 -1 -1 -1 -1 -1 -1 -1 -1 -1 -1 -1 -1 -1 -1 -1 -1 -1 -1 -1 -1 -1 -1 -1 -1 -1 -1 -1 -1 -1 -1 -1 -1 -1 -1 -1 -1 -1 -1 -1 -1 -1 -1 -1 -1 -1 -1 -1 -1 -1 -1 -1 -1 -1 -1 -1 -1 -1 -1 -1 -1 -1 -1 -1 -1 -1 -1 -1 -1 
84 84 84 84 84 84 84 83 83 84 84 84 84 84 81 75 68 62 55 49 42 42 45 48 50 53 56 58 61 64 66 69 72 74 77 79 82 85 87 90 93 94 94 94 94 94 94 94 94 94 94 94 94 94 94 94 94 94 94 94 94 94 94 94 94 94 94 94 94 94 94 94 94 94 94 94 94 94 94 94 94 94 94 94 94 94 94 94 94 94 94 94 94 94 94 94 94 94 94 94 94 94 94 94 94 94 94 94 94 94 94 94 94 94 94 94 94 94 94 94 94 94 94 94 94 94 94 94 94 94 94 94 94 94 94 94 94 94 94 94 94 94 94 94 94 94 94 94 94 94 94 94 94 94 94 94 94 94 94 94 94 94 94 94 94 94 94 94 94 94 94 94 94 94 94 94 94 94 94 94 94 94 94 94 94 94 94 94 94 94 94 94 94 94 94 94 94 94 94 94 94 94 94 94 94 94 94 94 94 94 94 94 94 94 94 94 94 94 94 94 94 94 94 94 94 94 94 94 94 94 94 94 94 94 94 94 94 94 94 94 94 94 94 94 94 94 94 94 94 94 94 94 94 94 94 94 94 94 94 94 94 94 94 94 94 94 94 94 94 94 94 94 94 94 94 94 94 94 94 94 94 94 94 94 94 94 94 94 94 94 94 94 94 94 94 94 94 94 94 94 94 94 94 94 94 94 94 94 93 93 93 93 90 78 67 55 44 32 32 37 42 -1 -1 -1 -1 -1 -1 -1 -1 -1 -1 -1 -1 -1 -1 -1 -1 -1 -1 -1 -1 -1 -1 -1 -1 -1 -1 -1 -1 -1 -1 -1 -1 -1 -1 -1 -1 -1 -1 -1 -1 -1 -1 -1 -1 -1 -1 -1 -1 -1 -1 -1 -1 -1 -1 -1 -1 -1 -1 -1 -1 -1 -1 -1 -1 -1 -1 -1 -1 -1 -1 -1 -1 -1 -1 -1 -1 -1 -1 -1 -1 -1 -1 -1 -1 -1 -1 -1 -1 -1 -1 -1 -1 -1 -1 -1 -1 -1 -1 -1 -1 -1 -1 -1 -1 -1 -1 -1 -1 -1 -1 -1 -1 -1 -1 -1 -1 -1 -1 -1 -1 -1 -1 -1 -1 -1 -1 -1 -1 -1 -1 -1 -1 -1 -1 -1 -1 -1 -1 -1 -1 -1 -1 -1 -1 -1 -1 -1 -1 -1 -1 -1 -1 -1 -1 -1 -1 -1 -1 -1 -1 
84 84 84 84 84 84 84 83 83 83 83 84 84 84 84 84 84 79 73 66 60 53 47 42 45 47 50 53 55 58 61 63 66 69 71 74 77 79 82 85 87 90 92 95 98 100 101 101 101 101 101 101 101 101 101 101 101 101 101 101 101 101 101 101 101 101 101 101 101 101 101 101 101 101 101 101 101 101 101 101 101 101 101 101 101 101 101 101 101 101 101 101 101 101 101 101 101 101 101 102 102 102 102 102 102 102 102 102 102 102 102 102 102 102 102 102 102 102 102 102 102 102 102 102 102 102 102 102 102 102 102 102 102 102 102 102 102 102 102 102 102 102 102 102 102 102 102 102 102 102 102 102 102 102 102 102 102 102 102 102 102 102 102 102 102 102 102 102 102 102 102 102 102 102 102 102 102 102 102 102 102 102 102 102 102 102 102 102 102 102 102 102 102 102 102 102 102 102 102 102 102 102 102 102 102 102 102 102 102 102 102 102 102 102 102 102 102 102 102 102 102 102 102 102 102 102 102 102 102 102 102 102 102 102 102 102 102 102 102 102 102 102 102 102 102 102 102 102 102 102 102 102 102 102 102 102 102 102 102 102 102 102 102 102 102 102 102 102 102 102 102 102 102 102 102 102 102 102 102 102 102 102 102 102 102 102 102 102 101 101 101 101 101 101 101 101 101 101 101 101 101 101 101 101 101 101 101 101 101 101 101 97 86 74 63 51 39 29 34 38 43 -1 -1 -1 -1 -1 -1 -1 -1 -1 -1 -1 -1 -1 -1 -1 -1 -1 -1 -1 -1 -1 -1 -1 -1 -1 -1 -1 -1 -1 -1 -1 -1 -1 -1 -1 -1 -1 -1 -1 -1 -1 -1 -1 -1 -1 -1 -1 -1 -1 -1 -1 -1 -1 -1 -1 -1 -1 -1 -1 -1 -1 -1 -1 -1 -1 -1 -1 -1 -1 -1 -1 -1 -1 -1 -1 -1 -1 -1 -1 -1 -1 -1 -1 -1 -1 -1 -1 -1 -1 -1 -1 -1 -1 -1 -1 -1 -1 -1 -1 -1 -1 -1 -1 -1 -1 -1 -1 -1 -1 -1 -1 -1 -1 -1 -1 -1 -1 -1 -1 -1 -1 -1 -1 -1 -1 -1 -1 -1 -1 -1 -1 -1 -1 -1 -1 -1 -1 -1 -1 -1 -1 -1 -1 -1 -1 -1 -1 -1 -1 -1 -1 -1 -1 -1 -1 -1 -1 -1 -1 -1 
85 85 85 85 84 84 84 84 83 83 83 83 83 84 84 84 84 84 84 84 77 71 64 58 51 45 45 47 50 52 55 58 60 63 66 68 71 74 76 79 82 84 87 90 92 95 98 100 103 106 108 109 109 109 109 109 109 109 109 109 109 109 109 109 109 109 109 109 109 109 109 109 109 109 109 109 109 109 109 109 109 109 109 109 109 109 109 109 109 109 109 109 109 109 109 109 109 109 109 109 109 109 109 109 109 109 109 109 109 109 109 109 109 109 109 109 109 109 109 109 109 109 109 109 109 109 109 109 109 109 109 109 109 109 109 109 109 109 109 109 109 109 109 109 109 109 109 109 109 109 109 109 109 109 109 109 109 109 109 109 109 109 109 110 110 110 110 110 110 110 110 110 110 110 110 110 110 110 110 110 110 110 110 110 110 110 110 110 110 110 110 110 110 110 110 110 110 110 110 110 110 110 110 110 110 110 110 110 110 110 110 110 110 110 110 110 110 110 110 110 110 110 110 110 110 110 110 110 110 110 110 110 110 110 110 110 110 110 110 110 110 110 110 110 110 110 110 110 110 110 110 110 110 110 110 110 110 110 110 110 110 110 110 110 110 110 110 110 110 109 109 109 109 109 109 109 109 109 109 109 109 109 109 109 109 109 109 109 109 109 109 109 109 109 109 109 109 109 109 109 109 109 109 109 109 109 109 109 109 109 105 93 81 70 58 47 35 30 35 39 44 -1 -1 -1 -1 -1 -1 -1 -1 -1 -1 -1 -1 -1 -1 -1 -1 -1 -1 -1 -1 -1 -1 -1 -1 -1 -1 -1 -1 -1 -1 -1 -1 -1 -1 -1 -1 -1 -1 -1 -1 -1 -1 -1 -1 -1 -1 -1 -1 -1 -1 -1 -1 -1 -1 -1 -1 -1 -1 -1 -1 -1 -1 -1 -1 -1 -1 -1 -1 -1 -1 -1 -1 -1 -1 -1 -1 -1 -1 -1 -1 -1 -1 -1 -1 -1 -1 -1 -1 -1 -1 -1 -1 -1 -1 -1 -1 -1 -1 -1 -1 -1 -1 -1 -1 -1 -1 -1 -1 -1 -1 -1 -1 -1 -1 -1 -1 -1 -1 -1 -1 -1 -1 -1 -1 -1 -1 -1 -1 -1 -1 -1 -1 -1 -1 -1 -1 -1 -1 -1 -1 -1 -1 -1 -1 -1 -1 -1 -1 -1 -1 -1 -1 -1 -1 -1 -1 -1 -1 -1 -1 
85 85 85 85 85 84 84 84 84 83 83 83 83 83 84 84 84 84 84 84 84 84 82 75 69 62 56 49 44 47 50 52 55 58 60 63 65 68 71 73 76 79 81 84 87 89 92 95 97 100 103 105 108 111 113 116 117 117 117 117 117 117 117 117 117 117 117 117 117 117 117 117 117 117 117 117 117 117 117 117 117 117 117 117 117 117 117 117 117 117 117 117 117 117 117 117 117 117 117 117 117 117 117 117 117 117 117 117 117 117 117 117 117 117 117 117 117 117 117 117 117 117 117 117 117 117 117 117 117 117 117 117 117 117 117 117 117 117 117 117 117 117 117 117 117 117 117 117 117 117 117 117 117 117 117 117 117 117 117 117 117 117 117 117 117 117 117 117 117 117 117 117 117 117 117 117 117 117 117 117 117 117 117 117 117 117 117 117 117 117 117 117 117 117 117 117 117 117 117 117 117 117 117 117 117 117 117 117 117 117 117 117 117 117 117 117 117 117 117 117 117 117 117 117 117 117 117 117 118 118 118 118 118 118 118 118 118 118 118 118 118 118 118 118 118 118 118 118 118 117 117 117 117 117 117 117 117 117 117 117 117 117 117 117 117 117 117 117 117 117 117 117 117 117 117 117 117 117 117 117 117 117 117 117 117 117 117 117 117 117 117 117 117 117 117 117 117 117 117 117 117 117 117 117 117 117 117 116 116 112 100 89 77 65 54 42 31 31 36 41 45 -1 -1 -1 -1 -1 -1 -1 -1 -1 -1 -1 -1 -1 -1 -1 -1 -1 -1 -1 -1 -1 -1 -1 -1 -1 -1 -1 -1 -1 -1 -1 -1 -1 -1 -1 -1 -1 -1 -1 -1 -1 -1 -1 -1 -1 -1 -1 -1 -1 -1 -1 -1 -1 -1 -1 -1 -1 -1 -1 -1 -1 -1 -1 -1 -1 -1 -1 -1 -1 -1 -1 -1 -1 -1 -1 -1 -1 -1 -1 -1 -1 -1 -1 -1 -1 -1 -1 -1 -1 -1 -1 -1 -1 -1 -1 -1 -1 -1 -1 -1 -1 -1 -1 -1 -1 -1 -1 -1 -1 -1 -1 -1 -1 -1 -1 -1 -1 -1 -1 -1 -1 -1 -1 -1 -1 -1 -1 -1 -1 -1 -1 -1 -1 -1 -1 -1 -1 -1 -1 -1 -1 -1 -1 -1 -1 -1 -1 -1 -1 -1 -1 -1 -1 -1 -1 -1 -1 -1 -1 -1 
85 85 85 85 85 85 84 84 84 84 83 83 83 83 83 83 84 84 84 84 84 84 84 84 84 80 74 67 61 54 48 47 49 52 55 57 60 63 65 68 71 73 76 79 81 84 86 89 92 94 97 100 102 105 108 110 113 116 118 121 124 125 125 125 125 125 125 125 125 125 125 125 125 125 125 125 125 125 125 125 125 125 125 125 125 125 125 125 125 125 125 125 125 125 125 125 125 125 125 125 125 125 125 125 125 125 125 125 125 125 125 125 125 125 125 125 125 125 125 125 125 125 125 125 125 125 125 125 125 125 125 125 125 125 125 125 125 125 125 125 125 125 125 125 125 125 125 125 125 125 125 125 125 125 125 125 125 125 125 125 125 125 125 125 125 125 125 125 125 125 125 125 125 125 125 125 125 125 125 125 125 125 125 125 125 125 125 125 125 125 125 125 125 125 125 125 125 125 125 125 125 125 125 125 125 125 125 125 125 125 125 125 125 125 125 125 125 125 125 125 125 125 125 125 125 125 125 125 125 125 125 125 125 125 125 125 125 125 125 125 125 125 125 125 125 125 125 125 125 125 125 125 125 125 125 125 125 125 125 125 125 125 125 125 125 125 125 125 125 125 125 125 125 125 125 125 125 125 125 125 125 125 125 125 125 125 125 124 124 124 124 124 124 124 124 124 124 124 124 124 124 124 124 124 124 124 124 124 119 108 96 84 73 61 49 38 28 33 37 42 46 -1 -1 -1 -1 -1 -1 -1 -1 -1 -1 -1 -1 -1 -1 -1 -1 -1 -1 -1 -1 -1 -1 -1 -1 -1 -1 -1 -1 -1 -1 -1 -1 -1 -1 -1 -1 -1 -1 -1 -1 -1 -1 -1 -1 -1 -1 -1 -1 -1 -1 -1 -1 -1 -1 -1 -1 -1 -1 -1 -1 -1 -1 -1 -1 -1 -1 -1 -1 -1 -1 -1 -1 -1 -1 -1 -1 -1 -1 -1 -1 -1 -1 -1 -1 -1 -1 -1 -1 -1 -1 -1 -1 -1 -1 -1 -1 -1 -1 -1 -1 -1 -1 -1 -1 -1 -1 -1 -1 -1 -1 -1 -1 -1 -1 -1 -1 -1 -1 -1 -1 -1 -1 -1 -1 -1 -1 -1 -1 -1 -1 -1 -1 -1 -1 -1 -1 -1 -1 -1 -1 -1 -1 -1 -1 -1 -1 -1 -1 -1 -1 -1 -1 -1 -1 -1 -1 -1 -1 -1 -1 
85 85 85 85 85 85 85 84 84 84 84 83 83 83 83 83 83 83 84 84 84 85 85 85 84 84 84 84 78 72 65 59 52 46 49 52 54 57 60 62 65 68 70 73 76 78 81 84 86 89 92 94 97 99 102 105 107 110 113 115 118 121 123 126 129 131 133 133 133 133 133 133 133 133 133 133 133 133 133 133 133 133 133 133 133 133 133 133 133 133 133 133 133 133 133 133 133 133 133 133 133 133 133 133 133 133 133 133 133 133 133 133 133 133 133 133 133 133 133 133 133 133 133 133 133 133 133 133 133 133 133 133 133 133 133 133 133 133 133 133 133 133 133 133 133 133 133 133 133 133 133 133 133 133 133 133 133 133 133 133 133 133 133 133 133 133 133 133 133 133 133 133 133 133 133 133 133 133 133 133 133 133 133 133 133 133 133 133 133 133 133 133 133 133 133 133 133 133 133 133 133 133 133 133 133 133 133 133 133 133 133 133 133 133 133 133 133 133 133 133 133 133 133 133 133 133 133 133 133 133 133 133 133 133 133 133 133 133 133 133 133 133 133 133 133 133 133 133 133 133 133 133 133 133 133 133 133 133 133 133 133 133 133 133 133 133 133 133 132 132 132 132 132 132 132 132 132 132 132 132 132 132 132 132 132 132 132 132 132 132 132 132 132 132 132 132 132 132 132 132 132 132 132 132 132 132 132 126 115 103 92 80 68 57 45 33 29 34 38 43 48 -1 -1 -1 -1 -1 -1 -1 -1 -1 -1 -1 -1 -1 -1 -1 -1 -1 -1 -1 -1 -1 -1 -1 -1 -1 -1 -1 -1 -1 -1 -1 -1 -1 -1 -1 -1 -1 -1 -1 -1 -1 -1 -1 -1 -1 -1 -1 -1 -1 -1 -1 -1 -1 -1 -1 -1 -1 -1 -1 -1 -1 -1 -1 -1 -1 -1 -1 -1 -1 -1 -1 -1 -1 -1 -1 -1 -1 -1 -1 -1 -1 -1 -1 -1 -1 -1 -1 -1 -1 -1 -1 -1 -1 -1 -1 -1 -1 -1 -1 -1 -1 -1 -1 -1 -1 -1 -1 -1 -1 -1 -1 -1 -1 -1 -1 -1 -1 -1 -1 -1 -1 -1 -1 -1 -1 -1 -1 -1 -1 -1 -1 -1 -1 -1 -1 -1 -1 -1 -1 -1 -1 -1 -1 -1 -1 -1 -1 -1 -1 -1 -1 -1 -1 -1 -1 -1 -1 -1 -1 -1 
85 85 85 85 85 85 85 85 84 84 84 84 83 83 83 82 82 83 83 83 84 84 84 85 85 85 85 85 85 85 83 76 70 63 57 50 49 52 54 57 59 62 65 67 70 73 75 78 81 83 86 89 91 94 97 99 102 105 107 110 113 115 118 120 123 126 128 131 134 136 139 140 140 140 140 140 140 140 140 140 140 140 140 140 140 140 140 140 140 140 140 140 140 140 140 140 140 140 140 140 140 141 141 141 141 141 141 141 141 141 141 141 141 141 141 141 141 141 141 141 141 141 141 141 141 141 141 141 141 141 141 141 141 141 141 141 141 141 141 141 141 141 141 141 141 141 141 141 141 141 141 141 141 141 141 141 141 141 141 141 141 141 141 141 141 141 141 141 141 141 141 141 141 141 141 141 141 141 141 141 141 141 141 141 141 141 141 141 141 141 141 141 141 141 141 141 141 141 141 141 141 141 141 141 141 141 141 141 141 141 141 141 141 141 141 141 141 141 141 141 141 141 141 141 141 141 141 141 141 141 141 141 141 141 141 141 141 141 141 141 141 141 141 141 141 141 141 141 140 140 140 140 140 140 140 140 140 140 140 140 140 140 140 140 140 140 140 140 140 140 140 140 140 140 140 140 140 140 140 140 140 140 140 140 140 140 140 140 140 140 140 140 140 140 140 140 140 140 140 140 140 140 140 140 140 140 134 122 110 99 87 76 64 52 41 29 30 35 40 44 49 -1 -1 -1 -1 -1 -1 -1 -1 -1 -1 -1 -1 -1 -1 -1 -1 -1 -1 -1 -1 -1 -1 -1 -1 -1 -1 -1 -1 -1 -1 -1 -1 -1 -1 -1 -1 -1 -1 -1 -1 -1 -1 -1 -1 -1 -1 -1 -1 -1 -1 -1 -1 -1 -1 -1 -1 -1 -1 -1 -1 -1 -1 -1 -1 -1 -1 -1 -1 -1 -1 -1 -1 -1 -1 -1 -1 -1 -1 -1 -1 -1 -1 -1 -1 -1 -1 -1 -1 -1 -1 -1 -1 -1 -1 -1 -1 -1 -1 -1 -1 -1 -1 -1 -1 -1 -1 -1 -1 -1 -1 -1 -1 -1 -1 -1 -1 -1 -1 -1 -1 -1 -1 -1 -1 -1 -1 -1 -1 -1 -1 -1 -1 -1 -1 -1 -1 -1 -1 -1 -1 -1 -1 -1 -1 -1 -1 -1 -1 -1 -1 -1 -1 -1 -1 -1 -1 -1 -1 -1 -1 
85 85 85 85 85 85 85 85 85 84 84 84 83 83 83 83 82 82 82 83 83 83 84 84 84 85 85 85 85 85 85 85 85 81 74 68 61 55 49 51 54 57 59 62 65 67 70 72 75 78 80 83 86 88 91 94 96 99 102 104 107 110 112 115 118 120 123 126 128 131 133 136 139 141 144 147 148 148 148 148 148 148 148 148 148 148 148 148 148 148 148 148 148 148 148 148 148 148 148 148 148 148 148 148 148 148 148 148 148 148 148 148 148 148 148 148 148 148 148 148 148 148 148 148 148 148 148 148 148 148 148 148 148 148 148 148 148 148 148 148 148 148 148 148 148 148 148 148 148 148 148 148 148 148 148 148 148 148 148 148 148 148 148 148 148 149 149 149 149 149 149 149 149 149 149 149 149 149 149 149 149 149 149 149 149 149 149 149 149 149 149 149 149 149 149 149 149 149 149 149 149 149 149 149 149 149 149 149 149 149 149 149 149 149 149 149 149 149 149 149 149 149 149 149 149 149 149 149 148 148 148 148 148 148 148 148 148 148 148 148 148 148 148 148 148 148 148 148 148 148 148 148 148 148 148 148 148 148 148 148 148 148 148 148 148 148 148 148 148 148 148 148 148 148 148 148 148 148 148 148 148 148 148 148 148 148 147 147 147 147 147 147 147 147 147 147 147 147 147 147 147 147 147 147 147 141 129 118 106 94 83 71 60 48 36 27 32 36 41 45 50 -1 -1 -1 -1 -1 -1 -1 -1 -1 -1 -1 -1 -1 -1 -1 -1 -1 -1 -1 -1 -1 -1 -1 -1 -1 -1 -1 -1 -1 -1 -1 -1 -1 -1 -1 -1 -1 -1 -1 -1 -1 -1 -1 -1 -1 -1 -1 -1 -1 -1 -1 -1 -1 -1 -1 -1 -1 -1 -1 -1 -1 -1 -1 -1 -1 -1 -1 -1 -1 -1 -1 -1 -1 -1 -1 -1 -1 -1 -1 -1 -1 -1 -1 -1 -1 -1 -1 -1 -1 -1 -1 -1 -1 -1 -1 -1 -1 -1 -1 -1 -1 -1 -1 -1 -1 -1 -1 -1 -1 -1 -1 -1 -1 -1 -1 -1 -1 -1 -1 -1 -1 -1 -1 -1 -1 -1 -1 -1 -1 -1 -1 -1 -1 -1 -1 -1 -1 -1 -1 -1 -1 -1 -1 -1 -1 -1 -1 -1 -1 -1 -1 -1 -1 -1 -1 -1 -1 -1 -1 -1 
85 85 85 85 85 85 85 85 85 84 84 84 84 83 83 83 83 82 82 82 82 83 83 83 84 84 84 85 85 85 85 85 85 85 85 85 79 73 66 60 53 51 54 56 59 62 64 67 70 72 75 78 80 83 86 88 91 93 96 99 101 104 107 109 112 115 117 120 123 125 128 131 133 136 139 141 144 147 149 152 154 156 156 156 156 156 156 156 156 156 156 156 156 156 156 156 156 156 156 156 156 156 156 156 156 156 156 156 156 156 156 156 156 156 156 156 156 156 156 156 156 156 156 156 156 156 156 156 156 156 156 156 156 156 156 156 156 156 156 156 156 156 156 156 156 156 156 156 156 156 156 156 156 156 156 156 156 156 156 156 156 156 156 156 156 156 156 156 156 156 156 156 156 156 156 156 156 156 156 156 156 156 156 156 156 156 156 156 156 156 156 156 156 156 156 156 156 156 156 156 156 156 156 156 156 156 156 156 156 156 156 156 156 156 156 156 156 156 156 156 156 156 156 156 156 156 156 156 156 156 156 156 156 156 156 156 156 156 156 156 156 156 156 156 156 156 156 156 156 156 156 156 156 156 156 156 156 156 156 156 156 156 156 156 156 156 155 155 155 155 155 155 155 155 155 155 155 155 155 155 155 155 155 155 155 155 155 155 155 155 155 155 155 155 155 155 155 155 155 155 155 155 155 155 148 137 125 113 102 90 79 67 55 44 32 28 33 37 42 47 51 -1 -1 -1 -1 -1 -1 -1 -1 -1 -1 -1 -1 -1 -1 -1 -1 -1 -1 -1 -1 -1 -1 -1 -1 -1 -1 -1 -1 -1 -1 -1 -1 -1 -1 -1 -1 -1 -1 -1 -1 -1 -1 -1 -1 -1 -1 -1 -1 -1 -1 -1 -1 -1 -1 -1 -1 -1 -1 -1 -1 -1 -1 -1 -1 -1 -1 -1 -1 -1 -1 -1 -1 -1 -1 -1 -1 -1 -1 -1 -1 -1 -1 -1 -1 -1 -1 -1 -1 -1 -1 -1 -1 -1 -1 -1 -1 -1 -1 -1 -1 -1 -1 -1 -1 -1 -1 -1 -1 -1 -1 -1 -1 -1 -1 -1 -1 -1 -1 -1 -1 -1 -1 -1 -1 -1 -1 -1 -1 -1 -1 -1 -1 -1 -1 -1 -1 -1 -1 -1 -1 -1 -1 -1 -1 -1 -1 -1 -1 -1 -1 -1 -1 -1 -1 -1 -1 -1 -1 -1 -1 
85 85 85 85 85 85 85 85 85 85 84 84 84 84 83 83 83 83 82 82 82 82 82 83 83 83 84 84 84 85 85 85 85 85 85 85 85 85 84 77 71 64 58 51 53 56 59 61 64 67 69 72 75 77 80 83 85 88 91 93 96 99 101 104 106 109 112 114 117 120 122 125 128 130 133 136 138 141 144 146 149 152 154 157 160 162 164 164 164 164 164 164 164 164 164 164 164 164 164 164 164 164 164 164 164 164 164 164 164 164 164 164 164 164 164 164 164 164 164 164 164 164 164 164 164 164 164 164 164 164 164 164 164 164 164 164 164 164 164 164 164 164 164 164 164 164 164 164 164 164 164 164 164 164 164 164 164 164 164 164 164 164 164 164 164 164 164 164 164 164 164 164 164 164 164 164 164 164 164 164 164 164 164 164 164 164 164 164 164 164 164 164 164 164 164 164 164 164 164 164 164 164 164 164 164 164 164 164 164 164 164 164 164 164 164 164 164 164 164 164 164 164 164 164 164 164 164 164 164 164 164 164 164 164 164 164 164 164 164 164 164 164 164 164 164 164 164 163 163 163 163 163 163 163 163 163 163 163 163 163 163 163 163 163 163 163 163 163 163 163 163 163 163 163 163 163 163 163 163 163 163 163 163 163 163 163 163 163 163 163 163 163 163 163 163 163 163 163 163 163 163 163 163 155 144 132 121 109 97 86 74 63 51 39 28 29 34 39 43 48 52 -1 -1 -1 -1 -1 -1 -1 -1 -1 -1 -1 -1 -1 -1 -1 -1 -1 -1 -1 -1 -1 -1 -1 -1 -1 -1 -1 -1 -1 -1 -1 -1 -1 -1 -1 -1 -1 -1 -1 -1 -1 -1 -1 -1 -1 -1 -1 -1 -1 -1 -1 -1 -1 -1 -1 -1 -1 -1 -1 -1 -1 -1 -1 -1 -1 -1 -1 -1 -1 -1 -1 -1 -1 -1 -1 -1 -1 -1 -1 -1 -1 -1 -1 -1 -1 -1 -1 -1 -1 -1 -1 -1 -1 -1 -1 -1 -1 -1 -1 -1 -1 -1 -1 -1 -1 -1 -1 -1 -1 -1 -1 -1 -1 -1 -1 -1 -1 -1 -1 -1 -1 -1 -1 -1 -1 -1 -1 -1 -1 -1 -1 -1 -1 -1 -1 -1 -1 -1 -1 -1 -1 -1 -1 -1 -1 -1 -1 -1 -1 -1 -1 -1 -1 -1 -1 -1 -1 -1 -1 -1 
85 85 85 85 85 85 85 85 85 85 85 84 84 84 84 83 83 83 83 82 82 82 82 82 82 83 83 83 84 84 84 85 85 85 85 85 85 85 85 85 85 82 75 69 62 56 53 56 58 61 64 66 69 72 74 77 80 82 85 88 90 93 96 98 101 104 106 109 112 114 117 120 122 125 127 130 133 135 138 141 143 146 149 151 154 157 159 162 165 167 170 172 172 172 172 172 172 172 172 172 172 172 172 172 172 172 172 172 172 172 172 172 172 172 172 172 172 172 172 172 172 172 172 172 172 172 172 172 172 172 172 172 172 172 172 172 172 172 172 172 172 172 172 172 172 172 172 172 172 172 172 172 172 172 172 172 172 172 172 172 172 172 172 172 172 172 172 172 172 172 172 172 172 172 172 172 172 172 172 172 172 172 172 172 172 172 172 172 172 172 172 172 172 172 172 172 172 172 172 172 172 172 172 172 172 172 172 172 172 172 172 172 172 172 172 172 172 172 172 172 172 172 172 172 172 172 172 171 171 171 171 171 171 171 171 171 171 171 171 171 171 171 171 171 171 171 171 171 171 171 171 171 171 171 171 171 171 171 171 171 171 171 171 171 171 171 171 171 171 171 171 171 171 171 171 171 171 171 171 171 171 171 171 171 171 170 170 170 170 170 170 170 170 170 170 170 170 170 170 170 170 170 163 151 140 128 116 105 93 81 70 58 47 35 26 31 35 40 44 49 54 -1 -1 -1 -1 -1 -1 -1 -1 -1 -1 -1 -1 -1 -1 -1 -1 -1 -1 -1 -1 -1 -1 -1 -1 -1 -1 -1 -1 -1 -1 -1 -1 -1 -1 -1 -1 -1 -1 -1 -1 -1 -1 -1 -1 -1 -1 -1 -1 -1 -1 -1 -1 -1 -1 -1 -1 -1 -1 -1 -1 -1 -1 -1 -1 -1 -1 -1 -1 -1 -1 -1 -1 -1 -1 -1 -1 -1 -1 -1 -1 -1 -1 -1 -1 -1 -1 -1 -1 -1 -1 -1 -1 -1 -1 -1 -1 -1 -1 -1 -1 -1 -1 -1 -1 -1 -1 -1 -1 -1 -1 -1 -1 -1 -1 -1 -1 -1 -1 -1 -1 -1 -1 -1 -1 -1 -1 -1 -1 -1 -1 -1 -1 -1 -1 -1 -1 -1 -1 -1 -1 -1 -1 -1 -1 -1 -1 -1 -1 -1 -1 -1 -1 -1 -1 -1 -1 -1 -1 -1 -1 
85 85 85 85 85 85 85 85 85 85 85 85 84 84 84 84 83 83 83 83 82 82 82 82 82 82 82 83 83 83 84 84 84 85 85 85 85 85 85 85 85 85 85 85 80 73 67 60 54 56 58 61 64 66 69 72 74 77 79 82 85 87 90 93 95 98 101 103 106 109 111 114 117 119 122 125 127 130 133 135 138 140 143 146 148 151 154 156 159 162 164 167 170 172 175 178 179 179 179 179 179 179 180 180 180 180 180 180 180 180 180 180 180 180 180 180 180 180 180 180 180 180 180 180 180 180 180 180 180 180 180 180 180 180 180 180 180 180 180 180 180 180 180 180 180 180 180 180 180 180 180 180 180 180 180 180 180 180 180 180 180 180 180 180 180 180 180 180 180 180 180 180 180 180 180 180 180 180 180 180 180 180 180 180 180 180 180 180 180 180 180 180 180 180 180 180 180 180 180 180 180 180 180 180 180 180 180 179 179 179 179 179 179 179 179 179 179 179 179 179 179 179 179 179 179 179 179 179 179 179 179 179 179 179 179 179 179 179 179 179 179 179 179 179 179 179 179 179 179 179 179 179 179 179 179 179 179 179 179 179 179 179 179 179 179 178 178 178 178 178 178 178 178 178 178 178 178 178 178 178 178 178 178 178 178 178 178 178 178 178 178 178 178 178 178 178 178 178 178 178 178 170 158 147 135 124 112 100 89 77 65 54 42 31 27 32 36 41 46 50 55 -1 -1 -1 -1 -1 -1 -1 -1 -1 -1 -1 -1 -1 -1 -1 -1 -1 -1 -1 -1 -1 -1 -1 -1 -1 -1 -1 -1 -1 -1 -1 -1 -1 -1 -1 -1 -1 -1 -1 -1 -1 -1 -1 -1 -1 -1 -1 -1 -1 -1 -1 -1 -1 -1 -1 -1 -1 -1 -1 -1 -1 -1 -1 -1 -1 -1 -1 -1 -1 -1 -1 -1 -1 -1 -1 -1 -1 -1 -1 -1 -1 -1 -1 -1 -1 -1 -1 -1 -1 -1 -1 -1 -1 -1 -1 -1 -1 -1 -1 -1 -1 -1 -1 -1 -1 -1 -1 -1 -1 -1 -1 -1 -1 -1 -1 -1 -1 -1 -1 -1 -1 -1 -1 -1 -1 -1 -1 -1 -1 -1 -1 -1 -1 -1 -1 -1 -1 -1 -1 -1 -1 -1 -1 -1 -1 -1 -1 -1 -1 -1 -1 -1 -1 -1 -1 -1 -1 -1 -1 -1 
85 85 85 85 85 85 85 85 85 85 85 85 85 84 84 84 84 83 83 83 83 82 82 82 81 81 82 82 82 83 83 83 84 84 84 85 85 85 85 85 85 85 85 85 85 85 85 78 72 65 59 55 58 61 63 66 69 71 74 77 79 82 85 87 90 92 95 98 100 103 106 108 111 114 116 119 122 124 127 130 132 135 138 140 143 146 148 151 154 156 159 161 164 167 169 172 175 177 180 183 185 187 187 187 187 187 187 187 187 187 187 187 187 187 187 187 187 187 187 187 187 187 187 187 187 187 187 187 187 187 187 187 187 187 187 187 187 187 187 187 187 187 187 187 187 187 187 187 187 187 187 187 187 187 187 187 187 187 187 187 187 187 187 187 187 187 188 188 188 188 188 188 188 188 188 188 188 188 188 188 188 188 188 188 188 188 188 187 187 187 187 187 187 187 187 187 187 187 187 187 187 187 187 187 187 187 187 187 187 187 187 187 187 187 187 187 187 187 187 187 187 187 187 187 187 187 187 187 187 187 187 187 187 187 187 187 187 187 187 187 187 187 187 187 187 187 186 186 186 186 186 186 186 186 186 186 186 186 186 186 186 186 186 186 186 186 186 186 186 186 186 186 186 186 186 186 186 186 186 186 186 186 186 186 186 186 186 186 186 186 186 186 186 186 186 186 186 186 186 186 177 166 154 142 131 119 108 96 84 73 61 49 38 26 29 33 38 42 47 51 56 -1 -1 -1 -1 -1 -1 -1 -1 -1 -1 -1 -1 -1 -1 -1 -1 -1 -1 -1 -1 -1 -1 -1 -1 -1 -1 -1 -1 -1 -1 -1 -1 -1 -1 -1 -1 -1 -1 -1 -1 -1 -1 -1 -1 -1 -1 -1 -1 -1 -1 -1 -1 -1 -1 -1 -1 -1 -1 -1 -1 -1 -1 -1 -1 -1 -1 -1 -1 -1 -1 -1 -1 -1 -1 -1 -1 -1 -1 -1 -1 -1 -1 -1 -1 -1 -1 -1 -1 -1 -1 -1 -1 -1 -1 -1 -1 -1 -1 -1 -1 -1 -1 -1 -1 -1 -1 -1 -1 -1 -1 -1 -1 -1 -1 -1 -1 -1 -1 -1 -1 -1 -1 -1 -1 -1 -1 -1 -1 -1 -1 -1 -1 -1 -1 -1 -1 -1 -1 -1 -1 -1 -1 -1 -1 -1 -1 -1 -1 -1 -1 -1 -1 -1 -1 -1 -1 -1 -1 -1 -1 
85 85 85 85 85 86 85 85 85 85 85 85 85 85 84 84 84 84 83 83 83 82 82 82 82 81 81 81 82 82 82 83 83 83 84 84 84 85 85 85 85 85 85 85 85 85 85 85 85 83 76 70 63 57 58 60 63 66 68 71 74 76 79 82 84 87 90 92 95 98 100 103 106 108 111 113 116 119 121 124 127 129 132 135 137 140 143 145 148 151 153 156 159 161 164 167 169 172 174 177 180 182 185 188 190 193 195 195 195 195 195 195 195 195 195 195 195 195 195 195 195 195 195 195 195 195 195 195 195 195 195 195 195 195 195 195 195 195 195 195 195 195 195 195 195 195 195 195 195 195 195 195 195 195 195 195 195 195 195 195 195 195 195 195 195 195 195 195 195 195 195 195 195 195 195 195 195 195 195 195 195 195 195 195 195 195 195 195 195 195 195 195 195 195 195 195 195 195 195 195 195 195 195 195 195 195 195 195 195 195 195 195 195 195 195 195 195 195 195 195 195 195 195 195 195 195 194 194 194 194 194 194 194 194 194 194 194 194 194 194 194 194 194 194 194 194 194 194 194 194 194 194 194 194 194 194 194 194 194 194 194 194 194 194 194 194 194 194 194 194 194 194 194 194 194 194 194 194 194 194 194 194 194 194 193 193 193 193 193 193 193 193 193 193 193 193 193 193 193 185 173 161 150 138 126 115 103 92 80 68 57 45 33 25 30 34 39 43 48 53 57 -1 -1 -1 -1 -1 -1 -1 -1 -1 -1 -1 -1 -1 -1 -1 -1 -1 -1 -1 -1 -1 -1 -1 -1 -1 -1 -1 -1 -1 -1 -1 -1 -1 -1 -1 -1 -1 -1 -1 -1 -1 -1 -1 -1 -1 -1 -1 -1 -1 -1 -1 -1 -1 -1 -1 -1 -1 -1 -1 -1 -1 -1 -1 -1 -1 -1 -1 -1 -1 -1 -1 -1 -1 -1 -1 -1 -1 -1 -1 -1 -1 -1 -1 -1 -1 -1 -1 -1 -1 -1 -1 -1 -1 -1 -1 -1 -1 -1 -1 -1 -1 -1 -1 -1 -1 -1 -1 -1 -1 -1 -1 -1 -1 -1 -1 -1 -1 -1 -1 -1 -1 -1 -1 -1 -1 -1 -1 -1 -1 -1 -1 -1 -1 -1 -1 -1 -1 -1 -1 -1 -1 -1 -1 -1 -1 -1 -1 -1 -1 -1 -1 -1 -1 -1 -1 -1 -1 -1 -1 -1 
85 86 86 86 86 86 86 85 85 85 85 85 85 85 85 84 84 84 83 83 83 83 82 82 82 82 81 81 81 81 82 82 82 83 83 83 84 84 84 85 85 85 85 85 85 85 85 85 85 85 85 85 81 74 68 61 58 60 63 65 68 71 73 76 79 81 84 87 89 92 95 97 100 103 105 108 111 113 116 119 121 124 126 129 132 134 137 140 142 145 148 150 153 156 158 161 164 166 169 172 174 177 180 182 185 188 190 193 195 198 201 203 203 203 203 203 203 203 203 203 203 203 203 203 203 203 203 203 203 203 203 203 203 203 203 203 203 203 203 203 203 203 203 203 203 203 203 203 203 203 203 203 203 203 203 203 203 203 203 203 203 203 203 203 203 203 203 203 203 203 203 203 203 203 203 203 203 203 203 203 203 203 203 203 203 203 203 203 203 203 203 203 203 203 203 203 203 203 203 203 203 203 203 203 203 203 202 202 202 202 202 202 202 202 202 202 202 202 202 202 202 202 202 202 202 202 202 202 202 202 202 202 202 202 202 202 202 202 202 202 202 202 202 202 202 202 202 202 202 202 202 202 202 202 202 202 202 202 202 202 202 202 202 202 201 201 201 201 201 201 201 201 201 201 201 201 201 201 201 201 201 201 201 201 201 201 201 201 201 201 201 201 201 201 201 201 201 201 192 180 169 157 145 134 122 110 99 87 76 64 52 41 29 26 31 35 40 45 49 54 58 -1 -1 -1 -1 -1 -1 -1 -1 -1 -1 -1 -1 -1 -1 -1 -1 -1 -1 -1 -1 -1 -1 -1 -1 -1 -1 -1 -1 -1 -1 -1 -1 -1 -1 -1 -1 -1 -1 -1 -1 -1 -1 -1 -1 -1 -1 -1 -1 -1 -1 -1 -1 -1 -1 -1 -1 -1 -1 -1 -1 -1 -1 -1 -1 -1 -1 -1 -1 -1 -1 -1 -1 -1 -1 -1 -1 -1 -1 -1 -1 -1 -1 -1 -1 -1 -1 -1 -1 -1 -1 -1 -1 -1 -1 -1 -1 -1 -1 -1 -1 -1 -1 -1 -1 -1 -1 -1 -1 -1 -1 -1 -1 -1 -1 -1 -1 -1 -1 -1 -1 -1 -1 -1 -1 -1 -1 -1 -1 -1 -1 -1 -1 -1 -1 -1 -1 -1 -1 -1 -1 -1 -1 -1 -1 -1 -1 -1 -1 -1 -1 -1 -1 -1 -1 -1 -1 -1 -1 -1 -1 
85 86 86 86 86 86 86 86 85 85 85 85 85 85 85 84 84 84 84 83 83 83 83 82 82 82 82 81 81 81 81 81 82 82 82 83 83 83 84 84 84 85 85 85 85 85 85 85 85 85 85 85 85 85 85 79 72 66 59 60 63 65 68 71 73 76 79 81 84 86 89 92 94 97 100 102 105 108 110 113 116 118 121 124 126 129 132 134 137 140 142 145 147 150 153 155 158 161 163 166 169 171 174 177 179 182 185 187 190 193 195 198 201 203 206 208 211 211 211 211 211 211 211 211 211 211 211 211 211 211 211 211 211 211 211 211 211 211 211 211 211 211 211 211 211 211 211 211 211 211 211 211 211 211 211 211 211 211 211 211 211 211 211 211 211 211 211 211 211 211 211 211 211 211 211 211 211 211 211 211 211 211 211 211 211 211 210 210 210 210 210 210 210 210 210 210 210 210 210 210 210 210 210 210 210 210 210 210 210 210 210 210 210 210 210 210 210 210 210 210 210 210 210 210 210 210 210 210 210 210 210 210 210 210 210 210 210 210 210 210 210 210 210 210 210 209 209 209 209 209 209 209 209 209 209 209 209 209 209 209 209 209 209 209 209 209 209 209 209 209 209 209 209 209 209 209 209 209 209 209 209 209 209 209 209 209 209 209 209 209 209 209 209 209 209 209 209 199 187 176 164 153 141 129 118 106 94 83 71 60 48 36 25 28 32 37 41 46 50 55 60 -1 -1 -1 -1 -1 -1 -1 -1 -1 -1 -1 -1 -1 -1 -1 -1 -1 -1 -1 -1 -1 -1 -1 -1 -1 -1 -1 -1 -1 -1 -1 -1 -1 -1 -1 -1 -1 -1 -1 -1 -1 -1 -1 -1 -1 -1 -1 -1 -1 -1 -1 -1 -1 -1 -1 -1 -1 -1 -1 -1 -1 -1 -1 -1 -1 -1 -1 -1 -1 -1 -1 -1 -1 -1 -1 -1 -1 -1 -1 -1 -1 -1 -1 -1 -1 -1 -1 -1 -1 -1 -1 -1 -1 -1 -1 -1 -1 -1 -1 -1 -1 -1 -1 -1 -1 -1 -1 -1 -1 -1 -1 -1 -1 -1 -1 -1 -1 -1 -1 -1 -1 -1 -1 -1 -1 -1 -1 -1 -1 -1 -1 -1 -1 -1 -1 -1 -1 -1 -1 -1 -1 -1 -1 -1 -1 -1 -1 -1 -1 -1 -1 -1 -1 -1 -1 -1 -1 -1 -1 -1 
86 86 86 86 86 86 86 86 86 86 86 85 85 85 85 85 84 84 84 84 83 83 83 83 82 82 82 82 81 81 81 81 81 81 82 82 82 83 83 83 84 84 84 85 85 85 85 85 85 85 85 85 85 85 85 85 85 84 77 71 64 60 62 65 68 70 73 76 78 81 84 86 89 92 94 97 99 102 105 107 110 113 115 118 121 123 126 129 131 134 137 139 142 145 147 150 153 155 158 160 163 166 168 171 174 176 179 182 184 187 190 192 195 198 200 203 206 208 211 214 216 219 219 219 219 219 219 219 219 219 219 219 219 219 219 219 219 219 219 219 219 219 219 219 219 219 219 219 219 219 219 219 219 219 219 219 219 219 219 219 219 219 219 219 219 219 219 218 218 218 218 218 218 218 218 218 218 218 218 218 218 218 218 218 218 218 218 218 218 218 218 218 218 218 218 218 218 218 218 218 218 218 218 218 218 218 218 218 218 218 218 218 218 218 218 218 218 218 218 218 218 218 218 218 218 217 217 217 217 217 217 217 217 217 217 217 217 217 217 217 217 217 217 217 217 217 217 217 217 217 217 217 217 217 217 217 217 217 217 217 217 217 217 217 217 217 217 217 217 217 217 217 217 217 217 217 217 217 217 217 217 217 217 216 216 216 216 216 216 216 216 216 216 216 216 216 206 195 183 171 160 148 137 125 113 102 90 79 67 55 44 32 24 29 33 38 42 47 52 56 61 -1 -1 -1 -1 -1 -1 -1 -1 -1 -1 -1 -1 -1 -1 -1 -1 -1 -1 -1 -1 -1 -1 -1 -1 -1 -1 -1 -1 -1 -1 -1 -1 -1 -1 -1 -1 -1 -1 -1 -1 -1 -1 -1 -1 -1 -1 -1 -1 -1 -1 -1 -1 -1 -1 -1 -1 -1 -1 -1 -1 -1 -1 -1 -1 -1 -1 -1 -1 -1 -1 -1 -1 -1 -1 -1 -1 -1 -1 -1 -1 -1 -1 -1 -1 -1 -1 -1 -1 -1 -1 -1 -1 -1 -1 -1 -1 -1 -1 -1 -1 -1 -1 -1 -1 -1 -1 -1 -1 -1 -1 -1 -1 -1 -1 -1 -1 -1 -1 -1 -1 -1 -1 -1 -1 -1 -1 -1 -1 -1 -1 -1 -1 -1 -1 -1 -1 -1 -1 -1 -1 -1 -1 -1 -1 -1 -1 -1 -1 -1 -1 -1 -1 -1 -1 -1 -1 -1 -1 -1 -1 
86 86 86 86 86 86 86 86 86 86 86 86 86 85 85 85 85 84 84 84 84 83 83 83 83 82 82 82 82 81 81 81 80 81 81 81 82 82 83 83 83 84 84 84 85 85 85 85 85 85 85 85 85 85 85 85 85 85 85 85 82 75 69 62 62 65 67 70 73 75 78 81 83 86 89 91 94 97 99 102 105 107 110 113 115 118 120 123 126 128 131 134 136 139 142 144 147 150 152 155 158 160 163 166 168 171 174 176 179 181 184 187 189 192 195 197 200 203 205 208 211 213 216 219 221 224 226 226 226 226 226 226 226 226 226 226 226 226 226 226 226 226 226 226 226 226 226 226 226 226 226 226 226 226 226 226 226 226 226 226 226 226 226 226 226 226 226 226 226 226 226 226 226 226 226 226 226 226 226 226 226 226 226 226 226 226 226 226 226 226 226 226 226 226 226 226 226 226 226 226 226 226 226 226 226 225 225 225 225 225 225 225 225 225 225 225 225 225 225 225 225 225 225 225 225 225 225 225 225 225 225 225 225 225 225 225 225 225 225 225 225 225 225 225 225 225 225 225 225 225 225 225 225 225 225 225 225 225 225 225 225 225 225 224 224 224 224 224 224 224 224 224 224 224 224 224 224 224 224 224 224 224 224 224 224 224 224 224 224 224 224 224 224 224 224 214 202 190 179 167 155 144 132 121 109 97 86 74 63 51 39 28 25 30 35 39 44 48 53 57 62 -1 -1 -1 -1 -1 -1 -1 -1 -1 -1 -1 -1 -1 -1 -1 -1 -1 -1 -1 -1 -1 -1 -1 -1 -1 -1 -1 -1 -1 -1 -1 -1 -1 -1 -1 -1 -1 -1 -1 -1 -1 -1 -1 -1 -1 -1 -1 -1 -1 -1 -1 -1 -1 -1 -1 -1 -1 -1 -1 -1 -1 -1 -1 -1 -1 -1 -1 -1 -1 -1 -1 -1 -1 -1 -1 -1 -1 -1 -1 -1 -1 -1 -1 -1 -1 -1 -1 -1 -1 -1 -1 -1 -1 -1 -1 -1 -1 -1 -1 -1 -1 -1 -1 -1 -1 -1 -1 -1 -1 -1 -1 -1 -1 -1 -1 -1 -1 -1 -1 -1 -1 -1 -1 -1 -1 -1 -1 -1 -1 -1 -1 -1 -1 -1 -1 -1 -1 -1 -1 -1 -1 -1 -1 -1 -1 -1 -1 -1 -1 -1 -1 -1 -1 -1 -1 -1 -1 -1 -1 -1 
86 86 86 86 86 86 86 86 86 86 86 86 86 86 85 85 85 85 84 84 84 84 83 83 83 83 82 82 82 81 81 81 81 80 81 81 81 82 82 82 83 83 83 84 84 84 85 85 85 85 85 85 85 85 85 85 85 85 85 85 85 85 85 80 73 67 62 65 67 70 72 75 78 80 83 86 88 91 94 96 99 102 104 107 110 112 115 118 120 123 126 128 131 133 136 139 141 144 147 149 152 155 157 160 163 165 168 171 173 176 179 181 184 187 189 192 194 197 200 202 205 208 210 213 216 218 221 224 226 229 232 234 234 234 234 234 234 234 234 234 234 234 234 234 234 234 234 234 234 234 234 234 234 234 234 234 234 234 234 234 234 234 234 234 234 234 234 234 234 234 234 234 234 234 234 234 234 234 234 234 234 234 234 234 234 233 233 233 233 233 233 233 233 233 233 233 233 233 233 233 233 233 233 233 233 233 233 233 233 233 233 233 233 233 233 233 233 233 233 233 233 233 233 233 233 233 233 233 233 233 233 233 233 233 233 233 233 233 233 233 233 233 233 233 232 232 232 232 232 232 232 232 232 232 232 232 232 232 232 232 232 232 232 232 232 232 232 232 232 232 232 232 232 232 232 232 232 232 232 232 232 232 232 232 232 232 232 232 232 232 232 232 232 232 221 209 198 186 174 163 151 140 128 116 105 93 81 70 58 47 35 23 27 31 36 40 45 49 54 59 63 -1 -1 -1 -1 -1 -1 -1 -1 -1 -1 -1 -1 -1 -1 -1 -1 -1 -1 -1 -1 -1 -1 -1 -1 -1 -1 -1 -1 -1 -1 -1 -1 -1 -1 -1 -1 -1 -1 -1 -1 -1 -1 -1 -1 -1 -1 -1 -1 -1 -1 -1 -1 -1 -1 -1 -1 -1 -1 -1 -1 -1 -1 -1 -1 -1 -1 -1 -1 -1 -1 -1 -1 -1 -1 -1 -1 -1 -1 -1 -1 -1 -1 -1 -1 -1 -1 -1 -1 -1 -1 -1 -1 -1 -1 -1 -1 -1 -1 -1 -1 -1 -1 -1 -1 -1 -1 -1 -1 -1 -1 -1 -1 -1 -1 -1 -1 -1 -1 -1 -1 -1 -1 -1 -1 -1 -1 -1 -1 -1 -1 -1 -1 -1 -1 -1 -1 -1 -1 -1 -1 -1 -1 -1 -1 -1 -1 -1 -1 -1 -1 -1 -1 -1 -1 -1 -1 -1 -1 -1 -1 
86 86 86 86 86 86 86 86 86 86 86 86 86 86 86 85 85 85 85 84 84 84 84 83 83 83 82 82 82 82 81 81 81 81 80 80 81 81 81 82 82 82 83 83 83 84 84 84 85 85 85 85 85 85 85 85 85 85 85 85 85 85 85 85 85 84 78 71 65 64 67 70 72 75 78 80 83 86 88 91 93 96 99 101 104 107 109 112 115 117 120 123 125 128 131 133 136 139 141 144 147 149 152 154 157 160 162 165 168 170 173 176 178 181 184 186 189 192 194 197 200 202 205 208 210 213 215 218 221 223 226 229 231 234 237 239 242 242 242 242 242 242 242 242 242 242 242 242 242 242 242 242 242 242 242 242 242 242 242 242 242 242 242 242 242 242 241 241 241 241 241 241 241 241 241 241 241 241 241 241 241 241 241 241 241 241 241 241 241 241 241 241 241 241 241 241 241 241 241 241 241 241 241 241 241 241 241 241 241 241 241 241 241 241 241 241 241 241 241 241 241 241 241 241 240 240 240 240 240 240 240 240 240 240 240 240 240 240 240 240 240 240 240 240 240 240 240 240 240 240 240 240 240 240 240 240 240 240 240 240 240 240 240 240 240 240 240 240 240 240 240 240 240 240 240 240 240 240 240 240 240 240 239 239 239 239 239 239 239 239 239 239 239 228 216 205 193 182 170 158 147 135 124 112 100 89 77 65 54 42 31 23 28 32 37 41 46 51 55 60 64 -1 -1 -1 -1 -1 -1 -1 -1 -1 -1 -1 -1 -1 -1 -1 -1 -1 -1 -1 -1 -1 -1 -1 -1 -1 -1 -1 -1 -1 -1 -1 -1 -1 -1 -1 -1 -1 -1 -1 -1 -1 -1 -1 -1 -1 -1 -1 -1 -1 -1 -1 -1 -1 -1 -1 -1 -1 -1 -1 -1 -1 -1 -1 -1 -1 -1 -1 -1 -1 -1 -1 -1 -1 -1 -1 -1 -1 -1 -1 -1 -1 -1 -1 -1 -1 -1 -1 -1 -1 -1 -1 -1 -1 -1 -1 -1 -1 -1 -1 -1 -1 -1 -1 -1 -1 -1 -1 -1 -1 -1 -1 -1 -1 -1 -1 -1 -1 -1 -1 -1 -1 -1 -1 -1 -1 -1 -1 -1 -1 -1 -1 -1 -1 -1 -1 -1 -1 -1 -1 -1 -1 -1 -1 -1 -1 -1 -1 -1 -1 -1 -1 -1 -1 -1 -1 -1 -1 -1 -1 -1 
86 86 86 86 86 86 86 86 86 86 86 86 86 86 86 86 85 85 85 85 84 84 84 83 83 83 83 82 82 82 82 81 81 81 81 80 80 80 81 81 81 82 82 82 83 83 83 84 84 84 85 85 85 85 85 85 85 85 85 85 85 85 85 85 85 85 85 85 83 76 70 64 67 69 72 75 77 80 83 85 88 91 93 96 99 101 104 106 109 112 114 117 120 122 125 128 130 133 136 138 141 144 146 149 152 154 157 160 162 165 167 170 173 175 178 181 183 186 189 191 194 197 199 202 205 207 210 213 215 218 221 223 226 228 231 234 231 230 230 230 230 230 230 230 231 231 231 231 231 231 231 231 231 232 232 232 232 232 232 232 232 232 233 233 233 233 233 233 233 233 233 234 234 234 234 234 234 234 234 234 235 235 235 235 235 235 235 235 235 236 236 236 236 236 236 236 236 236 237 237 237 237 237 237 237 237 237 238 238 238 238 238 238 238 238 238 239 239 239 239 239 239 239 239 239 240 240 240 240 240 240 240 240 241 241 241 241 241 241 241 241 241 242 242 242 242 242 242 242 242 242 243 243 243 243 243 243 243 243 243 244 244 244 244 244 244 244 244 244 245 245 245 245 245 245 245 245 245 246 246 246 246 246 246 246 246 246 247 247 247 247 247 235 224 212 201 189 177 166 154 142 131 119 108 96 84 73 61 49 38 26 24 29 34 38 43 47 52 56 61 66 -1 -1 -1 -1 -1 -1 -1 -1 -1 -1 -1 -1 -1 -1 -1 -1 -1 -1 -1 -1 -1 -1 -1 -1 -1 -1 -1 -1 -1 -1 -1 -1 -1 -1 -1 -1 -1 -1 -1 -1 -1 -1 -1 -1 -1 -1 -1 -1 -1 -1 -1 -1 -1 -1 -1 -1 -1 -1 -1 -1 -1 -1 -1 -1 -1 -1 -1 -1 -1 -1 -1 -1 -1 -1 -1 -1 -1 -1 -1 -1 -1 -1 -1 -1 -1 -1 -1 -1 -1 -1 -1 -1 -1 -1 -1 -1 -1 -1 -1 -1 -1 -1 -1 -1 -1 -1 -1 -1 -1 -1 -1 -1 -1 -1 -1 -1 -1 -1 -1 -1 -1 -1 -1 -1 -1 -1 -1 -1 -1 -1 -1 -1 -1 -1 -1 -1 -1 -1 -1 -1 -1 -1 -1 -1 -1 -1 -1 -1 -1 -1 -1 -1 -1 -1 -1 -1 -1 -1 -1 -1 
86 86 86 86 86 86 86 86 86 86 86 86 86 86 86 86 86 85 85 85 84 84 84 84 83 83 83 83 82 82 82 82 81 81 81 81 80 80 80 80 81 81 81 82 82 82 83 83 83 84 84 84 85 85 85 85 85 85 85 85 85 85 85 85 85 85 85 85 85 85 85 81 74 68 66 69 72 74 77 80 82 85 88 90 93 96 98 101 104 106 109 112 114 117 120 122 125 127 130 133 135 138 141 143 146 149 151 154 157 159 162 165 167 170 173 175 178 181 183 186 188 191 194 196 199 202 204 207 210 212 215 218 220 223 226 224 221 218 217 218 218 218 218 218 218 218 218 218 219 219 219 219 219 219 219 219 220 220 220 220 220 220 220 220 220 221 221 221 221 221 221 221 221 221 222 222 222 222 222 222 222 222 222 223 223 223 223 223 223 223 223 223 224 224 224 224 224 224 224 224 224 225 225 225 225 225 225 225 225 225 226 226 226 226 226 226 226 226 226 227 227 227 227 227 227 227 227 227 228 228 228 228 228 228 228 228 228 229 229 229 229 229 229 229 229 229 230 230 230 230 230 230 230 230 230 231 231 231 231 231 231 231 231 231 232 232 232 232 232 232 232 232 233 233 233 233 233 233 233 229 217 205 192 180 168 156 143 131 119 107 94 82 137 191 208 196 185 173 161 150 138 126 115 103 92 80 68 57 45 34 22 26 30 35 39 44 48 53 58 62 67 -1 -1 -1 -1 -1 -1 -1 -1 -1 -1 -1 -1 -1 -1 -1 -1 -1 -1 -1 -1 -1 -1 -1 -1 -1 -1 -1 -1 -1 -1 -1 -1 -1 -1 -1 -1 -1 -1 -1 -1 -1 -1 -1 -1 -1 -1 -1 -1 -1 -1 -1 -1 -1 -1 -1 -1 -1 -1 -1 -1 -1 -1 -1 -1 -1 -1 -1 -1 -1 -1 -1 -1 -1 -1 -1 -1 -1 -1 -1 -1 -1 -1 -1 -1 -1 -1 -1 -1 -1 -1 -1 -1 -1 -1 -1 -1 -1 -1 -1 -1 -1 -1 -1 -1 -1 -1 -1 -1 -1 -1 -1 -1 -1 -1 -1 -1 -1 -1 -1 -1 -1 -1 -1 -1 -1 -1 -1 -1 -1 -1 -1 -1 -1 -1 -1 -1 -1 -1 -1 -1 -1 -1 -1 -1 -1 -1 -1 -1 -1 -1 -1 -1 -1 -1 -1 -1 -1 -1 -1 -1 
86 86 86 86 86 86 86 86 86 86 86 86 86 86 86 86 86 85 85 85 85 84 84 84 84 83 83 83 83 82 82 82 82 81 81 81 81 80 80 80 80 80 81 81 81 82 82 82 83 83 83 84 84 84 85 85 85 85 85 85 85 85 85 85 85 85 85 85 85 85 85 85 85 85 79 72 66 69 72 74 77 79 82 85 87 90 93 95 98 101 103 106 109 111 114 117 119 122 125 127 130 133 135 138 140 143 146 148 151 154 156 159 162 164 167 170 172 175 178 180 183 186 188 191 194 196 199 201 204 207 209 212 215 217 217 214 210 207 205 205 205 205 206 206 206 206 206 206 206 206 206 207 207 207 207 207 207 207 207 207 208 208 208 208 208 208 208 208 208 209 209 209 209 209 209 209 209 209 210 210 210 210 210 210 210 210 210 211 211 211 211 211 211 211 211 212 212 212 212 212 212 212 212 212 213 213 213 213 213 213 213 213 213 214 214 214 214 214 214 214 214 214 215 215 215 215 215 215 215 215 215 216 216 216 216 216 216 216 216 216 217 217 217 217 217 217 217 217 217 218 218 218 218 218 218 218 218 218 219 219 219 219 219 219 219 219 219 211 199 187 175 162 150 138 125 113 101 89 82 82 82 82 82 82 82 82 82 82 82 82 82 81 94 84 81 135 180 169 157 145 134 122 110 99 87 76 64 52 41 29 22 27 31 36 41 45 50 54 59 63 68 -1 -1 -1 -1 -1 -1 -1 -1 -1 -1 -1 -1 -1 -1 -1 -1 -1 -1 -1 -1 -1 -1 -1 -1 -1 -1 -1 -1 -1 -1 -1 -1 -1 -1 -1 -1 -1 -1 -1 -1 -1 -1 -1 -1 -1 -1 -1 -1 -1 -1 -1 -1 -1 -1 -1 -1 -1 -1 -1 -1 -1 -1 -1 -1 -1 -1 -1 -1 -1 -1 -1 -1 -1 -1 -1 -1 -1 -1 -1 -1 -1 -1 -1 -1 -1 -1 -1 -1 -1 -1 -1 -1 -1 -1 -1 -1 -1 -1 -1 -1 -1 -1 -1 -1 -1 -1 -1 -1 -1 -1 -1 -1 -1 -1 -1 -1 -1 -1 -1 -1 -1 -1 -1 -1 -1 -1 -1 -1 -1 -1 -1 -1 -1 -1 -1 -1 -1 -1 -1 -1 -1 -1 -1 -1 -1 -1 -1 -1 -1 -1 -1 -1 -1 -1 -1 -1 -1 -1 -1 -1 
86 86 86 86 86 86 86 86 86 86 86 86 86 86 86 86 86 86 85 85 85 85 84 84 84 84 83 83 83 83 82 82 82 82 81 81 81 80 80 80 80 80 80 80 81 81 81 82 82 82 83 83 83 84 84 84 85 85 85 85 85 85 85 85 85 85 85 85 85 85 85 85 85 85 85 85 83 77 70 69 71 74 77 79 82 85 87 90 93 95 98 100 103 106 108 111 114 116 119 122 124 127 130 132 135 138 140 143 146 148 151 154 156 159 161 164 167 169 172 175 177 180 183 185 188 191 193 196 199 201 204 207 209 210 206 203 200 197 193 193 193 193 193 193 193 194 194 194 194 194 194 194 194 194 195 195 195 195 195 195 195 195 195 196 196 196 196 196 196 196 196 196 197 197 197 197 197 197 197 197 197 198 198 198 198 198 198 198 198 198 199 199 199 199 199 199 199 199 199 200 200 200 200 200 200 200 200 200 201 201 201 201 201 201 201 201 201 202 202 202 202 202 202 202 202 203 203 203 203 203 203 203 203 203 204 204 204 204 204 204 204 204 204 205 205 205 205 205 205 205 205 205 206 206 206 193 181 169 157 144 132 120 108 95 83 82 82 82 82 82 82 82 82 82 82 82 82 82 82 82 82 82 82 82 82 82 82 82 82 82 84 81 93 105 100 86 71 79 134 141 129 118 106 95 83 71 60 48 36 25 23 28 33 37 42 46 51 55 60 65 69 -1 -1 -1 -1 -1 -1 -1 -1 -1 -1 -1 -1 -1 -1 -1 -1 -1 -1 -1 -1 -1 -1 -1 -1 -1 -1 -1 -1 -1 -1 -1 -1 -1 -1 -1 -1 -1 -1 -1 -1 -1 -1 -1 -1 -1 -1 -1 -1 -1 -1 -1 -1 -1 -1 -1 -1 -1 -1 -1 -1 -1 -1 -1 -1 -1 -1 -1 -1 -1 -1 -1 -1 -1 -1 -1 -1 -1 -1 -1 -1 -1 -1 -1 -1 -1 -1 -1 -1 -1 -1 -1 -1 -1 -1 -1 -1 -1 -1 -1 -1 -1 -1 -1 -1 -1 -1 -1 -1 -1 -1 -1 -1 -1 -1 -1 -1 -1 -1 -1 -1 -1 -1 -1 -1 -1 -1 -1 -1 -1 -1 -1 -1 -1 -1 -1 -1 -1 -1 -1 -1 -1 -1 -1 -1 -1 -1 -1 -1 -1 -1 -1 -1 -1 -1 -1 -1 -1 -1 -1 -1 
86 86 86 86 86 86 86 86 86 86 86 86 86 86 86 86 86 86 86 85 85 85 85 84 84 84 84 83 83 83 83 82 82 82 81 81 81 81 80 80 80 80 79 80 80 80 81 81 81 82 82 82 83 83 83 84 84 84 85 85 85 86 86 86 86 85 85 85 85 85 85 85 85 85 85 85 85 85 85 82 75 69 71 74 76 79 82 84 87 90 92 95 98 100 103 106 108 111 113 116 119 121 124 127 129 132 135 137 140 143 145 148 151 153 156 159 161 164 167 169 172 174 177 180 182 185 188 190 193 196 198 201 202 199 196 192 189 186 183 180 181 181 181 181 181 181 181 181 182 182 182 182 182 182 182 182 182 183 183 183 183 183 183 183 183 183 184 184 184 184 184 184 184 184 184 185 185 185 185 185 185 185 185 185 186 186 186 186 186 186 186 186 186 187 187 187 187 187 187 187 187 187 188 188 188 188 188 188 188 188 188 189 189 189 189 189 189 189 189 189 190 190 190 190 190 190 190 190 190 191 191 191 191 191 191 191 191 191 192 192 192 192 188 176 163 151 139 127 114 102 90 82 82 82 82 82 82 82 82 82 82 82 82 82 82 82 82 82 82 82 82 82 82 82 82 82 82 82 82 82 82 82 82 82 82 82 82 82 82 83 88 80 92 105 117 117 102 87 73 58 78 113 102 90 79 67 55 44 32 20 25 29 34 38 43 48 52 57 61 66 70 -1 -1 -1 -1 -1 -1 -1 -1 -1 -1 -1 -1 -1 -1 -1 -1 -1 -1 -1 -1 -1 -1 -1 -1 -1 -1 -1 -1 -1 -1 -1 -1 -1 -1 -1 -1 -1 -1 -1 -1 -1 -1 -1 -1 -1 -1 -1 -1 -1 -1 -1 -1 -1 -1 -1 -1 -1 -1 -1 -1 -1 -1 -1 -1 -1 -1 -1 -1 -1 -1 -1 -1 -1 -1 -1 -1 -1 -1 -1 -1 -1 -1 -1 -1 -1 -1 -1 -1 -1 -1 -1 -1 -1 -1 -1 -1 -1 -1 -1 -1 -1 -1 -1 -1 -1 -1 -1 -1 -1 -1 -1 -1 -1 -1 -1 -1 -1 -1 -1 -1 -1 -1 -1 -1 -1 -1 -1 -1 -1 -1 -1 -1 -1 -1 -1 -1 -1 -1 -1 -1 -1 -1 -1 -1 -1 -1 -1 -1 -1 -1 -1 -1 -1 -1 -1 -1 -1 -1 -1 -1 
86 86 86 86 86 86 86 86 86 87 86 86 86 86 86 86 86 86 86 86 85 85 85 85 84 84 84 84 83 83 83 82 82 82 82 81 81 81 81 80 80 80 80 79 79 80 80 80 81 81 81 82 82 82 83 83 83 84 84 84 85 85 85 86 86 86 86 86 86 86 86 85 85 85 85 85 85 85 85 85 85 85 80 73 71 73 76 79 81 84 87 89 92 95 97 100 103 105 108 111 113 116 119 121 124 127 129 132 134 137 140 142 145 148 150 153 156 158 161 164 166 169 172 174 177 180 182 185 188 190 193 195 192 188 185 182 179 175 172 169 168 168 168 169 169 169 169 169 169 169 169 169 170 170 170 170 170 170 170 170 170 171 171 171 171 171 171 171 171 171 172 172 172 172 172 172 172 172 172 173 173 173 173 173 173 173 173 174 174 174 174 174 174 174 174 174 175 175 175 175 175 175 175 175 175 176 176 176 176 176 176 176 176 176 177 177 177 177 177 177 177 177 177 178 178 178 178 178 178 178 170 158 146 133 121 109 96 84 82 82 82 82 82 82 82 82 82 82 82 82 82 82 82 82 82 82 82 82 82 82 82 82 82 82 82 82 82 82 82 82 82 82 82 82 82 82 82 82 82 82 82 82 82 82 82 82 82 82 82 87 91 80 92 104 116 129 134 119 104 89 74 60 45 76 74 63 51 39 28 21 26 30 35 40 44 49 53 58 62 67 72 -1 -1 -1 -1 -1 -1 -1 -1 -1 -1 -1 -1 -1 -1 -1 -1 -1 -1 -1 -1 -1 -1 -1 -1 -1 -1 -1 -1 -1 -1 -1 -1 -1 -1 -1 -1 -1 -1 -1 -1 -1 -1 -1 -1 -1 -1 -1 -1 -1 -1 -1 -1 -1 -1 -1 -1 -1 -1 -1 -1 -1 -1 -1 -1 -1 -1 -1 -1 -1 -1 -1 -1 -1 -1 -1 -1 -1 -1 -1 -1 -1 -1 -1 -1 -1 -1 -1 -1 -1 -1 -1 -1 -1 -1 -1 -1 -1 -1 -1 -1 -1 -1 -1 -1 -1 -1 -1 -1 -1 -1 -1 -1 -1 -1 -1 -1 -1 -1 -1 -1 -1 -1 -1 -1 -1 -1 -1 -1 -1 -1 -1 -1 -1 -1 -1 -1 -1 -1 -1 -1 -1 -1 -1 -1 -1 -1 -1 -1 -1 -1 -1 -1 -1 -1 -1 -1 -1 -1 -1 -1 
86 87 87 87 87 87 87 87 87 87 87 86 86 86 86 86 86 86 86 86 86 85 85 85 85 84 84 84 83 83 83 83 82 82 82 82 81 81 81 81 80 80 80 80 79 79 79 80 80 80 81 81 81 82 82 82 83 83 83 84 84 84 85 85 85 86 86 86 86 86 86 86 86 86 86 86 86 85 85 85 85 85 85 85 84 78 71 73 76 79 81 84 86 89 92 94 97 100 102 105 108 110 113 116 118 121 124 126 129 132 134 137 140 142 145 147 150 153 155 158 161 163 166 169 171 174 177 179 182 185 187 184 181 178 175 171 168 165 162 158 156 156 156 156 156 156 157 157 157 157 157 157 157 157 157 158 158 158 158 158 158 158 158 158 159 159 159 159 159 159 159 159 159 160 160 160 160 160 160 160 160 160 161 161 161 161 161 161 161 161 161 162 162 162 162 162 162 162 162 162 163 163 163 163 163 163 163 163 163 164 164 164 164 164 164 164 164 165 152 140 128 115 103 91 82 82 82 82 82 82 82 82 82 82 82 82 82 82 82 82 82 82 82 82 82 82 82 82 82 82 82 82 82 82 82 82 82 82 82 82 82 82 82 82 82 82 82 82 82 82 82 82 82 82 82 82 83 83 83 83 83 83 83 83 83 83 83 83 85 90 94 79 91 104 116 128 140 150 135 121 106 91 76 62 47 32 47 35 23 22 27 32 36 41 45 50 54 59 64 68 73 -1 -1 -1 -1 -1 -1 -1 -1 -1 -1 -1 -1 -1 -1 -1 -1 -1 -1 -1 -1 -1 -1 -1 -1 -1 -1 -1 -1 -1 -1 -1 -1 -1 -1 -1 -1 -1 -1 -1 -1 -1 -1 -1 -1 -1 -1 -1 -1 -1 -1 -1 -1 -1 -1 -1 -1 -1 -1 -1 -1 -1 -1 -1 -1 -1 -1 -1 -1 -1 -1 -1 -1 -1 -1 -1 -1 -1 -1 -1 -1 -1 -1 -1 -1 -1 -1 -1 -1 -1 -1 -1 -1 -1 -1 -1 -1 -1 -1 -1 -1 -1 -1 -1 -1 -1 -1 -1 -1 -1 -1 -1 -1 -1 -1 -1 -1 -1 -1 -1 -1 -1 -1 -1 -1 -1 -1 -1 -1 -1 -1 -1 -1 -1 -1 -1 -1 -1 -1 -1 -1 -1 -1 -1 -1 -1 -1 -1 -1 -1 -1 -1 -1 -1 -1 -1 -1 -1 -1 -1 -1 
86 87 87 87 87 87 87 87 87 87 87 87 86 86 86 86 86 86 86 86 86 86 85 85 85 84 84 84 84 83 83 83 83 82 82 82 82 81 81 81 81 80 80 80 80 79 79 79 79 80 80 80 81 81 81 82 82 82 83 83 83 84 84 84 85 85 85 86 86 86 86 86 86 86 86 86 86 86 86 86 86 86 86 86 85 85 85 82 76 73 76 78 81 84 86 89 92 94 97 99 102 105 107 110 113 115 118 121 123 126 129 131 134 137 139 142 145 147 150 153 155 158 161 163 166 168 171 174 176 179 177 174 171 167 164 161 158 154 151 148 145 144 144 144 144 144 144 144 144 145 145 145 145 145 145 145 145 145 146 146 146 146 146 146 146 146 146 147 147 147 147 147 147 147 147 147 148 148 148 148 148 148 148 148 148 149 149 149 149 149 149 149 149 149 150 150 150 150 150 150 150 150 150 151 151 147 134 122 110 98 85 82 82 82 82 82 82 82 82 82 82 82 82 82 82 82 82 82 82 82 82 82 82 82 82 82 82 82 82 82 82 82 82 82 82 82 82 82 82 82 82 82 82 82 82 82 82 82 82 82 82 82 82 83 83 83 83 83 83 83 83 83 83 83 83 83 83 83 83 83 83 83 83 83 83 83 83 84 89 94 92 78 91 103 115 128 140 152 164 152 137 122 108 93 78 63 49 34 19 24 28 33 37 42 47 51 56 60 65 69 74 -1 -1 -1 -1 -1 -1 -1 -1 -1 -1 -1 -1 -1 -1 -1 -1 -1 -1 -1 -1 -1 -1 -1 -1 -1 -1 -1 -1 -1 -1 -1 -1 -1 -1 -1 -1 -1 -1 -1 -1 -1 -1 -1 -1 -1 -1 -1 -1 -1 -1 -1 -1 -1 -1 -1 -1 -1 -1 -1 -1 -1 -1 -1 -1 -1 -1 -1 -1 -1 -1 -1 -1 -1 -1 -1 -1 -1 -1 -1 -1 -1 -1 -1 -1 -1 -1 -1 -1 -1 -1 -1 -1 -1 -1 -1 -1 -1 -1 -1 -1 -1 -1 -1 -1 -1 -1 -1 -1 -1 -1 -1 -1 -1 -1 -1 -1 -1 -1 -1 -1 -1 -1 -1 -1 -1 -1 -1 -1 -1 -1 -1 -1 -1 -1 -1 -1 -1 -1 -1 -1 -1 -1 -1 -1 -1 -1 -1 -1 -1 -1 -1 -1 -1 -1 -1 -1 -1 -1 -1 -1 
86 87 87 87 87 87 87 87 87 87 87 87 86 86 86 86 86 86 86 86 86 86 85 85 85 85 84 84 84 84 83 83 83 83 82 82 82 82 81 81 81 81 80 80 80 79 79 79 79 79 79 80 80 80 81 81 81 82 82 82 83 83 83 84 84 84 85 85 85 86 86 86 86 86 86 86 86 86 86 86 86 86 86 86 86 86 86 86 86 86 81 74 75 78 81 83 86 89 91 94 97 99 102 105 107 110 113 115 118 120 123 126 128 131 134 136 139 142 144 147 150 152 155 158 160 163 166 168 171 170 166 163 160 157 153 150 147 144 140 137 134 131 131 131 132 132 132 132 132 132 132 132 132 133 133 133 133 133 133 133 133 133 134 134 134 134 134 134 134 134 134 135 135 135 135 135 135 135 135 136 136 136 136 136 136 136 136 136 137 137 137 137 137 129 117 104 92 82 82 82 82 82 82 82 82 82 82 82 82 82 82 82 82 82 82 82 82 82 82 82 82 82 82 82 82 82 82 82 82 82 82 82 82 82 82 82 82 82 82 82 82 82 82 82 82 82 82 82 82 82 83 83 83 83 83 83 83 83 83 83 83 83 83 83 83 83 83 83 83 83 83 83 83 83 83 83 83 83 83 83 83 83 83 83 83 83 83 88 92 97 91 78 90 102 115 127 139 151 164 176 169 154 139 124 109 95 80 65 20 25 29 34 39 43 48 52 57 61 66 71 75 -1 -1 -1 -1 -1 -1 -1 -1 -1 -1 -1 -1 -1 -1 -1 -1 -1 -1 -1 -1 -1 -1 -1 -1 -1 -1 -1 -1 -1 -1 -1 -1 -1 -1 -1 -1 -1 -1 -1 -1 -1 -1 -1 -1 -1 -1 -1 -1 -1 -1 -1 -1 -1 -1 -1 -1 -1 -1 -1 -1 -1 -1 -1 -1 -1 -1 -1 -1 -1 -1 -1 -1 -1 -1 -1 -1 -1 -1 -1 -1 -1 -1 -1 -1 -1 -1 -1 -1 -1 -1 -1 -1 -1 -1 -1 -1 -1 -1 -1 -1 -1 -1 -1 -1 -1 -1 -1 -1 -1 -1 -1 -1 -1 -1 -1 -1 -1 -1 -1 -1 -1 -1 -1 -1 -1 -1 -1 -1 -1 -1 -1 -1 -1 -1 -1 -1 -1 -1 -1 -1 -1 -1 -1 -1 -1 -1 -1 -1 -1 -1 -1 -1 -1 -1 -1 -1 -1 -1 -1 -1 
87 87 87 87 87 87 87 87 87 87 87 87 87 86 86 86 86 86 86 86 86 86 86 85 85 85 85 84 84 84 84 83 83 83 83 82 82 82 82 81 81 81 80 80 80 80 79 79 79 79 79 79 79 80 80 80 81 81 81 82 82 82 83 83 83 84 84 84 85 85 85 86 86 86 86 86 86 86 86 86 86 86 86 86 86 86 86 86 86 86 86 86 85 79 75 78 80 83 86 88 91 94 96 99 102 104 107 110 112 115 118 120 123 126 128 131 133 136 139 141 144 147 149 152 155 157 160 163 162 159 156 153 149 146 143 140 136 133 130 127 123 120 119 119 119 119 119 120 120 120 120 120 120 120 120 120 121 121 121 121 121 121 121 121 121 122 122 122 122 122 122 122 122 122 123 123 123 123 123 123 123 111 99 86 82 82 82 82 82 82 82 82 82 82 82 82 82 82 82 82 82 82 82 82 82 82 82 82 82 82 82 82 82 82 82 82 82 82 82 82 82 82 82 82 82 82 82 82 82 82 82 82 82 82 82 82 83 83 83 83 83 83 83 83 83 83 83 83 83 83 83 83 83 83 83 83 83 83 83 83 83 83 83 83 83 83 83 83 83 83 83 83 83 83 83 83 83 83 83 83 83 83 83 83 83 83 86 91 96 100 89 77 90 102 114 126 139 151 163 175 188 185 170 156 141 126 111 50 21 26 31 35 40 44 49 54 58 63 67 72 76 -1 -1 -1 -1 -1 -1 -1 -1 -1 -1 -1 -1 -1 -1 -1 -1 -1 -1 -1 -1 -1 -1 -1 -1 -1 -1 -1 -1 -1 -1 -1 -1 -1 -1 -1 -1 -1 -1 -1 -1 -1 -1 -1 -1 -1 -1 -1 -1 -1 -1 -1 -1 -1 -1 -1 -1 -1 -1 -1 -1 -1 -1 -1 -1 -1 -1 -1 -1 -1 -1 -1 -1 -1 -1 -1 -1 -1 -1 -1 -1 -1 -1 -1 -1 -1 -1 -1 -1 -1 -1 -1 -1 -1 -1 -1 -1 -1 -1 -1 -1 -1 -1 -1 -1 -1 -1 -1 -1 -1 -1 -1 -1 -1 -1 -1 -1 -1 -1 -1 -1 -1 -1 -1 -1 -1 -1 -1 -1 -1 -1 -1 -1 -1 -1 -1 -1 -1 -1 -1 -1 -1 -1 -1 -1 -1 -1 -1 -1 -1 -1 -1 -1 -1 -1 -1 -1 -1 -1 -1 -1 
87 87 87 87 87 87 87 87 87 87 87 87 87 87 87 87 87 87 86 86 86 86 86 86 85 85 85 85 84 84 84 84 83 83 83 83 82 82 82 81 81 81 81 80 80 80 80 79 79 79 79 78 79 79 79 80 80 80 81 81 81 82 82 82 83 83 83 84 84 84 85 85 85 86 86 86 86 86 86 86 86 86 86 86 86 86 86 86 86 86 86 86 86 86 86 83 77 78 80 83 86 88 91 93 96 99 101 104 107 109 112 115 117 120 123 125 128 131 133 136 139 141 144 147 149 152 154 155 152 149 145 142 139 136 132 129 126 123 119 116 113 110 107 107 107 107 107 107 107 107 108 108 108 108 108 108 108 108 108 109 109 109 109 109 109 109 109 109 105 93 82 82 82 82 82 82 82 82 82 82 82 82 82 82 82 82 82 82 82 82 82 82 82 82 82 82 82 82 82 82 82 82 82 82 82 82 82 82 82 82 82 82 82 82 82 82 82 82 82 82 82 82 82 83 83 83 83 83 83 83 83 83 83 83 83 83 83 83 83 83 83 83 83 83 83 83 83 83 83 83 83 83 83 83 83 83 83 83 83 83 83 83 83 83 83 83 83 83 83 83 83 83 83 83 83 83 83 83 83 83 83 83 83 83 83 85 90 95 99 104 87 77 89 101 113 126 138 150 163 175 187 199 202 187 172 157 112 19 23 27 32 36 41 46 50 55 59 64 68 73 78 -1 -1 -1 -1 -1 -1 -1 -1 -1 -1 -1 -1 -1 -1 -1 -1 -1 -1 -1 -1 -1 -1 -1 -1 -1 -1 -1 -1 -1 -1 -1 -1 -1 -1 -1 -1 -1 -1 -1 -1 -1 -1 -1 -1 -1 -1 -1 -1 -1 -1 -1 -1 -1 -1 -1 -1 -1 -1 -1 -1 -1 -1 -1 -1 -1 -1 -1 -1 -1 -1 -1 -1 -1 -1 -1 -1 -1 -1 -1 -1 -1 -1 -1 -1 -1 -1 -1 -1 -1 -1 -1 -1 -1 -1 -1 -1 -1 -1 -1 -1 -1 -1 -1 -1 -1 -1 -1 -1 -1 -1 -1 -1 -1 -1 -1 -1 -1 -1 -1 -1 -1 -1 -1 -1 -1 -1 -1 -1 -1 -1 -1 -1 -1 -1 -1 -1 -1 -1 -1 -1 -1 -1 -1 -1 -1 -1 -1 -1 -1 -1 -1 -1 -1 -1 -1 -1 -1 -1 -1 -1 
87 87 87 87 87 87 87 87 87 87 87 87 87 87 87 87 87 87 87 87 87 86 86 86 86 85 85 85 85 84 84 84 84 83 83 83 82 82 82 82 81 81 81 81 80 80 80 80 79 79 79 79 78 78 79 79 79 80 80 80 81 81 81 82 82 82 83 83 84 84 84 85 85 85 86 86 86 86 86 86 86 86 86 86 86 86 86 86 86 86 86 86 86 86 86 86 86 86 81 77 80 83 85 88 91 93 96 99 101 104 106 109 112 114 117 120 122 125 128 130 133 136 138 141 144 146 148 145 141 138 135 132 128 125 122 119 115 112 109 106 102 99 96 94 94 95 95 95 95 95 95 95 95 95 96 96 88 82 82 82 82 82 82 82 82 82 82 82 82 82 82 82 82 82 82 82 82 82 82 82 82 82 82 82 82 82 82 82 82 82 82 82 82 82 82 82 82 82 82 82 82 82 82 82 82 82 82 82 82 83 83 83 83 83 83 83 83 83 83 83 83 83 83 83 83 83 83 83 83 83 83 83 83 83 83 83 83 83 83 83 83 83 83 83 83 83 83 83 83 83 83 83 83 83 83 83 83 83 83 83 83 83 83 83 83 83 83 83 83 83 83 83 83 83 83 83 83 83 83 83 83 83 83 83 84 89 93 98 103 106 86 76 88 101 113 125 137 150 162 174 187 199 211 218 204 173 81 20 24 28 33 38 42 47 51 56 60 65 70 74 79 -1 -1 -1 -1 -1 -1 -1 -1 -1 -1 -1 -1 -1 -1 -1 -1 -1 -1 -1 -1 -1 -1 -1 -1 -1 -1 -1 -1 -1 -1 -1 -1 -1 -1 -1 -1 -1 -1 -1 -1 -1 -1 -1 -1 -1 -1 -1 -1 -1 -1 -1 -1 -1 -1 -1 -1 -1 -1 -1 -1 -1 -1 -1 -1 -1 -1 -1 -1 -1 -1 -1 -1 -1 -1 -1 -1 -1 -1 -1 -1 -1 -1 -1 -1 -1 -1 -1 -1 -1 -1 -1 -1 -1 -1 -1 -1 -1 -1 -1 -1 -1 -1 -1 -1 -1 -1 -1 -1 -1 -1 -1 -1 -1 -1 -1 -1 -1 -1 -1 -1 -1 -1 -1 -1 -1 -1 -1 -1 -1 -1 -1 -1 -1 -1 -1 -1 -1 -1 -1 -1 -1 -1 -1 -1 -1 -1 -1 -1 -1 -1 -1 -1 -1 -1 -1 -1 -1 -1 -1 -1 
87 87 87 87 87 87 87 87 87 87 87 87 87 87 87 87 87 87 87 87 87 87 86 86 86 86 85 85 85 85 84 84 84 83 83 83 83 82 82 82 82 81 81 81 81 80 80 80 80 79 79 79 79 78 78 78 79 79 79 80 80 81 81 81 82 82 82 83 83 83 84 84 84 85 85 85 86 86 86 86 86 86 86 86 86 86 86 86 86 86 86 86 86 86 86 86 86 86 86 86 86 80 80 82 85 88 90 93 96 98 101 104 106 109 112 114 117 120 122 125 127 130 133 135 138 140 137 134 131 127 124 121 118 114 111 108 105 101 98 95 92 88 85 82 82 82 82 82 82 82 82 82 82 82 82 82 82 82 82 82 82 82 82 82 82 82 82 82 82 82 82 82 82 82 82 82 82 82 82 82 82 82 82 82 82 82 82 82 82 82 82 82 82 82 82 82 83 83 83 83 83 83 83 83 83 83 83 83 83 83 83 83 83 83 83 83 83 83 83 83 83 83 83 83 83 83 83 83 83 83 83 83 83 83 83 83 83 83 83 83 83 83 83 83 83 83 83 83 83 83 83 83 83 83 83 83 83 83 83 83 83 83 83 83 83 83 83 83 83 83 83 83 83 83 83 83 83 83 83 83 83 83 83 83 88 92 97 102 106 104 84 75 88 100 112 125 137 149 161 174 186 198 210 223 235 142 50 21 25 30 34 39 43 48 53 57 62 66 71 75 80 -1 -1 -1 -1 -1 -1 -1 -1 -1 -1 -1 -1 -1 -1 -1 -1 -1 -1 -1 -1 -1 -1 -1 -1 -1 -1 -1 -1 -1 -1 -1 -1 -1 -1 -1 -1 -1 -1 -1 -1 -1 -1 -1 -1 -1 -1 -1 -1 -1 -1 -1 -1 -1 -1 -1 -1 -1 -1 -1 -1 -1 -1 -1 -1 -1 -1 -1 -1 -1 -1 -1 -1 -1 -1 -1 -1 -1 -1 -1 -1 -1 -1 -1 -1 -1 -1 -1 -1 -1 -1 -1 -1 -1 -1 -1 -1 -1 -1 -1 -1 -1 -1 -1 -1 -1 -1 -1 -1 -1 -1 -1 -1 -1 -1 -1 -1 -1 -1 -1 -1 -1 -1 -1 -1 -1 -1 -1 -1 -1 -1 -1 -1 -1 -1 -1 -1 -1 -1 -1 -1 -1 -1 -1 -1 -1 -1 -1 -1 -1 -1 -1 -1 -1 -1 -1 -1 -1 -1 -1 -1 
87 87 87 87 87 87 87 87 87 87 87 87 87 87 87 87 87 87 87 87 87 87 87 86 86 86 86 85 85 85 84 84 84 84 83 83 83 83 82 82 82 82 81 81 81 81 80 80 80 80 79 79 79 79 78 78 78 79 79 79 80 80 80 81 81 81 82 82 82 83 83 83 84 84 84 85 85 85 86 86 86 86 86 86 86 86 86 86 86 86 86 86 86 86 86 86 86 86 86 86 86 86 86 84 79 82 85 87 90 93 95 98 101 103 106 109 111 114 117 119 122 125 127 130 133 130 127 123 120 117 114 110 107 104 101 97 94 91 88 84 86 95 104 107 87 82 82 82 82 82 82 82 82 82 82 82 82 82 82 82 82 82 82 82 82 82 82 82 82 82 82 82 82 82 82 82 82 82 82 82 82 82 83 83 83 83 83 83 83 83 83 83 83 83 83 83 83 83 83 83 83 83 83 83 83 83 83 83 83 83 83 83 83 83 83 83 83 83 83 83 83 83 83 83 83 83 83 83 83 83 83 83 83 83 83 83 83 83 83 83 83 83 83 83 83 83 83 83 83 83 83 83 83 83 83 83 83 83 83 83 83 83 83 83 83 83 83 83 83 83 83 83 83 83 83 83 83 83 83 83 83 83 83 86 91 96 100 105 110 103 83 75 87 99 112 124 136 148 161 173 185 198 210 222 204 112 19 22 26 31 35 40 45 49 54 58 63 67 72 77 81 -1 -1 -1 -1 -1 -1 -1 -1 -1 -1 -1 -1 -1 -1 -1 -1 -1 -1 -1 -1 -1 -1 -1 -1 -1 -1 -1 -1 -1 -1 -1 -1 -1 -1 -1 -1 -1 -1 -1 -1 -1 -1 -1 -1 -1 -1 -1 -1 -1 -1 -1 -1 -1 -1 -1 -1 -1 -1 -1 -1 -1 -1 -1 -1 -1 -1 -1 -1 -1 -1 -1 -1 -1 -1 -1 -1 -1 -1 -1 -1 -1 -1 -1 -1 -1 -1 -1 -1 -1 -1 -1 -1 -1 -1 -1 -1 -1 -1 -1 -1 -1 -1 -1 -1 -1 -1 -1 -1 -1 -1 -1 -1 -1 -1 -1 -1 -1 -1 -1 -1 -1 -1 -1 -1 -1 -1 -1 -1 -1 -1 -1 -1 -1 -1 -1 -1 -1 -1 -1 -1 -1 -1 -1 -1 -1 -1 -1 -1 -1 -1 -1 -1 -1 -1 -1 -1 -1 -1 -1 -1 
87 87 87 87 87 87 87 87 87 87 87 87 87 87 87 87 87 87 87 87 87 87 87 87 86 86 86 85 85 85 85 84 84 84 84 83 83 83 83 82 82 82 82 81 81 81 81 80 80 80 80 79 79 79 78 78 78 78 78 79 79 79 80 80 80 81 81 81 82 82 82 83 83 83 84 84 84 85 85 85 86 86 86 86 86 86 86 86 86 86 86 86 86 86 86 86 86 86 86 86 86 86 86 86 86 86 82 82 85 87 90 93 95 98 100 103 106 108 111 114 116 119 122 124 123 119 116 113 110 106 103 100 97 93 90 87 84 91 100 109 118 127 135 133 113 92 82 82 82 82 82 82 82 82 82 82 82 82 82 82 82 82 82 82 82 82 82 82 82 83 83 83 83 83 83 83 83 83 83 83 83 83 83 83 83 83 83 83 83 83 83 83 83 83 83 83 83 83 83 83 83 83 83 83 83 83 83 83 83 83 83 83 83 83 83 83 83 83 83 83 83 83 83 83 83 83 83 83 83 83 83 83 83 83 83 83 83 83 83 83 83 83 83 83 83 83 83 83 83 83 83 83 83 83 83 83 83 83 83 83 83 83 83 83 83 83 83 83 83 83 83 83 83 84 84 84 84 84 84 84 84 84 85 90 95 99 104 109 113 101 81 74 87 99 111 123 136 148 160 172 185 197 209 222 173 81 20 23 27 32 37 41 46 50 55 60 64 69 73 78 82 -1 -1 -1 -1 -1 -1 -1 -1 -1 -1 -1 -1 -1 -1 -1 -1 -1 -1 -1 -1 -1 -1 -1 -1 -1 -1 -1 -1 -1 -1 -1 -1 -1 -1 -1 -1 -1 -1 -1 -1 -1 -1 -1 -1 -1 -1 -1 -1 -1 -1 -1 -1 -1 -1 -1 -1 -1 -1 -1 -1 -1 -1 -1 -1 -1 -1 -1 -1 -1 -1 -1 -1 -1 -1 -1 -1 -1 -1 -1 -1 -1 -1 -1 -1 -1 -1 -1 -1 -1 -1 -1 -1 -1 -1 -1 -1 -1 -1 -1 -1 -1 -1 -1 -1 -1 -1 -1 -1 -1 -1 -1 -1 -1 -1 -1 -1 -1 -1 -1 -1 -1 -1 -1 -1 -1 -1 -1 -1 -1 -1 -1 -1 -1 -1 -1 -1 -1 -1 -1 -1 -1 -1 -1 -1 -1 -1 -1 -1 -1 -1 -1 -1 -1 -1 -1 -1 -1 -1 -1 -1 
87 87 87 87 87 87 87 87 87 87 87 87 87 87 87 87 87 87 87 87 87 87 87 87 86 86 86 86 85 85 85 85 84 84 84 84 83 83 83 83 82 82 82 82 81 81 81 81 80 80 80 79 79 79 79 78 78 78 78 78 78 79 79 79 80 80 80 81 81 81 82 82 82 83 83 83 84 84 84 85 85 85 86 86 86 86 86 86 86 86 86 86 86 86 86 86 86 86 86 86 86 86 86 86 86 86 86 86 86 82 84 87 90 92 95 98 100 103 106 108 111 113 116 115 112 109 106 102 99 96 93 89 86 86 95 104 113 122 131 140 149 158 167 158 138 118 98 82 82 82 82 82 82 82 82 83 83 83 83 83 83 83 83 83 83 83 83 83 83 83 83 83 83 83 83 83 83 83 83 83 83 83 83 83 83 83 83 83 83 83 83 83 83 83 83 83 83 83 83 83 83 83 83 83 83 83 83 83 83 83 83 83 83 83 83 83 83 83 83 83 83 83 83 83 83 83 83 83 83 83 83 83 83 83 83 83 83 83 83 83 83 83 83 83 83 83 83 83 83 83 83 83 83 83 83 83 83 83 83 83 84 84 84 84 84 84 84 84 84 84 84 84 84 84 84 84 84 84 84 84 84 84 89 93 98 103 107 112 117 99 79 74 86 98 110 123 135 147 160 172 184 196 209 221 143 50 21 24 28 33 38 42 47 52 56 61 65 70 74 79 84 -1 -1 -1 -1 -1 -1 -1 -1 -1 -1 -1 -1 -1 -1 -1 -1 -1 -1 -1 -1 -1 -1 -1 -1 -1 -1 -1 -1 -1 -1 -1 -1 -1 -1 -1 -1 -1 -1 -1 -1 -1 -1 -1 -1 -1 -1 -1 -1 -1 -1 -1 -1 -1 -1 -1 -1 -1 -1 -1 -1 -1 -1 -1 -1 -1 -1 -1 -1 -1 -1 -1 -1 -1 -1 -1 -1 -1 -1 -1 -1 -1 -1 -1 -1 -1 -1 -1 -1 -1 -1 -1 -1 -1 -1 -1 -1 -1 -1 -1 -1 -1 -1 -1 -1 -1 -1 -1 -1 -1 -1 -1 -1 -1 -1 -1 -1 -1 -1 -1 -1 -1 -1 -1 -1 -1 -1 -1 -1 -1 -1 -1 -1 -1 -1 -1 -1 -1 -1 -1 -1 -1 -1 -1 -1 -1 -1 -1 -1 -1 -1 -1 -1 -1 -1 -1 -1 -1 -1 -1 -1 
87 87 87 87 87 87 87 87 87 87 87 87 87 87 87 87 87 87 87 87 87 87 87 87 87 86 86 86 86 85 85 85 85 84 84 84 84 83 83 83 83 82 82 82 82 81 81 81 80 80 80 80 79 79 79 79 78 78 78 78 78 78 78 79 79 79 80 80 80 81 81 81 82 82 82 83 83 83 84 84 84 85 85 85 86 86 86 86 86 86 86 86 86 86 86 86 86 86 86 86 86 86 86 86 86 86 86 86 86 86 86 85 84 87 89 92 95 97 100 103 105 108 108 105 101 98 95 92 88 85 91 100 109 117 126 135 144 153 162 171 180 189 198 183 163 143 123 103 83 83 83 83 83 83 83 83 83 83 83 83 83 83 83 83 83 83 83 83 83 83 83 83 83 83 83 83 83 83 83 83 83 83 83 83 83 83 83 83 83 83 83 83 83 83 83 83 83 83 83 83 83 83 83 83 83 83 83 83 83 83 83 83 83 83 83 83 83 83 83 83 83 83 83 83 83 83 83 83 83 83 83 83 83 83 83 83 83 83 83 83 83 83 83 83 83 83 84 84 84 84 84 84 84 84 84 84 84 84 84 84 84 84 84 84 84 84 84 84 84 84 84 84 84 84 84 84 84 84 84 84 84 88 92 97 101 106 111 115 118 98 78 73 85 98 110 122 134 147 159 171 184 196 208 204 112 19 22 25 30 34 39 44 48 53 57 62 67 71 76 80 85 -1 -1 -1 -1 -1 -1 -1 -1 -1 -1 -1 -1 -1 -1 -1 -1 -1 -1 -1 -1 -1 -1 -1 -1 -1 -1 -1 -1 -1 -1 -1 -1 -1 -1 -1 -1 -1 -1 -1 -1 -1 -1 -1 -1 -1 -1 -1 -1 -1 -1 -1 -1 -1 -1 -1 -1 -1 -1 -1 -1 -1 -1 -1 -1 -1 -1 -1 -1 -1 -1 -1 -1 -1 -1 -1 -1 -1 -1 -1 -1 -1 -1 -1 -1 -1 -1 -1 -1 -1 -1 -1 -1 -1 -1 -1 -1 -1 -1 -1 -1 -1 -1 -1 -1 -1 -1 -1 -1 -1 -1 -1 -1 -1 -1 -1 -1 -1 -1 -1 -1 -1 -1 -1 -1 -1 -1 -1 -1 -1 -1 -1 -1 -1 -1 -1 -1 -1 -1 -1 -1 -1 -1 -1 -1 -1 -1 -1 -1 -1 -1 -1 -1 -1 -1 -1 -1 -1 -1 -1 -1 
87 87 87 87 87 87 87 87 87 87 87 87 88 88 87 87 87 87 87 87 87 87 87 87 87 87 86 86 86 86 85 85 85 85 84 84 84 84 83 83 83 83 82 82 82 81 81 81 81 80 80 80 80 79 79 79 79 78 78 78 78 77 78 78 78 79 79 79 80 80 80 81 81 81 82 82 82 83 83 83 84 84 84 85 85 85 86 86 86 86 86 86 86 86 86 86 86 86 86 86 86 86 86 86 86 86 86 86 86 86 86 86 86 86 84 86 89 92 94 97 100 101 97 94 91 88 86 95 104 113 122 131 140 149 158 166 175 184 193 202 211 220 229 209 189 169 148 128 108 88 83 83 83 83 83 83 83 83 83 83 83 83 83 83 83 83 83 83 83 83 83 83 83 83 83 83 83 83 83 83 83 83 83 83 83 83 83 83 83 83 83 83 83 83 83 83 83 83 83 83 83 83 83 83 83 83 83 83 83 83 83 83 83 83 83 83 83 83 83 83 83 83 83 83 83 83 83 83 83 83 83 83 83 84 84 84 84 84 84 84 84 84 84 84 84 84 84 84 84 84 84 84 84 84 84 84 84 84 84 84 84 84 84 84 84 84 84 84 84 84 84 84 84 84 84 84 84 84 84 84 86 91 96 100 105 110 114 119 116 96 76 72 85 97 109 122 134 146 158 171 183 195 207 173 81 20 23 26 31 36 40 45 49 54 59 63 68 72 77 81 86 -1 -1 -1 -1 -1 -1 -1 -1 -1 -1 -1 -1 -1 -1 -1 -1 -1 -1 -1 -1 -1 -1 -1 -1 -1 -1 -1 -1 -1 -1 -1 -1 -1 -1 -1 -1 -1 -1 -1 -1 -1 -1 -1 -1 -1 -1 -1 -1 -1 -1 -1 -1 -1 -1 -1 -1 -1 -1 -1 -1 -1 -1 -1 -1 -1 -1 -1 -1 -1 -1 -1 -1 -1 -1 -1 -1 -1 -1 -1 -1 -1 -1 -1 -1 -1 -1 -1 -1 -1 -1 -1 -1 -1 -1 -1 -1 -1 -1 -1 -1 -1 -1 -1 -1 -1 -1 -1 -1 -1 -1 -1 -1 -1 -1 -1 -1 -1 -1 -1 -1 -1 -1 -1 -1 -1 -1 -1 -1 -1 -1 -1 -1 -1 -1 -1 -1 -1 -1 -1 -1 -1 -1 -1 -1 -1 -1 -1 -1 -1 -1 -1 -1 -1 -1 -1 -1 -1 -1 -1 -1 
87 87 87 87 88 88 88 88 88 88 88 88 88 88 88 87 87 87 87 87 87 87 87 87 87 87 87 86 86 86 86 85 85 85 85 84 84 84 84 83 83 83 82 82 82 82 81 81 81 81 80 80 80 80 79 79 79 79 78 78 78 78 77 77 78 78 78 79 79 79 80 80 80 81 81 81 82 82 82 83 83 83 84 84 84 85 85 85 86 86 86 86 86 86 86 86 86 86 86 86 86 86 86 86 86 86 86 86 86 86 86 86 86 86 86 86 86 86 89 92 93 90 87 91 99 108 117 126 135 144 153 167 187 207 227 232 229 227 224 222 219 221 223 226 214 194 174 154 134 113 93 83 83 83 83 83 83 83 83 83 83 83 83 83 83 83 83 83 83 83 83 83 83 83 83 83 83 83 83 83 83 83 83 83 83 83 83 83 83 83 83 83 83 83 83 83 83 83 83 83 83 83 83 83 83 83 83 83 83 83 83 83 83 83 83 83 83 83 83 84 84 84 84 84 84 84 84 84 84 84 84 84 84 84 84 84 84 84 84 84 84 84 84 84 84 84 84 84 84 84 84 84 84 84 84 84 84 84 84 84 84 84 84 84 84 84 84 84 84 84 84 84 84 84 84 84 84 84 84 85 90 94 99 104 108 113 118 122 115 95 75 72 84 96 109 121 133 146 158 170 182 195 207 143 50 21 24 27 32 37 41 46 51 55 60 64 69 73 78 83 87 -1 -1 -1 -1 -1 -1 -1 -1 -1 -1 -1 -1 -1 -1 -1 -1 -1 -1 -1 -1 -1 -1 -1 -1 -1 -1 -1 -1 -1 -1 -1 -1 -1 -1 -1 -1 -1 -1 -1 -1 -1 -1 -1 -1 -1 -1 -1 -1 -1 -1 -1 -1 -1 -1 -1 -1 -1 -1 -1 -1 -1 -1 -1 -1 -1 -1 -1 -1 -1 -1 -1 -1 -1 -1 -1 -1 -1 -1 -1 -1 -1 -1 -1 -1 -1 -1 -1 -1 -1 -1 -1 -1 -1 -1 -1 -1 -1 -1 -1 -1 -1 -1 -1 -1 -1 -1 -1 -1 -1 -1 -1 -1 -1 -1 -1 -1 -1 -1 -1 -1 -1 -1 -1 -1 -1 -1 -1 -1 -1 -1 -1 -1 -1 -1 -1 -1 -1 -1 -1 -1 -1 -1 -1 -1 -1 -1 -1 -1 -1 -1 -1 -1 -1 -1 -1 -1 -1 -1 -1 -1 
87 88 88 88 88 88 88 88 88 88 88 88 88 88 88 88 87 87 87 87 87 87 87 87 87 87 87 87 86 86 86 86 85 85 85 85 84 84 84 83 83 83 83 82 82 82 82 81 81 81 81 80 80 80 80 79 79 79 79 78 78 78 77 77 77 77 78 78 78 79 79 79 80 80 80 81 81 81 82 82 82 83 83 83 84 84 84 85 85 85 86 86 86 86 86 86 86 86 86 86 86 86 86 86 86 86 86 86 86 86 86 86 86 86 86 86 86 86 86 86 106 126 146 165 185 205 225 237 235 232 230 227 225 222 220 217 215 212 210 210 213 215 218 220 223 219 199 179 159 139 119 99 83 83 83 83 83 83 83 83 83 83 83 83 83 83 83 83 83 83 83 83 83 83 83 83 83 83 83 83 83 83 83 83 83 83 83 83 83 83 83 83 83 83 83 83 83 83 83 83 83 83 83 83 83 83 84 84 84 84 84 84 84 84 84 84 84 84 84 84 84 84 84 84 84 84 84 84 84 84 84 84 84 84 84 84 84 84 84 84 84 84 84 84 84 84 84 84 84 84 84 84 84 84 84 84 84 84 84 84 84 84 84 84 84 84 84 84 84 84 84 84 84 84 84 84 84 84 84 89 93 98 103 107 112 117 121 126 113 93 73 71 84 96 108 120 133 145 157 169 182 194 204 112 19 22 25 28 33 38 43 47 52 56 61 66 70 75 79 84 88 -1 -1 -1 -1 -1 -1 -1 -1 -1 -1 -1 -1 -1 -1 -1 -1 -1 -1 -1 -1 -1 -1 -1 -1 -1 -1 -1 -1 -1 -1 -1 -1 -1 -1 -1 -1 -1 -1 -1 -1 -1 -1 -1 -1 -1 -1 -1 -1 -1 -1 -1 -1 -1 -1 -1 -1 -1 -1 -1 -1 -1 -1 -1 -1 -1 -1 -1 -1 -1 -1 -1 -1 -1 -1 -1 -1 -1 -1 -1 -1 -1 -1 -1 -1 -1 -1 -1 -1 -1 -1 -1 -1 -1 -1 -1 -1 -1 -1 -1 -1 -1 -1 -1 -1 -1 -1 -1 -1 -1 -1 -1 -1 -1 -1 -1 -1 -1 -1 -1 -1 -1 -1 -1 -1 -1 -1 -1 -1 -1 -1 -1 -1 -1 -1 -1 -1 -1 -1 -1 -1 -1 -1 -1 -1 -1 -1 -1 -1 -1 -1 -1 -1 -1 -1 -1 -1 -1 -1 -1 -1 
87 88 88 88 88 88 88 88 88 88 88 88 88 88 88 88 87 87 87 87 87 87 87 87 87 87 87 87 87 86 86 86 86 85 85 85 84 84 84 84 83 83 83 83 82 82 82 82 81 81 81 81 80 80 80 80 79 79 79 78 78 78 78 77 77 77 77 77 78 78 78 79 79 79 80 80 80 81 81 81 82 82 82 83 83 83 84 84 84 85 85 85 86 86 86 86 86 86 86 86 86 86 86 86 86 86 86 86 86 86 86 86 86 86 86 86 86 86 86 243 240 238 235 233 230 228 225 223 220 218 215 213 210 208 205 203 200 199 202 204 207 209 212 215 217 220 223 204 184 164 144 124 104 84 83 83 83 83 83 83 83 83 83 83 83 83 83 83 83 83 83 83 83 83 83 83 83 83 83 83 83 83 83 83 83 83 83 83 83 83 83 83 83 84 84 84 84 84 84 84 84 84 84 84 84 84 84 84 84 84 84 84 84 84 84 84 84 84 84 84 84 84 84 84 84 84 84 84 84 84 84 84 84 84 84 84 84 84 84 84 84 84 84 84 84 84 84 84 84 84 84 84 84 84 84 84 84 84 84 84 84 84 84 84 84 84 84 84 84 84 84 84 84 84 84 84 84 84 87 92 97 101 106 111 115 120 125 129 111 91 71 71 83 95 108 120 132 144 157 169 181 193 173 81 20 23 26 29 34 39 44 48 53 58 62 67 71 76 80 85 90 -1 -1 -1 -1 -1 -1 -1 -1 -1 -1 -1 -1 -1 -1 -1 -1 -1 -1 -1 -1 -1 -1 -1 -1 -1 -1 -1 -1 -1 -1 -1 -1 -1 -1 -1 -1 -1 -1 -1 -1 -1 -1 -1 -1 -1 -1 -1 -1 -1 -1 -1 -1 -1 -1 -1 -1 -1 -1 -1 -1 -1 -1 -1 -1 -1 -1 -1 -1 -1 -1 -1 -1 -1 -1 -1 -1 -1 -1 -1 -1 -1 -1 -1 -1 -1 -1 -1 -1 -1 -1 -1 -1 -1 -1 -1 -1 -1 -1 -1 -1 -1 -1 -1 -1 -1 -1 -1 -1 -1 -1 -1 -1 -1 -1 -1 -1 -1 -1 -1 -1 -1 -1 -1 -1 -1 -1 -1 -1 -1 -1 -1 -1 -1 -1 -1 -1 -1 -1 -1 -1 -1 -1 -1 -1 -1 -1 -1 -1 -1 -1 -1 -1 -1 -1 -1 -1 -1 -1 -1 -1 
87 88 88 88 88 88 88 88 88 88 88 88 88 88 88 88 88 87 87 87 87 87 87 87 87 87 87 87 87 87 86 86 86 85 85 85 85 84 84 84 84 83 83 83 83 82 82 82 82 81 81 81 81 80 80 80 79 79 79 79 78 78 78 78 77 77 77 77 77 77 78 78 78 79 79 79 80 80 80 81 81 81 82 82 82 83 83 83 84 84 84 85 85 85 86 86 86 86 86 86 86 86 86 86 86 86 86 86 86 86 86 86 86 86 86 86 86 86 86 228 226 223 221 218 216 213 211 208 206 203 201 198 196 193 191 189 191 194 196 199 201 204 206 209 212 214 217 220 210 190 169 149 129 109 89 83 83 83 83 83 83 83 83 83 83 83 83 83 83 83 83 83 83 83 83 83 83 83 83 84 84 84 84 84 84 84 84 84 84 84 84 84 84 84 84 84 84 84 84 84 84 84 84 84 84 84 84 84 84 84 84 84 84 84 84 84 84 84 84 84 84 84 84 84 84 84 84 84 84 84 84 84 84 84 84 84 84 84 84 84 84 84 84 84 84 84 84 84 84 84 84 84 84 84 84 84 84 84 84 84 84 84 84 84 84 84 84 84 84 84 84 84 84 84 84 84 84 86 91 96 100 105 110 114 119 124 128 130 110 90 70 70 82 95 107 119 131 144 156 168 181 193 143 50 21 24 26 30 35 40 45 50 54 59 63 68 73 77 82 86 91 -1 -1 -1 -1 -1 -1 -1 -1 -1 -1 -1 -1 -1 -1 -1 -1 -1 -1 -1 -1 -1 -1 -1 -1 -1 -1 -1 -1 -1 -1 -1 -1 -1 -1 -1 -1 -1 -1 -1 -1 -1 -1 -1 -1 -1 -1 -1 -1 -1 -1 -1 -1 -1 -1 -1 -1 -1 -1 -1 -1 -1 -1 -1 -1 -1 -1 -1 -1 -1 -1 -1 -1 -1 -1 -1 -1 -1 -1 -1 -1 -1 -1 -1 -1 -1 -1 -1 -1 -1 -1 -1 -1 -1 -1 -1 -1 -1 -1 -1 -1 -1 -1 -1 -1 -1 -1 -1 -1 -1 -1 -1 -1 -1 -1 -1 -1 -1 -1 -1 -1 -1 -1 -1 -1 -1 -1 -1 -1 -1 -1 -1 -1 -1 -1 -1 -1 -1 -1 -1 -1 -1 -1 -1 -1 -1 -1 -1 -1 -1 -1 -1 -1 -1 -1 -1 -1 -1 -1 -1 -1 
87 88 88 88 88 88 88 88 88 88 88 88 88 88 88 88 88 88 87 87 87 87 87 87 87 87 87 87 87 87 86 86 86 86 85 85 85 85 84 84 84 84 83 83 83 83 82 82 82 82 81 81 81 80 80 80 80 79 79 79 79 78 78 78 78 77 77 77 77 77 77 77 78 78 78 79 79 79 80 80 80 81 81 81 82 82 82 83 83 83 84 84 84 85 85 85 86 86 86 87 86 86 86 86 86 86 86 86 86 86 86 86 86 86 86 86 86 86 86 214 211 209 206 204 201 199 196 194 191 189 186 184 181 178 181 183 186 188 191 193 196 198 201 203 206 209 211 214 216 215 195 175 155 134 114 94 83 83 83 83 83 83 83 83 83 83 84 84 84 84 84 84 84 84 84 84 84 84 84 84 84 84 84 84 84 84 84 84 84 84 84 84 84 84 84 84 84 84 84 84 84 84 84 84 84 84 84 84 84 84 84 84 84 84 84 84 84 84 84 84 84 84 84 84 84 84 84 84 84 84 84 84 84 84 84 84 84 84 84 84 84 84 84 84 84 84 84 84 84 84 84 84 84 84 84 84 84 84 84 84 84 84 84 84 84 84 84 84 84 84 85 85 85 85 85 85 85 90 94 99 104 108 113 118 122 127 132 128 108 88 68 70 82 94 106 119 131 143 155 168 180 192 112 19 22 25 27 32 37 42 46 51 55 60 65 69 74 78 83 87 92 -1 -1 -1 -1 -1 -1 -1 -1 -1 -1 -1 -1 -1 -1 -1 -1 -1 -1 -1 -1 -1 -1 -1 -1 -1 -1 -1 -1 -1 -1 -1 -1 -1 -1 -1 -1 -1 -1 -1 -1 -1 -1 -1 -1 -1 -1 -1 -1 -1 -1 -1 -1 -1 -1 -1 -1 -1 -1 -1 -1 -1 -1 -1 -1 -1 -1 -1 -1 -1 -1 -1 -1 -1 -1 -1 -1 -1 -1 -1 -1 -1 -1 -1 -1 -1 -1 -1 -1 -1 -1 -1 -1 -1 -1 -1 -1 -1 -1 -1 -1 -1 -1 -1 -1 -1 -1 -1 -1 -1 -1 -1 -1 -1 -1 -1 -1 -1 -1 -1 -1 -1 -1 -1 -1 -1 -1 -1 -1 -1 -1 -1 -1 -1 -1 -1 -1 -1 -1 -1 -1 -1 -1 -1 -1 -1 -1 -1 -1 -1 -1 -1 -1 -1 -1 -1 -1 -1 -1 -1 -1 
88 88 88 88 88 88 88 88 88 88 88 88 88 88 88 88 88 88 88 88 87 87 87 87 87 87 87 87 87 87 87 86 86 86 86 85 85 85 85 84 84 84 84 83 83 83 83 82 82 82 81 81 81 81 80 80 80 80 79 79 79 79 78 78 78 78 77 77 77 77 76 77 77 77 78 78 78 79 79 79 80 80 80 81 81 81 82 82 82 83 83 83 84 84 84 85 85 85 86 86 86 87 87 87 87 87 86 86 86 86 86 86 86 86 86 86 86 86 86 199 197 194 192 189 186 184 181 179 176 174 171 169 170 172 175 177 180 182 185 187 190 192 195 198 200 203 206 208 211 213 216 200 180 160 140 120 99 84 84 84 84 84 84 84 84 84 84 84 84 84 84 84 84 84 84 84 84 84 84 84 84 84 84 84 84 84 84 84 84 84 84 84 84 84 84 84 84 84 84 84 84 84 84 84 84 84 84 84 84 84 84 84 84 84 84 84 84 84 84 84 84 84 84 84 84 84 84 84 84 84 84 84 84 84 84 84 84 84 84 84 84 84 84 84 84 84 84 84 84 84 84 84 84 84 84 84 84 85 85 85 85 85 85 85 85 85 85 85 85 85 85 85 85 85 85 85 89 93 98 103 107 112 116 121 126 130 135 127 107 87 66 69 81 93 106 118 130 143 155 167 179 174 81 20 23 26 28 33 38 43 47 52 57 61 66 70 75 79 84 89 93 -1 -1 -1 -1 -1 -1 -1 -1 -1 -1 -1 -1 -1 -1 -1 -1 -1 -1 -1 -1 -1 -1 -1 -1 -1 -1 -1 -1 -1 -1 -1 -1 -1 -1 -1 -1 -1 -1 -1 -1 -1 -1 -1 -1 -1 -1 -1 -1 -1 -1 -1 -1 -1 -1 -1 -1 -1 -1 -1 -1 -1 -1 -1 -1 -1 -1 -1 -1 -1 -1 -1 -1 -1 -1 -1 -1 -1 -1 -1 -1 -1 -1 -1 -1 -1 -1 -1 -1 -1 -1 -1 -1 -1 -1 -1 -1 -1 -1 -1 -1 -1 -1 -1 -1 -1 -1 -1 -1 -1 -1 -1 -1 -1 -1 -1 -1 -1 -1 -1 -1 -1 -1 -1 -1 -1 -1 -1 -1 -1 -1 -1 -1 -1 -1 -1 -1 -1 -1 -1 -1 -1 -1 -1 -1 -1 -1 -1 -1 -1 -1 -1 -1 -1 -1 -1 -1 -1 -1 -1 -1 
88 88 88 88 88 88 88 88 88 88 88 88 88 88 88 88 88 88 88 88 88 88 88 88 88 87 87 87 87 87 87 87 86 86 86 86 85 85 85 85 84 84 84 84 83 83 83 82 82 82 82 81 81 81 81 80 80 80 80 79 79 79 79 78 78 78 78 77 77 77 76 76 76 77 77 77 78 78 78 79 79 79 80 80 80 81 81 81 82 82 82 83 83 83 84 84 84 85 85 85 86 86 86 87 87 87 87 87 87 87 87 87 86 86 86 86 86 86 86 184 182 179 177 174 172 169 167 164 162 159 159 162 164 167 169 172 174 177 179 182 184 187 189 192 195 197 200 203 205 208 210 213 205 185 165 145 125 105 85 84 84 84 84 84 84 84 84 84 84 84 84 84 84 84 84 84 84 84 84 84 84 84 84 84 84 84 84 84 84 84 84 84 84 84 84 84 84 84 84 84 84 84 84 84 84 84 84 84 84 84 84 84 84 84 84 84 84 84 84 84 84 84 84 84 84 84 84 84 84 84 84 84 84 84 84 84 84 84 84 84 84 84 84 85 85 85 85 85 85 85 85 85 85 85 85 85 85 85 85 85 85 85 85 85 85 85 85 85 85 85 85 85 85 85 85 87 92 97 101 106 111 115 120 125 129 134 139 125 105 85 65 68 81 93 105 117 130 142 154 167 179 143 50 21 24 27 29 34 39 44 49 53 58 62 67 72 76 81 85 90 94 -1 -1 -1 -1 -1 -1 -1 -1 -1 -1 -1 -1 -1 -1 -1 -1 -1 -1 -1 -1 -1 -1 -1 -1 -1 -1 -1 -1 -1 -1 -1 -1 -1 -1 -1 -1 -1 -1 -1 -1 -1 -1 -1 -1 -1 -1 -1 -1 -1 -1 -1 -1 -1 -1 -1 -1 -1 -1 -1 -1 -1 -1 -1 -1 -1 -1 -1 -1 -1 -1 -1 -1 -1 -1 -1 -1 -1 -1 -1 -1 -1 -1 -1 -1 -1 -1 -1 -1 -1 -1 -1 -1 -1 -1 -1 -1 -1 -1 -1 -1 -1 -1 -1 -1 -1 -1 -1 -1 -1 -1 -1 -1 -1 -1 -1 -1 -1 -1 -1 -1 -1 -1 -1 -1 -1 -1 -1 -1 -1 -1 -1 -1 -1 -1 -1 -1 -1 -1 -1 -1 -1 -1 -1 -1 -1 -1 -1 -1 -1 -1 -1 -1 -1 -1 -1 -1 -1 -1 -1 -1 
88 88 88 88 88 88 88 88 88 88 88 88 88 88 88 88 88 88 88 88 88 88 88 88 88 88 88 88 88 87 87 87 87 86 86 86 86 85 85 85 85 84 84 84 83 83 83 83 82 82 82 82 81 81 81 81 80 80 80 80 79 79 79 79 78 78 78 77 77 77 77 76 76 76 76 77 77 77 78 78 78 79 79 79 80 80 80 81 81 81 82 82 82 83 83 84 84 84 85 85 85 86 86 86 87 87 87 87 87 87 87 87 87 87 87 87 87 87 87 170 167 165 162 160 157 155 152 150 149 151 154 156 159 161 164 166 169 171 173 176 178 181 184 186 189 192 194 197 199 202 205 207 210 211 190 170 150 130 110 90 84 84 84 84 84 84 84 84 84 84 84 84 84 84 84 84 84 84 84 84 84 84 84 84 84 84 84 84 84 84 84 84 84 84 84 84 84 84 84 84 84 84 84 84 84 84 84 84 84 84 84 84 84 84 84 84 84 84 84 84 84 84 84 84 84 84 84 84 84 84 85 85 85 85 85 85 85 85 85 85 85 85 85 85 85 85 85 85 85 85 85 85 85 85 85 85 85 85 85 85 85 85 85 85 85 85 85 85 85 85 85 85 85 85 86 91 95 100 105 109 114 119 123 128 133 137 142 123 103 83 63 68 80 92 105 117 129 141 154 166 178 112 19 22 25 27 30 35 40 45 50 54 59 64 68 73 77 82 86 91 96 -1 -1 -1 -1 -1 -1 -1 -1 -1 -1 -1 -1 -1 -1 -1 -1 -1 -1 -1 -1 -1 -1 -1 -1 -1 -1 -1 -1 -1 -1 -1 -1 -1 -1 -1 -1 -1 -1 -1 -1 -1 -1 -1 -1 -1 -1 -1 -1 -1 -1 -1 -1 -1 -1 -1 -1 -1 -1 -1 -1 -1 -1 -1 -1 -1 -1 -1 -1 -1 -1 -1 -1 -1 -1 -1 -1 -1 -1 -1 -1 -1 -1 -1 -1 -1 -1 -1 -1 -1 -1 -1 -1 -1 -1 -1 -1 -1 -1 -1 -1 -1 -1 -1 -1 -1 -1 -1 -1 -1 -1 -1 -1 -1 -1 -1 -1 -1 -1 -1 -1 -1 -1 -1 -1 -1 -1 -1 -1 -1 -1 -1 -1 -1 -1 -1 -1 -1 -1 -1 -1 -1 -1 -1 -1 -1 -1 -1 -1 -1 -1 -1 -1 -1 -1 -1 -1 -1 -1 -1 -1 
88 88 88 88 88 88 88 88 88 88 88 88 88 88 88 88 88 88 88 88 88 88 88 88 88 88 88 88 88 88 87 87 87 87 86 86 86 86 85 85 85 84 84 84 84 83 83 83 83 82 82 82 82 81 81 81 81 80 80 80 80 79 79 79 78 78 78 78 77 77 77 77 76 76 76 76 76 77 77 77 78 78 78 79 79 79 80 80 81 81 81 82 82 82 83 83 83 84 84 84 85 85 85 86 86 86 87 87 87 87 87 87 87 87 87 87 87 87 158 155 153 150 148 145 143 140 138 140 143 145 148 150 153 155 158 160 163 165 168 170 173 175 178 181 183 186 189 191 194 196 199 202 204 207 210 196 176 155 135 115 95 84 84 84 84 84 84 84 84 84 84 84 84 84 84 84 84 84 84 84 84 84 84 84 84 84 84 84 84 84 84 84 84 84 84 84 84 84 84 84 84 84 84 84 84 84 84 84 84 84 84 84 84 84 84 84 85 85 85 85 85 85 85 85 85 85 85 85 85 85 85 85 85 85 85 85 85 85 85 85 85 85 85 85 85 85 85 85 85 85 85 85 85 85 85 85 85 85 85 85 85 85 85 85 85 85 85 85 85 85 85 85 85 85 90 94 99 104 108 113 118 122 127 132 136 141 142 122 102 82 62 67 79 92 104 116 128 141 153 165 174 81 20 23 26 28 31 36 41 46 51 56 60 65 69 74 79 83 88 92 97 -1 -1 -1 -1 -1 -1 -1 -1 -1 -1 -1 -1 -1 -1 -1 -1 -1 -1 -1 -1 -1 -1 -1 -1 -1 -1 -1 -1 -1 -1 -1 -1 -1 -1 -1 -1 -1 -1 -1 -1 -1 -1 -1 -1 -1 -1 -1 -1 -1 -1 -1 -1 -1 -1 -1 -1 -1 -1 -1 -1 -1 -1 -1 -1 -1 -1 -1 -1 -1 -1 -1 -1 -1 -1 -1 -1 -1 -1 -1 -1 -1 -1 -1 -1 -1 -1 -1 -1 -1 -1 -1 -1 -1 -1 -1 -1 -1 -1 -1 -1 -1 -1 -1 -1 -1 -1 -1 -1 -1 -1 -1 -1 -1 -1 -1 -1 -1 -1 -1 -1 -1 -1 -1 -1 -1 -1 -1 -1 -1 -1 -1 -1 -1 -1 -1 -1 -1 -1 -1 -1 -1 -1 -1 -1 -1 -1 -1 -1 -1 -1 -1 -1 -1 -1 -1 -1 -1 -1 -1 -1 
88 88 88 88 88 88 88 88 88 88 88 88 88 88 88 88 88 88 88 88 88 88 88 88 88 88 88 88 88 88 88 87 87 87 87 86 86 86 85 85 85 85 84 84 84 84 83 83 83 83 82 82 82 82 81 81 81 81 80 80 80 79 79 79 79 78 78 78 78 77 77 77 77 76 76 76 76 76 76 77 77 78 78 78 79 79 79 80 80 80 81 81 81 82 82 82 83 83 83 84 84 84 85 85 85 86 86 86 87 87 87 87 87 87 87 87 87 87 143 141 138 135 133 130 128 130 132 135 137 140 142 145 147 150 152 155 157 160 162 165 167 170 172 175 178 180 183 186 188 191 193 196 199 201 204 207 201 181 161 141 120 100 84 84 84 84 84 84 84 84 84 84 84 84 84 84 84 84 84 84 84 84 84 84 84 84 84 84 84 84 84 84 84 84 84 84 84 84 84 84 84 84 84 85 85 85 85 85 85 85 85 85 85 85 85 85 85 85 85 85 85 85 85 85 85 85 85 85 85 85 85 85 85 85 85 85 85 85 85 85 85 85 85 85 85 85 85 85 85 85 85 85 85 85 85 85 85 85 85 85 85 85 85 85 85 85 85 85 85 85 85 85 85 88 93 98 102 107 112 116 121 126 130 135 140 144 140 120 100 80 60 67 79 91 103 116 128 140 152 165 143 50 21 24 27 29 33 38 42 47 52 57 61 66 71 75 80 84 89 93 98 -1 -1 -1 -1 -1 -1 -1 -1 -1 -1 -1 -1 -1 -1 -1 -1 -1 -1 -1 -1 -1 -1 -1 -1 -1 -1 -1 -1 -1 -1 -1 -1 -1 -1 -1 -1 -1 -1 -1 -1 -1 -1 -1 -1 -1 -1 -1 -1 -1 -1 -1 -1 -1 -1 -1 -1 -1 -1 -1 -1 -1 -1 -1 -1 -1 -1 -1 -1 -1 -1 -1 -1 -1 -1 -1 -1 -1 -1 -1 -1 -1 -1 -1 -1 -1 -1 -1 -1 -1 -1 -1 -1 -1 -1 -1 -1 -1 -1 -1 -1 -1 -1 -1 -1 -1 -1 -1 -1 -1 -1 -1 -1 -1 -1 -1 -1 -1 -1 -1 -1 -1 -1 -1 -1 -1 -1 -1 -1 -1 -1 -1 -1 -1 -1 -1 -1 -1 -1 -1 -1 -1 -1 -1 -1 -1 -1 -1 -1 -1 -1 -1 -1 -1 -1 -1 -1 -1 -1 -1 -1 
88 88 88 88 88 88 88 88 88 88 88 88 88 88 88 88 88 88 88 88 88 88 88 88 88 88 88 88 88 88 88 88 87 87 87 86 86 86 86 85 85 85 85 84 84 84 84 83 83 83 83 82 82 82 82 81 81 81 80 80 80 80 79 79 79 79 78 78 78 78 77 77 77 77 76 76 76 76 76 76 77 77 77 78 78 78 79 79 79 80 80 80 81 81 81 82 82 82 83 83 83 84 84 84 85 85 85 86 86 86 87 87 87 87 87 87 87 87 128 126 123 121 118 119 122 124 127 129 131 134 136 139 141 144 146 149 151 154 156 159 162 164 167 169 172 175 177 180 183 185 188 190 193 196 198 201 204 206 186 166 146 126 106 85 84 84 84 84 84 84 84 84 84 84 84 84 84 84 84 84 84 84 84 84 84 84 84 84 84 85 85 85 85 85 85 85 85 85 85 85 85 85 85 85 85 85 85 85 85 85 85 85 85 85 85 85 85 85 85 85 85 85 85 85 85 85 85 85 85 85 85 85 85 85 85 85 85 85 85 85 85 85 85 85 85 85 85 85 85 85 85 85 85 85 85 85 85 85 85 85 85 85 85 85 85 85 85 85 85 85 85 85 87 92 97 101 106 111 115 120 125 129 134 139 143 148 139 119 98 78 58 66 78 90 103 115 127 140 152 164 112 19 22 25 28 30 34 39 44 49 53 58 63 67 72 76 81 86 90 95 99 -1 -1 -1 -1 -1 -1 -1 -1 -1 -1 -1 -1 -1 -1 -1 -1 -1 -1 -1 -1 -1 -1 -1 -1 -1 -1 -1 -1 -1 -1 -1 -1 -1 -1 -1 -1 -1 -1 -1 -1 -1 -1 -1 -1 -1 -1 -1 -1 -1 -1 -1 -1 -1 -1 -1 -1 -1 -1 -1 -1 -1 -1 -1 -1 -1 -1 -1 -1 -1 -1 -1 -1 -1 -1 -1 -1 -1 -1 -1 -1 -1 -1 -1 -1 -1 -1 -1 -1 -1 -1 -1 -1 -1 -1 -1 -1 -1 -1 -1 -1 -1 -1 -1 -1 -1 -1 -1 -1 -1 -1 -1 -1 -1 -1 -1 -1 -1 -1 -1 -1 -1 -1 -1 -1 -1 -1 -1 -1 -1 -1 -1 -1 -1 -1 -1 -1 -1 -1 -1 -1 -1 -1 -1 -1 -1 -1 -1 -1 -1 -1 -1 -1 -1 -1 -1 -1 -1 -1 -1 -1 
88 88 88 88 88 88 88 88 88 88 88 88 88 88 88 89 89 89 88 88 88 88 88 88 88 88 88 88 88 88 88 88 87 87 87 87 86 86 86 86 85 85 85 85 84 84 84 84 83 83 83 83 82 82 82 81 81 81 81 80 80 80 80 79 79 79 79 78 78 78 78 77 77 77 77 76 76 76 75 76 76 76 77 77 77 78 78 78 79 79 79 80 80 80 81 81 81 82 82 82 83 83 83 84 84 84 85 85 85 86 86 86 87 87 87 87 87 87 114 111 109 108 111 113 116 118 121 123 126 128 131 133 136 138 141 143 146 148 151 153 156 158 161 164 166 169 172 174 177 179 182 185 187 190 193 195 198 201 203 191 171 151 131 111 91 84 84 84 84 84 84 84 84 84 84 84 85 85 85 85 85 85 85 85 85 85 85 85 85 85 85 85 85 85 85 85 85 85 85 85 85 85 85 85 85 85 85 85 85 85 85 85 85 85 85 85 85 85 85 85 85 85 85 85 85 85 85 85 85 85 85 85 85 85 85 85 85 85 85 85 85 85 85 85 85 85 85 85 85 85 85 85 85 85 85 85 85 85 85 85 85 85 85 85 85 85 85 85 85 85 85 86 91 95 100 105 109 114 119 123 128 133 137 142 147 151 137 117 97 77 57 65 78 90 102 114 127 139 151 164 81 20 23 26 28 31 35 40 45 50 55 59 64 68 73 78 82 87 91 96 100 -1 -1 -1 -1 -1 -1 -1 -1 -1 -1 -1 -1 -1 -1 -1 -1 -1 -1 -1 -1 -1 -1 -1 -1 -1 -1 -1 -1 -1 -1 -1 -1 -1 -1 -1 -1 -1 -1 -1 -1 -1 -1 -1 -1 -1 -1 -1 -1 -1 -1 -1 -1 -1 -1 -1 -1 -1 -1 -1 -1 -1 -1 -1 -1 -1 -1 -1 -1 -1 -1 -1 -1 -1 -1 -1 -1 -1 -1 -1 -1 -1 -1 -1 -1 -1 -1 -1 -1 -1 -1 -1 -1 -1 -1 -1 -1 -1 -1 -1 -1 -1 -1 -1 -1 -1 -1 -1 -1 -1 -1 -1 -1 -1 -1 -1 -1 -1 -1 -1 -1 -1 -1 -1 -1 -1 -1 -1 -1 -1 -1 -1 -1 -1 -1 -1 -1 -1 -1 -1 -1 -1 -1 -1 -1 -1 -1 -1 -1 -1 -1 -1 -1 -1 -1 -1 -1 -1 -1 -1 -1 
88 88 88 88 88 88 88 89 89 89 89 89 89 89 89 89 89 89 89 88 88 88 88 88 88 88 88 88 88 88 88 88 88 87 87 87 87 86 86 86 86 85 85 85 85 84 84 84 84 83 83 83 82 82 82 82 81 81 81 81 80 80 80 80 79 79 79 79 78 78 78 78 77 77 77 76 76 76 76 75 75 76 76 76 77 77 77 78 78 78 79 79 79 80 80 80 81 81 81 82 82 82 83 83 83 84 84 84 85 85 85 86 86 86 87 87 87 87 99 98 100 103 105 108 110 113 115 118 120 123 125 128 130 133 135 138 140 143 145 148 150 153 155 158 161 163 166 169 171 174 176 179 182 184 187 190 192 195 197 200 197 176 156 136 116 96 85 85 85 85 85 85 85 85 85 85 85 85 85 85 85 85 85 85 85 85 85 85 85 85 85 85 85 85 85 85 85 85 85 85 85 85 85 85 85 85 85 85 85 85 85 85 85 85 85 85 85 85 85 85 85 85 85 85 85 85 85 85 85 85 85 85 85 85 85 85 85 85 85 85 85 85 85 85 85 85 85 85 85 85 85 85 85 85 85 85 85 85 85 85 85 85 85 85 85 85 85 86 86 86 86 90 94 99 104 108 113 118 122 127 131 136 141 145 150 155 135 115 95 75 55 65 77 89 102 114 126 138 151 143 50 21 24 27 29 32 36 41 46 51 56 60 65 70 74 79 83 88 92 97 102 -1 -1 -1 -1 -1 -1 -1 -1 -1 -1 -1 -1 -1 -1 -1 -1 -1 -1 -1 -1 -1 -1 -1 -1 -1 -1 -1 -1 -1 -1 -1 -1 -1 -1 -1 -1 -1 -1 -1 -1 -1 -1 -1 -1 -1 -1 -1 -1 -1 -1 -1 -1 -1 -1 -1 -1 -1 -1 -1 -1 -1 -1 -1 -1 -1 -1 -1 -1 -1 -1 -1 -1 -1 -1 -1 -1 -1 -1 -1 -1 -1 -1 -1 -1 -1 -1 -1 -1 -1 -1 -1 -1 -1 -1 -1 -1 -1 -1 -1 -1 -1 -1 -1 -1 -1 -1 -1 -1 -1 -1 -1 -1 -1 -1 -1 -1 -1 -1 -1 -1 -1 -1 -1 -1 -1 -1 -1 -1 -1 -1 -1 -1 -1 -1 -1 -1 -1 -1 -1 -1 -1 -1 -1 -1 -1 -1 -1 -1 -1 -1 -1 -1 -1 -1 -1 -1 -1 -1 -1 -1 
88 89 89 89 89 89 89 89 89 89 89 89 89 89 89 89 89 89 89 89 88 88 88 88 88 88 88 88 88 88 88 88 88 88 87 87 87 87 86 86 86 86 85 85 85 85 84 84 84 83 83 83 83 82 82 82 82 81 81 81 81 80 80 80 80 79 79 79 79 78 78 78 77 77 77 77 76 76 76 76 75 75 75 76 76 76 77 77 77 78 78 78 79 79 79 80 80 80 81 81 81 82 82 82 83 83 83 84 84 84 85 85 85 86 86 86 87 87 89 92 94 97 99 102 104 107 109 112 114 117 119 122 124 127 129 132 134 137 139 142 145 147 150 152 155 158 160 163 166 168 171 173 176 179 181 184 187 189 192 194 197 200 182 162 141 121 101 85 85 85 85 85 85 85 85 85 85 85 85 85 85 85 85 85 85 85 85 85 85 85 85 85 85 85 85 85 85 85 85 85 85 85 85 85 85 85 85 85 85 85 85 85 85 85 85 85 85 85 85 85 85 85 85 85 85 85 85 85 85 85 85 85 85 85 85 85 85 85 85 85 85 85 85 85 85 85 85 85 85 85 85 85 85 86 86 86 86 86 86 86 86 86 86 86 86 86 86 86 86 86 88 93 98 102 107 112 116 121 126 130 135 140 144 149 154 154 134 114 94 74 53 64 76 89 101 113 126 138 150 112 19 22 25 28 30 33 37 42 47 52 57 62 66 71 75 80 85 89 94 98 103 -1 -1 -1 -1 -1 -1 -1 -1 -1 -1 -1 -1 -1 -1 -1 -1 -1 -1 -1 -1 -1 -1 -1 -1 -1 -1 -1 -1 -1 -1 -1 -1 -1 -1 -1 -1 -1 -1 -1 -1 -1 -1 -1 -1 -1 -1 -1 -1 -1 -1 -1 -1 -1 -1 -1 -1 -1 -1 -1 -1 -1 -1 -1 -1 -1 -1 -1 -1 -1 -1 -1 -1 -1 -1 -1 -1 -1 -1 -1 -1 -1 -1 -1 -1 -1 -1 -1 -1 -1 -1 -1 -1 -1 -1 -1 -1 -1 -1 -1 -1 -1 -1 -1 -1 -1 -1 -1 -1 -1 -1 -1 -1 -1 -1 -1 -1 -1 -1 -1 -1 -1 -1 -1 -1 -1 -1 -1 -1 -1 -1 -1 -1 -1 -1 -1 -1 -1 -1 -1 -1 -1 -1 -1 -1 -1 -1 -1 -1 -1 -1 -1 -1 -1 -1 -1 -1 -1 -1 -1 -1 
88 89 89 89 89 89 89 89 89 89 89 89 89 89 89 89 89 89 89 89 88 88 88 88 88 88 88 88 88 88 88 88 88 88 88 87 87 87 87 86 86 86 86 85 85 85 84 84 84 84 83 83 83 83 82 82 82 82 81 81 81 81 80 80 80 80 79 79 79 78 78 78 78 77 77 77 77 76 76 76 76 75 75 75 75 76 76 76 77 77 77 78 78 78 79 79 79 80 80 80 81 81 81 82 82 82 83 83 83 84 84 84 85 85 85 86 86 94 84 86 89 91 94 96 99 101 104 106 109 111 114 116 119 121 124 126 129 131 134 136 139 142 144 147 149 152 155 157 160 163 165 168 170 173 176 178 181 184 186 189 191 194 197 187 167 147 126 106 86 85 85 85 85 85 85 85 85 85 85 85 85 85 85 85 85 85 85 85 85 85 85 85 85 85 85 85 85 85 85 85 85 85 85 85 85 85 85 85 85 85 85 85 85 85 85 85 85 85 85 85 85 85 85 85 85 85 85 85 85 85 85 85 85 85 85 85 85 85 85 85 86 86 86 86 86 86 86 86 86 86 86 86 86 86 86 86 86 86 86 86 86 86 86 86 86 86 86 86 86 87 92 97 101 106 110 115 120 124 129 134 138 143 148 152 157 152 132 112 92 72 52 64 76 88 100 113 125 137 149 81 20 23 26 28 31 34 38 43 48 53 58 63 67 72 77 81 86 90 95 99 104 -1 -1 -1 -1 -1 -1 -1 -1 -1 -1 -1 -1 -1 -1 -1 -1 -1 -1 -1 -1 -1 -1 -1 -1 -1 -1 -1 -1 -1 -1 -1 -1 -1 -1 -1 -1 -1 -1 -1 -1 -1 -1 -1 -1 -1 -1 -1 -1 -1 -1 -1 -1 -1 -1 -1 -1 -1 -1 -1 -1 -1 -1 -1 -1 -1 -1 -1 -1 -1 -1 -1 -1 -1 -1 -1 -1 -1 -1 -1 -1 -1 -1 -1 -1 -1 -1 -1 -1 -1 -1 -1 -1 -1 -1 -1 -1 -1 -1 -1 -1 -1 -1 -1 -1 -1 -1 -1 -1 -1 -1 -1 -1 -1 -1 -1 -1 -1 -1 -1 -1 -1 -1 -1 -1 -1 -1 -1 -1 -1 -1 -1 -1 -1 -1 -1 -1 -1 -1 -1 -1 -1 -1 -1 -1 -1 -1 -1 -1 -1 -1 -1 -1 -1 -1 -1 -1 -1 -1 -1 -1 
88 89 89 89 89 89 89 89 89 89 89 89 89 89 89 89 89 89 89 89 89 88 88 88 88 88 88 88 88 88 88 88 88 88 88 88 87 87 87 87 86 86 86 85 85 85 85 84 84 84 84 83 83 83 83 82 82 82 82 81 81 81 81 80 80 80 79 79 79 79 78 78 78 78 77 77 77 77 76 76 76 76 75 75 75 75 75 76 76 76 77 77 77 78 78 78 79 79 79 80 80 80 81 81 81 82 82 82 83 83 83 84 84 84 85 85 85 102 88 81 83 86 88 91 93 96 98 101 103 106 108 110 113 115 118 120 123 125 128 131 133 136 138 141 144 146 149 152 154 157 159 162 165 167 170 173 175 178 181 183 186 188 191 194 192 172 152 132 112 91 85 85 85 85 85 85 85 85 85 85 85 85 85 85 85 85 85 85 85 85 85 85 85 85 85 85 85 85 85 85 85 85 85 85 85 85 85 85 85 85 85 85 85 85 85 85 85 85 85 85 85 85 85 85 85 85 86 86 86 86 86 86 86 86 86 86 86 86 86 86 86 86 86 86 86 86 86 86 86 86 86 86 86 86 86 86 86 86 86 86 86 86 86 86 86 86 86 86 86 91 95 100 105 109 114 119 123 128 133 137 142 147 151 156 161 151 131 110 90 70 51 63 75 88 100 112 124 137 143 50 21 24 27 29 32 35 40 45 49 54 59 64 69 73 78 82 87 92 96 101 105 -1 -1 -1 -1 -1 -1 -1 -1 -1 -1 -1 -1 -1 -1 -1 -1 -1 -1 -1 -1 -1 -1 -1 -1 -1 -1 -1 -1 -1 -1 -1 -1 -1 -1 -1 -1 -1 -1 -1 -1 -1 -1 -1 -1 -1 -1 -1 -1 -1 -1 -1 -1 -1 -1 -1 -1 -1 -1 -1 -1 -1 -1 -1 -1 -1 -1 -1 -1 -1 -1 -1 -1 -1 -1 -1 -1 -1 -1 -1 -1 -1 -1 -1 -1 -1 -1 -1 -1 -1 -1 -1 -1 -1 -1 -1 -1 -1 -1 -1 -1 -1 -1 -1 -1 -1 -1 -1 -1 -1 -1 -1 -1 -1 -1 -1 -1 -1 -1 -1 -1 -1 -1 -1 -1 -1 -1 -1 -1 -1 -1 -1 -1 -1 -1 -1 -1 -1 -1 -1 -1 -1 -1 -1 -1 -1 -1 -1 -1 -1 -1 -1 -1 -1 -1 -1 -1 -1 -1 -1 -1 
88 89 89 89 89 89 89 89 89 89 89 89 89 89 89 89 89 89 89 89 89 89 88 88 88 88 88 88 88 88 88 88 88 88 88 88 88 87 87 87 86 86 86 86 85 85 85 85 84 84 84 84 83 83 83 83 82 82 82 82 81 81 81 80 80 80 80 79 79 79 79 78 78 78 78 77 77 77 77 76 76 76 76 75 75 75 75 75 75 76 76 76 77 77 77 78 78 78 79 79 79 80 80 80 81 81 81 82 82 82 83 83 83 84 84 84 114 109 95 81 77 80 82 85 87 90 92 95 97 100 102 105 107 110 112 115 117 120 122 125 128 130 133 135 138 141 143 146 149 151 154 156 159 162 164 167 170 172 175 177 180 183 185 188 191 193 177 157 137 117 97 85 85 85 85 85 85 85 85 85 85 85 85 85 85 85 85 85 85 85 85 85 85 85 85 85 85 85 85 85 85 85 85 85 85 85 85 85 85 85 85 85 85 86 86 86 86 86 86 86 86 86 86 86 86 86 86 86 86 86 86 86 86 86 86 86 86 86 86 86 86 86 86 86 86 86 86 86 86 86 86 86 86 86 86 86 86 86 86 86 86 86 86 86 86 86 86 86 89 94 99 103 108 113 117 122 127 131 136 141 145 150 155 159 164 149 129 109 89 69 50 62 75 87 99 111 124 136 112 19 22 25 28 30 33 36 41 46 51 56 61 65 70 74 79 84 88 93 97 102 106 -1 -1 -1 -1 -1 -1 -1 -1 -1 -1 -1 -1 -1 -1 -1 -1 -1 -1 -1 -1 -1 -1 -1 -1 -1 -1 -1 -1 -1 -1 -1 -1 -1 -1 -1 -1 -1 -1 -1 -1 -1 -1 -1 -1 -1 -1 -1 -1 -1 -1 -1 -1 -1 -1 -1 -1 -1 -1 -1 -1 -1 -1 -1 -1 -1 -1 -1 -1 -1 -1 -1 -1 -1 -1 -1 -1 -1 -1 -1 -1 -1 -1 -1 -1 -1 -1 -1 -1 -1 -1 -1 -1 -1 -1 -1 -1 -1 -1 -1 -1 -1 -1 -1 -1 -1 -1 -1 -1 -1 -1 -1 -1 -1 -1 -1 -1 -1 -1 -1 -1 -1 -1 -1 -1 -1 -1 -1 -1 -1 -1 -1 -1 -1 -1 -1 -1 -1 -1 -1 -1 -1 -1 -1 -1 -1 -1 -1 -1 -1 -1 -1 -1 -1 -1 -1 -1 -1 -1 -1 -1 
88 89 89 89 89 89 89 89 89 89 89 89 89 89 89 89 89 89 89 89 89 89 89 88 88 88 88 88 88 88 88 88 88 88 88 88 88 87 87 87 87 86 86 86 86 85 85 85 85 84 84 84 84 83 83 83 83 82 82 82 81 81 81 81 80 80 80 80 79 79 79 79 78 78 78 78 77 77 77 77 76 76 76 75 75 75 75 74 75 75 75 76 76 76 77 77 77 78 78 78 79 79 79 80 80 80 81 81 81 82 82 82 83 83 83 84 131 117 103 89 75 74 77 79 82 84 87 89 92 94 97 99 102 104 107 109 112 114 117 119 122 125 127 130 132 135 138 140 143 146 148 151 153 156 159 161 164 167 169 172 174 177 180 182 185 188 190 182 162 142 122 102 85 85 85 85 85 85 85 85 85 85 85 85 85 85 85 85 85 85 85 85 85 85 85 85 85 85 85 85 86 86 86 86 86 86 86 86 86 86 86 86 86 86 86 86 86 86 86 86 86 86 86 86 86 86 86 86 86 86 86 86 86 86 86 86 86 86 86 86 86 86 86 86 86 86 86 86 86 86 86 86 86 86 86 86 86 86 86 86 86 86 86 86 86 86 86 88 93 98 102 107 112 116 121 126 130 135 140 144 149 154 158 163 168 147 127 107 87 67 50 62 74 86 99 111 123 135 81 20 23 26 29 31 34 37 42 47 52 57 62 66 71 76 80 85 89 94 98 103 108 -1 -1 -1 -1 -1 -1 -1 -1 -1 -1 -1 -1 -1 -1 -1 -1 -1 -1 -1 -1 -1 -1 -1 -1 -1 -1 -1 -1 -1 -1 -1 -1 -1 -1 -1 -1 -1 -1 -1 -1 -1 -1 -1 -1 -1 -1 -1 -1 -1 -1 -1 -1 -1 -1 -1 -1 -1 -1 -1 -1 -1 -1 -1 -1 -1 -1 -1 -1 -1 -1 -1 -1 -1 -1 -1 -1 -1 -1 -1 -1 -1 -1 -1 -1 -1 -1 -1 -1 -1 -1 -1 -1 -1 -1 -1 -1 -1 -1 -1 -1 -1 -1 -1 -1 -1 -1 -1 -1 -1 -1 -1 -1 -1 -1 -1 -1 -1 -1 -1 -1 -1 -1 -1 -1 -1 -1 -1 -1 -1 -1 -1 -1 -1 -1 -1 -1 -1 -1 -1 -1 -1 -1 -1 -1 -1 -1 -1 -1 -1 -1 -1 -1 -1 -1 -1 -1 -1 -1 -1 -1 
88 89 89 89 89 89 89 89 89 89 89 89 89 89 89 89 89 89 89 89 89 89 89 88 88 88 88 88 88 88 88 88 88 88 88 88 88 88 87 87 87 87 86 86 86 86 85 85 85 85 84 84 84 84 83 83 83 82 82 82 82 81 81 81 81 80 80 80 80 79 79 79 79 78 78 78 78 77 77 77 76 76 76 76 75 75 75 75 74 74 75 75 75 76 76 76 77 77 77 78 78 78 79 79 79 80 80 80 81 81 81 82 82 82 83 95 138 124 110 96 82 69 71 73 76 78 81 83 86 88 91 93 96 98 101 103 106 108 111 114 116 119 122 124 127 129 132 135 137 140 143 145 148 150 153 156 158 161 164 166 169 171 174 177 179 182 185 187 188 168 147 127 107 87 85 85 85 85 85 85 85 85 85 85 85 85 86 86 86 86 86 86 86 86 86 86 86 86 86 86 86 86 86 86 86 86 86 86 86 86 86 86 86 86 86 86 86 86 86 86 86 86 86 86 86 86 86 86 86 86 86 86 86 86 86 86 86 86 86 86 86 86 86 86 86 86 86 86 86 86 86 86 86 86 86 86 86 86 86 86 86 86 86 86 86 86 87 92 96 101 106 110 115 120 124 129 134 138 143 148 152 157 162 166 166 146 126 106 86 65 49 61 73 86 98 110 123 135 50 21 24 27 29 32 35 38 43 48 53 58 63 68 72 77 81 86 91 95 100 104 109 -1 -1 -1 -1 -1 -1 -1 -1 -1 -1 -1 -1 -1 -1 -1 -1 -1 -1 -1 -1 -1 -1 -1 -1 -1 -1 -1 -1 -1 -1 -1 -1 -1 -1 -1 -1 -1 -1 -1 -1 -1 -1 -1 -1 -1 -1 -1 -1 -1 -1 -1 -1 -1 -1 -1 -1 -1 -1 -1 -1 -1 -1 -1 -1 -1 -1 -1 -1 -1 -1 -1 -1 -1 -1 -1 -1 -1 -1 -1 -1 -1 -1 -1 -1 -1 -1 -1 -1 -1 -1 -1 -1 -1 -1 -1 -1 -1 -1 -1 -1 -1 -1 -1 -1 -1 -1 -1 -1 -1 -1 -1 -1 -1 -1 -1 -1 -1 -1 -1 -1 -1 -1 -1 -1 -1 -1 -1 -1 -1 -1 -1 -1 -1 -1 -1 -1 -1 -1 -1 -1 -1 -1 -1 -1 -1 -1 -1 -1 -1 -1 -1 -1 -1 -1 -1 -1 -1 -1 -1 -1 
89 89 89 89 89 89 89 89 89 89 89 89 89 89 89 89 89 89 89 89 89 89 89 89 89 89 89 88 88 88 88 88 88 88 88 88 88 88 88 87 87 87 87 86 86 86 86 85 85 85 85 84 84 84 83 83 83 83 82 82 82 82 81 81 81 81 80 80 80 80 79 79 79 79 78 78 78 77 77 77 77 76 76 76 76 75 75 75 75 74 74 74 75 75 75 76 76 76 77 77 77 78 78 78 79 79 79 80 80 80 81 81 81 82 82 141 146 132 118 104 90 76 65 68 70 73 75 78 80 83 85 88 90 93 95 98 100 103 105 108 111 113 116 118 121 124 126 129 132 134 137 139 142 145 147 150 153 155 158 161 163 166 168 171 174 176 179 182 184 187 173 153 133 112 92 86 86 86 86 86 86 86 86 86 86 86 86 86 86 86 86 86 86 86 86 86 86 86 86 86 86 86 86 86 86 86 86 86 86 86 86 86 86 86 86 86 86 86 86 86 86 86 86 86 86 86 86 86 86 86 86 86 86 86 86 86 86 86 86 86 86 86 86 86 86 86 86 86 86 86 86 86 86 86 86 86 86 86 86 86 86 86 86 86 86 86 91 95 100 105 109 114 119 123 128 133 137 142 146 151 156 160 165 170 164 144 124 104 84 64 48 61 73 85 97 110 122 112 20 22 25 28 30 33 36 39 44 49 54 59 64 69 73 78 83 87 92 96 101 105 110 -1 -1 -1 -1 -1 -1 -1 -1 -1 -1 -1 -1 -1 -1 -1 -1 -1 -1 -1 -1 -1 -1 -1 -1 -1 -1 -1 -1 -1 -1 -1 -1 -1 -1 -1 -1 -1 -1 -1 -1 -1 -1 -1 -1 -1 -1 -1 -1 -1 -1 -1 -1 -1 -1 -1 -1 -1 -1 -1 -1 -1 -1 -1 -1 -1 -1 -1 -1 -1 -1 -1 -1 -1 -1 -1 -1 -1 -1 -1 -1 -1 -1 -1 -1 -1 -1 -1 -1 -1 -1 -1 -1 -1 -1 -1 -1 -1 -1 -1 -1 -1 -1 -1 -1 -1 -1 -1 -1 -1 -1 -1 -1 -1 -1 -1 -1 -1 -1 -1 -1 -1 -1 -1 -1 -1 -1 -1 -1 -1 -1 -1 -1 -1 -1 -1 -1 -1 -1 -1 -1 -1 -1 -1 -1 -1 -1 -1 -1 -1 -1 -1 -1 -1 -1 -1 -1 -1 -1 -1 -1 
89 89 89 89 89 89 89 89 89 89 89 89 89 89 89 89 89 89 89 89 89 89 89 89 89 89 89 89 89 89 89 89 88 88 88 88 88 88 88 88 87 87 87 87 86 86 86 86 85 85 85 84 84 84 84 83 83 83 83 82 82 82 82 81 81 81 81 80 80 80 80 79 79 79 78 78 78 78 77 77 77 77 76 76 76 76 75 75 75 75 74 74 74 74 75 75 75 76 76 76 77 77 77 78 78 78 79 79 79 80 80 80 81 81 81 167 153 139 125 111 97 83 69 62 65 67 70 72 75 77 80 82 85 87 90 92 94 97 100 102 105 108 110 113 115 118 121 123 126 129 131 134 136 139 142 144 147 150 152 155 157 160 163 165 168 171 173 176 178 181 184 178 158 138 118 98 86 86 86 86 86 86 86 86 86 86 86 86 86 86 86 86 86 86 86 86 86 86 86 86 86 86 86 86 86 86 86 86 86 86 86 86 86 86 86 86 86 86 86 86 86 86 86 86 86 86 86 86 86 86 86 86 86 86 86 86 86 86 86 86 86 86 86 86 86 86 86 86 86 86 86 86 86 86 86 86 86 86 86 86 86 86 86 86 87 89 94 99 103 108 113 117 122 127 131 136 141 145 150 155 159 164 169 173 163 143 122 102 82 62 48 60 72 85 97 109 121 81 20 23 26 29 31 34 37 41 45 50 55 60 65 70 75 79 84 88 93 98 102 107 111 -1 -1 -1 -1 -1 -1 -1 -1 -1 -1 -1 -1 -1 -1 -1 -1 -1 -1 -1 -1 -1 -1 -1 -1 -1 -1 -1 -1 -1 -1 -1 -1 -1 -1 -1 -1 -1 -1 -1 -1 -1 -1 -1 -1 -1 -1 -1 -1 -1 -1 -1 -1 -1 -1 -1 -1 -1 -1 -1 -1 -1 -1 -1 -1 -1 -1 -1 -1 -1 -1 -1 -1 -1 -1 -1 -1 -1 -1 -1 -1 -1 -1 -1 -1 -1 -1 -1 -1 -1 -1 -1 -1 -1 -1 -1 -1 -1 -1 -1 -1 -1 -1 -1 -1 -1 -1 -1 -1 -1 -1 -1 -1 -1 -1 -1 -1 -1 -1 -1 -1 -1 -1 -1 -1 -1 -1 -1 -1 -1 -1 -1 -1 -1 -1 -1 -1 -1 -1 -1 -1 -1 -1 -1 -1 -1 -1 -1 -1 -1 -1 -1 -1 -1 -1 -1 -1 -1 -1 -1 -1 
89 89 89 89 89 89 89 89 89 89 89 89 89 89 89 89 89 89 89 89 89 89 89 89 89 89 89 89 89 89 89 89 89 89 89 89 88 88 88 88 88 87 87 87 87 86 86 86 85 85 85 85 84 84 84 84 83 83 83 83 82 82 82 82 81 81 81 81 80 80 80 79 79 79 79 78 78 78 78 77 77 77 77 76 76 76 76 75 75 75 75 74 74 74 74 74 75 75 75 76 76 76 77 77 77 78 78 78 79 79 79 80 80 80 122 175 161 147 133 119 105 91 77 63 59 61 64 66 69 71 74 76 79 81 84 86 89 91 94 97 99 102 105 107 110 112 115 118 120 123 126 128 131 133 136 139 141 144 147 149 152 154 157 160 162 165 168 170 173 175 178 181 183 163 143 123 103 86 86 86 86 86 86 86 86 86 86 86 86 86 86 86 86 86 86 86 86 86 86 86 86 86 86 86 86 86 86 86 86 86 86 86 86 86 86 86 86 86 86 86 86 86 86 86 86 86 86 86 86 86 86 86 86 86 86 86 86 86 86 86 86 86 86 86 86 86 86 86 86 86 87 87 87 87 87 87 87 87 87 87 87 87 87 87 88 93 98 102 107 112 116 121 125 130 135 139 144 149 153 158 163 167 172 177 161 141 121 101 81 61 47 59 72 84 96 108 121 50 21 24 27 30 32 35 38 42 47 52 57 61 66 71 76 80 85 90 94 99 103 108 112 -1 -1 -1 -1 -1 -1 -1 -1 -1 -1 -1 -1 -1 -1 -1 -1 -1 -1 -1 -1 -1 -1 -1 -1 -1 -1 -1 -1 -1 -1 -1 -1 -1 -1 -1 -1 -1 -1 -1 -1 -1 -1 -1 -1 -1 -1 -1 -1 -1 -1 -1 -1 -1 -1 -1 -1 -1 -1 -1 -1 -1 -1 -1 -1 -1 -1 -1 -1 -1 -1 -1 -1 -1 -1 -1 -1 -1 -1 -1 -1 -1 -1 -1 -1 -1 -1 -1 -1 -1 -1 -1 -1 -1 -1 -1 -1 -1 -1 -1 -1 -1 -1 -1 -1 -1 -1 -1 -1 -1 -1 -1 -1 -1 -1 -1 -1 -1 -1 -1 -1 -1 -1 -1 -1 -1 -1 -1 -1 -1 -1 -1 -1 -1 -1 -1 -1 -1 -1 -1 -1 -1 -1 -1 -1 -1 -1 -1 -1 -1 -1 -1 -1 -1 -1 -1 -1 -1 -1 -1 -1 
89 89 89 89 89 89 89 89 89 89 89 89 89 89 89 89 89 89 89 89 89 89 89 89 89 89 89 89 89 89 89 89 89 89 89 89 89 89 88 88 88 88 87 87 87 86 86 86 86 85 85 85 85 84 84 84 84 83 83 83 83 82 82 82 82 81 81 81 80 80 80 80 79 79 79 79 78 78 78 78 77 77 77 77 76 76 76 76 75 75 75 75 74 74 74 74 74 74 75 75 75 76 76 76 77 77 77 78 78 78 79 79 79 80 167 182 168 154 140 126 112 98 84 70 56 56 58 61 63 66 68 71 73 76 78 81 83 86 88 91 94 96 99 102 104 107 109 112 115 117 120 123 125 128 130 133 136 138 141 144 146 149 151 154 157 159 162 165 167 170 172 175 178 180 168 148 128 108 88 86 86 86 86 86 86 86 86 86 86 86 86 86 86 86 86 86 86 86 86 86 86 86 86 86 86 86 86 86 86 86 86 86 86 86 86 86 86 86 86 86 86 86 86 86 86 86 86 86 86 86 86 86 86 86 86 86 86 87 87 87 87 87 87 87 87 87 87 87 87 87 87 87 87 87 87 87 87 87 87 87 87 87 87 87 92 96 101 106 110 115 120 124 129 134 138 143 148 152 157 162 166 171 176 179 159 139 119 99 79 59 47 59 71 83 96 108 112 20 22 25 28 30 33 36 39 43 48 53 58 63 68 72 77 82 86 91 95 100 105 109 114 -1 -1 -1 -1 -1 -1 -1 -1 -1 -1 -1 -1 -1 -1 -1 -1 -1 -1 -1 -1 -1 -1 -1 -1 -1 -1 -1 -1 -1 -1 -1 -1 -1 -1 -1 -1 -1 -1 -1 -1 -1 -1 -1 -1 -1 -1 -1 -1 -1 -1 -1 -1 -1 -1 -1 -1 -1 -1 -1 -1 -1 -1 -1 -1 -1 -1 -1 -1 -1 -1 -1 -1 -1 -1 -1 -1 -1 -1 -1 -1 -1 -1 -1 -1 -1 -1 -1 -1 -1 -1 -1 -1 -1 -1 -1 -1 -1 -1 -1 -1 -1 -1 -1 -1 -1 -1 -1 -1 -1 -1 -1 -1 -1 -1 -1 -1 -1 -1 -1 -1 -1 -1 -1 -1 -1 -1 -1 -1 -1 -1 -1 -1 -1 -1 -1 -1 -1 -1 -1 -1 -1 -1 -1 -1 -1 -1 -1 -1 -1 -1 -1 -1 -1 -1 -1 -1 -1 -1 -1 -1 
89 89 89 89 89 89 89 89 89 89 89 89 89 89 89 89 89 89 90 90 90 90 89 89 89 89 89 89 89 89 89 89 89 89 89 89 89 89 89 88 88 88 87 87 87 87 86 86 86 86 85 85 85 85 84 84 84 84 83 83 83 83 82 82 82 81 81 81 81 80 80 80 80 79 79 79 79 78 78 78 78 77 77 77 77 76 76 76 76 75 75 75 74 74 74 74 73 74 74 74 75 75 75 76 76 76 77 77 77 78 78 79 79 102 204 190 176 162 148 134 120 106 92 78 64 50 52 55 57 60 62 65 67 70 72 75 77 80 83 85 88 91 93 96 98 101 104 106 109 112 114 117 119 122 125 127 130 133 135 138 140 143 146 148 151 154 156 159 162 164 167 169 172 175 177 174 154 133 113 93 86 86 86 86 86 86 86 86 86 86 86 86 86 86 86 86 86 86 86 86 86 86 86 86 86 86 86 86 86 86 86 86 86 86 86 86 86 86 86 86 86 86 86 87 87 87 87 87 87 87 87 87 87 87 87 87 87 87 87 87 87 87 87 87 87 87 87 87 87 87 87 87 87 87 87 87 87 87 87 87 87 87 87 91 95 100 104 109 114 118 123 128 132 137 142 146 151 156 160 165 170 174 179 178 158 138 118 97 77 57 46 58 70 83 95 107 81 21 23 26 29 31 34 37 40 44 49 54 59 64 69 74 78 83 87 92 97 101 106 110 115 -1 -1 -1 -1 -1 -1 -1 -1 -1 -1 -1 -1 -1 -1 -1 -1 -1 -1 -1 -1 -1 -1 -1 -1 -1 -1 -1 -1 -1 -1 -1 -1 -1 -1 -1 -1 -1 -1 -1 -1 -1 -1 -1 -1 -1 -1 -1 -1 -1 -1 -1 -1 -1 -1 -1 -1 -1 -1 -1 -1 -1 -1 -1 -1 -1 -1 -1 -1 -1 -1 -1 -1 -1 -1 -1 -1 -1 -1 -1 -1 -1 -1 -1 -1 -1 -1 -1 -1 -1 -1 -1 -1 -1 -1 -1 -1 -1 -1 -1 -1 -1 -1 -1 -1 -1 -1 -1 -1 -1 -1 -1 -1 -1 -1 -1 -1 -1 -1 -1 -1 -1 -1 -1 -1 -1 -1 -1 -1 -1 -1 -1 -1 -1 -1 -1 -1 -1 -1 -1 -1 -1 -1 -1 -1 -1 -1 -1 -1 -1 -1 -1 -1 -1 -1 -1 -1 -1 -1 -1 -1 
89 89 89 89 89 89 89 89 89 89 89 90 90 90 90 90 90 90 90 90 90 90 90 89 89 89 89 89 89 89 89 89 89 89 89 89 89 89 89 88 88 88 88 87 87 87 87 86 86 86 86 85 85 85 85 84 84 84 84 83 83 83 82 82 82 82 81 81 81 81 80 80 80 80 79 79 79 79 78 78 78 78 77 77 77 77 76 76 76 75 75 75 75 74 74 74 74 73 73 74 74 74 75 75 76 76 76 77 77 77 78 78 78 148 211 197 183 169 155 141 127 113 99 85 71 57 47 49 52 54 57 59 62 64 67 69 72 74 77 80 82 85 88 90 93 95 98 101 103 106 109 111 114 116 119 122 124 127 130 132 135 137 140 143 145 148 151 153 156 158 161 164 166 169 172 174 177 159 139 119 98 86 86 86 86 86 86 86 86 86 86 86 86 86 86 86 86 86 86 86 86 86 86 86 86 86 86 86 86 86 87 87 87 87 87 87 87 87 87 87 87 87 87 87 87 87 87 87 87 87 87 87 87 87 87 87 87 87 87 87 87 87 87 87 87 87 87 87 87 87 87 87 87 87 87 87 87 87 87 87 87 87 89 94 99 103 108 113 117 122 127 131 136 141 145 150 155 159 164 169 173 178 182 176 156 136 116 96 76 56 45 58 70 82 94 107 50 21 24 27 30 32 35 38 40 45 50 55 60 65 70 75 79 84 89 93 98 102 107 111 116 -1 -1 -1 -1 -1 -1 -1 -1 -1 -1 -1 -1 -1 -1 -1 -1 -1 -1 -1 -1 -1 -1 -1 -1 -1 -1 -1 -1 -1 -1 -1 -1 -1 -1 -1 -1 -1 -1 -1 -1 -1 -1 -1 -1 -1 -1 -1 -1 -1 -1 -1 -1 -1 -1 -1 -1 -1 -1 -1 -1 -1 -1 -1 -1 -1 -1 -1 -1 -1 -1 -1 -1 -1 -1 -1 -1 -1 -1 -1 -1 -1 -1 -1 -1 -1 -1 -1 -1 -1 -1 -1 -1 -1 -1 -1 -1 -1 -1 -1 -1 -1 -1 -1 -1 -1 -1 -1 -1 -1 -1 -1 -1 -1 -1 -1 -1 -1 -1 -1 -1 -1 -1 -1 -1 -1 -1 -1 -1 -1 -1 -1 -1 -1 -1 -1 -1 -1 -1 -1 -1 -1 -1 -1 -1 -1 -1 -1 -1 -1 -1 -1 -1 -1 -1 -1 -1 -1 -1 -1 -1 
89 89 89 90 90 90 90 90 90 90 90 90 90 90 90 90 90 90 90 90 90 90 90 89 89 89 89 89 89 89 89 89 89 89 89 89 89 89 89 89 88 88 88 88 87 87 87 87 86 86 86 86 85 85 85 85 84 84 84 83 83 83 83 82 82 82 82 81 81 81 81 80 80 80 80 79 79 79 79 78 78 78 78 77 77 77 76 76 76 76 75 75 75 75 74 74 74 74 73 73 74 74 74 75 75 75 76 76 76 77 77 77 83 194 219 205 191 177 163 149 135 121 107 93 79 65 51 44 46 49 51 54 56 59 61 64 66 69 71 74 77 79 82 85 87 90 92 95 98 100 103 106 108 111 113 116 119 121 124 127 129 132 134 137 140 142 145 148 150 153 155 158 161 163 166 169 171 174 164 144 124 104 86 86 86 86 86 86 86 86 86 86 86 86 86 86 87 87 87 87 87 87 87 87 87 87 87 87 87 87 87 87 87 87 87 87 87 87 87 87 87 87 87 87 87 87 87 87 87 87 87 87 87 87 87 87 87 87 87 87 87 87 87 87 87 87 87 87 87 87 87 87 87 87 87 87 87 87 87 87 87 88 93 97 102 107 111 116 121 125 130 135 139 144 149 153 158 163 167 172 177 181 186 175 155 134 114 94 74 54 45 57 69 82 94 106 20 22 25 28 31 33 36 39 41 46 51 56 61 66 71 76 81 85 90 94 99 104 108 113 117 -1 -1 -1 -1 -1 -1 -1 -1 -1 -1 -1 -1 -1 -1 -1 -1 -1 -1 -1 -1 -1 -1 -1 -1 -1 -1 -1 -1 -1 -1 -1 -1 -1 -1 -1 -1 -1 -1 -1 -1 -1 -1 -1 -1 -1 -1 -1 -1 -1 -1 -1 -1 -1 -1 -1 -1 -1 -1 -1 -1 -1 -1 -1 -1 -1 -1 -1 -1 -1 -1 -1 -1 -1 -1 -1 -1 -1 -1 -1 -1 -1 -1 -1 -1 -1 -1 -1 -1 -1 -1 -1 -1 -1 -1 -1 -1 -1 -1 -1 -1 -1 -1 -1 -1 -1 -1 -1 -1 -1 -1 -1 -1 -1 -1 -1 -1 -1 -1 -1 -1 -1 -1 -1 -1 -1 -1 -1 -1 -1 -1 -1 -1 -1 -1 -1 -1 -1 -1 -1 -1 -1 -1 -1 -1 -1 -1 -1 -1 -1 -1 -1 -1 -1 -1 -1 -1 -1 -1 -1 -1 
89 90 90 90 90 90 90 90 90 90 90 90 90 90 90 90 90 90 90 90 90 90 90 90 89 89 89 89 89 89 89 89 89 89 89 89 89 89 89 89 89 88 88 88 88 87 87 87 87 86 86 86 86 85 85 85 85 84 84 84 83 83 83 83 82 82 82 82 81 81 81 81 80 80 80 80 79 79 79 79 78 78 78 77 77 77 77 76 76 76 76 75 75 75 75 74 74 74 74 73 73 73 74 74 74 75 75 75 76 76 76 77 129 240 226 212 198 184 170 156 142 128 114 100 86 72 58 44 40 43 45 48 50 53 55 58 60 63 66 68 71 74 76 79 81 84 87 89 92 95 97 100 103 105 108 110 113 116 118 121 124 126 129 131 134 137 139 142 145 147 150 152 155 158 160 163 166 168 171 169 149 129 109 89 87 87 87 87 87 87 87 87 87 87 87 87 87 87 87 87 87 87 87 87 87 87 87 87 87 87 87 87 87 87 87 87 87 87 87 87 87 87 87 87 87 87 87 87 87 87 87 87 87 87 87 87 87 87 87 87 87 87 87 87 87 87 87 87 87 87 87 87 87 87 87 87 87 87 87 87 87 92 96 101 106 110 115 120 124 129 134 138 143 148 152 157 161 166 171 175 180 185 189 173 153 133 113 93 73 52 44 56 69 81 93 81 21 23 26 29 31 34 37 40 43 48 53 57 62 67 72 77 82 86 91 96 100 105 109 114 118 -1 -1 -1 -1 -1 -1 -1 -1 -1 -1 -1 -1 -1 -1 -1 -1 -1 -1 -1 -1 -1 -1 -1 -1 -1 -1 -1 -1 -1 -1 -1 -1 -1 -1 -1 -1 -1 -1 -1 -1 -1 -1 -1 -1 -1 -1 -1 -1 -1 -1 -1 -1 -1 -1 -1 -1 -1 -1 -1 -1 -1 -1 -1 -1 -1 -1 -1 -1 -1 -1 -1 -1 -1 -1 -1 -1 -1 -1 -1 -1 -1 -1 -1 -1 -1 -1 -1 -1 -1 -1 -1 -1 -1 -1 -1 -1 -1 -1 -1 -1 -1 -1 -1 -1 -1 -1 -1 -1 -1 -1 -1 -1 -1 -1 -1 -1 -1 -1 -1 -1 -1 -1 -1 -1 -1 -1 -1 -1 -1 -1 -1 -1 -1 -1 -1 -1 -1 -1 -1 -1 -1 -1 -1 -1 -1 -1 -1 -1 -1 -1 -1 -1 -1 -1 -1 -1 -1 -1 -1 -1 
89 90 90 90 90 90 90 90 90 90 90 90 90 90 90 90 90 90 90 90 90 90 90 90 90 89 89 89 89 89 89 89 89 89 89 89 89 89 89 89 89 89 88 88 88 88 87 87 87 87 86 86 86 86 85 85 85 84 84 84 84 83 83 83 83 82 82 82 82 81 81 81 81 80 80 80 80 79 79 79 78 78 78 78 77 77 77 77 76 76 76 76 75 75 75 75 74 74 74 74 73 73 73 73 74 74 74 75 75 75 76 76 175 221 235 222 206 192 178 164 150 136 122 108 94 80 66 52 38 37 40 42 45 47 50 52 55 57 60 63 65 68 71 73 76 78 81 84 86 89 92 94 97 99 102 105 107 110 113 115 118 120 123 126 128 131 134 136 139 142 144 147 149 152 155 157 160 163 165 168 170 154 134 114 94 87 87 87 87 87 87 87 87 87 87 87 87 87 87 87 87 87 87 87 87 87 87 87 87 87 87 87 87 87 87 87 87 87 87 87 87 87 87 87 87 87 87 87 87 87 87 87 87 87 87 87 87 87 87 87 87 87 87 87 87 87 87 87 87 87 87 87 87 87 87 87 87 87 87 87 90 95 100 104 109 114 118 123 128 132 137 142 146 151 156 160 165 170 174 179 184 188 191 171 151 131 111 91 71 51 44 56 68 80 93 51 21 24 27 30 32 35 38 40 44 49 54 59 64 69 73 78 83 88 92 97 101 106 111 115 120 -1 -1 -1 -1 -1 -1 -1 -1 -1 -1 -1 -1 -1 -1 -1 -1 -1 -1 -1 -1 -1 -1 -1 -1 -1 -1 -1 -1 -1 -1 -1 -1 -1 -1 -1 -1 -1 -1 -1 -1 -1 -1 -1 -1 -1 -1 -1 -1 -1 -1 -1 -1 -1 -1 -1 -1 -1 -1 -1 -1 -1 -1 -1 -1 -1 -1 -1 -1 -1 -1 -1 -1 -1 -1 -1 -1 -1 -1 -1 -1 -1 -1 -1 -1 -1 -1 -1 -1 -1 -1 -1 -1 -1 -1 -1 -1 -1 -1 -1 -1 -1 -1 -1 -1 -1 -1 -1 -1 -1 -1 -1 -1 -1 -1 -1 -1 -1 -1 -1 -1 -1 -1 -1 -1 -1 -1 -1 -1 -1 -1 -1 -1 -1 -1 -1 -1 -1 -1 -1 -1 -1 -1 -1 -1 -1 -1 -1 -1 -1 -1 -1 -1 -1 -1 -1 -1 -1 -1 -1 -1 
89 90 90 90 90 90 90 90 90 90 90 90 90 90 90 90 90 90 90 90 90 90 90 90 90 90 89 89 89 89 89 89 89 89 89 89 89 89 89 89 89 89 89 88 88 88 88 87 87 87 87 86 86 86 85 85 85 85 84 84 84 84 83 83 83 83 82 82 82 82 81 81 81 81 80 80 80 79 79 79 79 78 78 78 78 77 77 77 77 76 76 76 76 75 75 75 75 74 74 74 73 73 73 73 73 73 74 74 74 75 75 110 189 202 216 230 221 204 187 171 157 143 129 115 101 87 73 59 45 32 34 36 39 41 44 47 49 52 54 57 60 62 65 68 70 73 75 78 81 83 86 89 91 94 96 99 102 104 107 110 112 115 117 120 123 125 128 131 133 136 138 141 144 146 149 152 154 157 159 162 165 167 160 140 119 99 87 87 87 87 87 87 87 87 87 87 87 87 87 87 87 87 87 87 87 87 87 87 87 87 87 87 87 87 87 87 87 87 87 87 87 87 87 87 87 87 87 87 87 87 87 87 87 87 87 87 87 87 87 87 87 87 87 87 87 87 87 87 87 87 87 87 87 87 87 87 87 87 87 89 94 99 103 108 113 117 122 127 131 136 140 145 150 154 159 164 168 173 178 182 187 192 190 170 150 130 109 89 69 49 43 55 68 80 92 20 22 25 28 31 33 36 39 41 45 50 55 60 65 70 75 80 84 89 93 98 103 107 112 116 121 -1 -1 -1 -1 -1 -1 -1 -1 -1 -1 -1 -1 -1 -1 -1 -1 -1 -1 -1 -1 -1 -1 -1 -1 -1 -1 -1 -1 -1 -1 -1 -1 -1 -1 -1 -1 -1 -1 -1 -1 -1 -1 -1 -1 -1 -1 -1 -1 -1 -1 -1 -1 -1 -1 -1 -1 -1 -1 -1 -1 -1 -1 -1 -1 -1 -1 -1 -1 -1 -1 -1 -1 -1 -1 -1 -1 -1 -1 -1 -1 -1 -1 -1 -1 -1 -1 -1 -1 -1 -1 -1 -1 -1 -1 -1 -1 -1 -1 -1 -1 -1 -1 -1 -1 -1 -1 -1 -1 -1 -1 -1 -1 -1 -1 -1 -1 -1 -1 -1 -1 -1 -1 -1 -1 -1 -1 -1 -1 -1 -1 -1 -1 -1 -1 -1 -1 -1 -1 -1 -1 -1 -1 -1 -1 -1 -1 -1 -1 -1 -1 -1 -1 -1 -1 -1 -1 -1 -1 -1 -1 
89 90 90 90 90 90 90 90 90 90 90 90 90 90 90 90 90 90 90 90 90 90 90 90 90 90 89 89 89 89 89 89 89 89 89 89 89 89 89 89 89 89 89 89 88 88 88 88 87 87 87 86 86 86 86 85 85 85 85 84 84 84 84 83 83 83 83 82 82 82 82 81 81 81 80 80 80 80 79 79 79 79 78 78 78 78 77 77 77 77 76 76 76 76 75 75 75 74 74 74 74 73 73 73 73 73 73 73 74 74 74 156 170 183 197 211 225 220 203 186 169 152 137 123 109 95 81 67 53 39 28 31 33 36 38 41 44 46 49 51 54 57 59 62 65 67 70 72 75 78 80 83 86 88 91 93 96 99 101 104 107 109 112 114 117 120 122 125 128 130 133 135 138 141 143 146 149 151 154 156 159 162 164 165 145 125 105 87 87 87 87 87 87 87 87 87 87 87 87 87 87 87 87 87 87 87 87 87 87 87 87 87 87 87 87 87 87 87 87 87 87 87 87 87 87 87 87 87 87 87 87 87 87 87 87 87 87 87 87 87 87 87 87 87 87 87 87 88 88 88 88 88 88 88 88 88 88 88 88 93 97 102 107 111 116 121 125 130 135 139 144 149 153 158 163 167 172 177 181 186 191 195 188 168 148 128 108 88 68 48 42 55 67 79 81 21 23 26 29 31 34 37 40 42 46 51 56 61 66 71 76 81 85 90 95 99 104 108 113 117 122 -1 -1 -1 -1 -1 -1 -1 -1 -1 -1 -1 -1 -1 -1 -1 -1 -1 -1 -1 -1 -1 -1 -1 -1 -1 -1 -1 -1 -1 -1 -1 -1 -1 -1 -1 -1 -1 -1 -1 -1 -1 -1 -1 -1 -1 -1 -1 -1 -1 -1 -1 -1 -1 -1 -1 -1 -1 -1 -1 -1 -1 -1 -1 -1 -1 -1 -1 -1 -1 -1 -1 -1 -1 -1 -1 -1 -1 -1 -1 -1 -1 -1 -1 -1 -1 -1 -1 -1 -1 -1 -1 -1 -1 -1 -1 -1 -1 -1 -1 -1 -1 -1 -1 -1 -1 -1 -1 -1 -1 -1 -1 -1 -1 -1 -1 -1 -1 -1 -1 -1 -1 -1 -1 -1 -1 -1 -1 -1 -1 -1 -1 -1 -1 -1 -1 -1 -1 -1 -1 -1 -1 -1 -1 -1 -1 -1 -1 -1 -1 -1 -1 -1 -1 -1 -1 -1 -1 -1 -1 -1 
89 90 90 90 90 90 90 90 90 90 90 90 90 90 90 90 90 90 90 90 90 90 90 90 90 90 90 89 89 89 89 89 89 89 89 89 89 89 89 89 89 89 89 89 89 88 88 88 87 87 87 87 86 86 86 86 85 85 85 85 84 84 84 84 83 83 83 83 82 82 82 81 81 81 81 80 80 80 80 79 79 79 79 78 78 78 78 77 77 77 77 76 76 76 75 75 75 75 74 74 74 74 73 73 73 73 72 73 73 73 91 137 151 165 178 192 206 219 219 202 185 168 151 134 118 102 88 74 60 46 32 25 28 30 33 35 38 40 43 46 48 51 54 56 59 61 64 67 69 72 75 77 80 83 85 88 90 93 96 98 101 104 106 109 111 114 117 119 122 125 127 130 132 135 138 140 143 146 148 151 153 156 159 161 164 150 130 110 90 87 87 87 87 87 87 87 87 87 87 87 87 87 87 87 87 87 87 87 87 87 87 87 87 87 87 87 87 87 87 87 87 87 87 87 87 87 87 87 87 87 87 87 87 88 88 88 88 88 88 88 88 88 88 88 88 88 88 88 88 88 88 88 88 88 88 88 88 88 92 96 101 106 110 115 119 124 129 133 138 143 147 152 157 161 166 171 175 180 185 189 194 199 187 167 146 126 106 86 66 46 42 54 66 79 51 22 24 27 30 32 35 38 41 43 47 52 57 62 67 72 77 82 87 91 96 100 105 110 114 119 123 -1 -1 -1 -1 -1 -1 -1 -1 -1 -1 -1 -1 -1 -1 -1 -1 -1 -1 -1 -1 -1 -1 -1 -1 -1 -1 -1 -1 -1 -1 -1 -1 -1 -1 -1 -1 -1 -1 -1 -1 -1 -1 -1 -1 -1 -1 -1 -1 -1 -1 -1 -1 -1 -1 -1 -1 -1 -1 -1 -1 -1 -1 -1 -1 -1 -1 -1 -1 -1 -1 -1 -1 -1 -1 -1 -1 -1 -1 -1 -1 -1 -1 -1 -1 -1 -1 -1 -1 -1 -1 -1 -1 -1 -1 -1 -1 -1 -1 -1 -1 -1 -1 -1 -1 -1 -1 -1 -1 -1 -1 -1 -1 -1 -1 -1 -1 -1 -1 -1 -1 -1 -1 -1 -1 -1 -1 -1 -1 -1 -1 -1 -1 -1 -1 -1 -1 -1 -1 -1 -1 -1 -1 -1 -1 -1 -1 -1 -1 -1 -1 -1 -1 -1 -1 -1 -1 -1 -1 -1 -1 
89 90 90 90 90 90 90 90 90 90 90 90 90 90 90 90 90 90 90 90 90 90 90 90 90 90 90 90 89 89 89 89 89 89 89 89 89 89 89 89 89 89 89 89 89 88 88 88 88 87 87 87 87 86 86 86 86 85 85 85 85 84 84 84 84 83 83 83 82 82 82 82 81 81 81 81 80 80 80 80 79 79 79 79 78 78 78 78 77 77 77 76 76 76 76 75 75 75 75 74 74 74 74 73 73 73 73 72 72 73 105 118 132 146 159 173 187 200 214 218 201 184 167 150 133 116 100 83 68 54 40 26 22 24 27 30 32 35 37 40 43 45 48 51 53 56 58 61 64 66 69 72 74 77 79 82 85 87 90 93 95 98 100 103 106 108 111 114 116 119 122 124 127 129 132 135 137 140 143 145 148 150 153 156 158 161 155 135 115 95 87 87 87 87 87 87 87 87 87 87 87 87 87 87 87 87 87 87 87 87 87 87 87 87 87 87 87 87 87 87 88 88 88 88 88 88 88 88 88 88 88 88 88 88 88 88 88 88 88 88 88 88 88 88 88 88 88 88 88 88 88 88 88 88 88 88 88 90 95 100 104 109 114 118 123 128 132 137 142 146 151 156 160 165 170 174 179 184 188 193 197 202 185 165 145 125 105 85 64 44 41 53 66 78 20 22 25 28 31 33 36 39 41 44 49 53 58 63 68 73 78 83 88 92 97 102 106 111 115 120 124 -1 -1 -1 -1 -1 -1 -1 -1 -1 -1 -1 -1 -1 -1 -1 -1 -1 -1 -1 -1 -1 -1 -1 -1 -1 -1 -1 -1 -1 -1 -1 -1 -1 -1 -1 -1 -1 -1 -1 -1 -1 -1 -1 -1 -1 -1 -1 -1 -1 -1 -1 -1 -1 -1 -1 -1 -1 -1 -1 -1 -1 -1 -1 -1 -1 -1 -1 -1 -1 -1 -1 -1 -1 -1 -1 -1 -1 -1 -1 -1 -1 -1 -1 -1 -1 -1 -1 -1 -1 -1 -1 -1 -1 -1 -1 -1 -1 -1 -1 -1 -1 -1 -1 -1 -1 -1 -1 -1 -1 -1 -1 -1 -1 -1 -1 -1 -1 -1 -1 -1 -1 -1 -1 -1 -1 -1 -1 -1 -1 -1 -1 -1 -1 -1 -1 -1 -1 -1 -1 -1 -1 -1 -1 -1 -1 -1 -1 -1 -1 -1 -1 -1 -1 -1 -1 -1 -1 -1 -1 -1 
90 90 90 90 90 90 90 90 90 90 90 90 90 90 90 90 90 90 90 90 90 90 90 90 90 90 90 90 90 89 89 89 89 89 89 89 89 89 89 89 89 89 89 89 89 89 88 88 88 88 87 87 87 87 86 86 86 86 85 85 85 85 84 84 84 83 83 83 83 82 82 82 82 81 81 81 81 80 80 80 80 79 79 79 79 78 78 78 77 77 77 77 76 76 76 76 75 75 75 75 74 74 74 74 73 73 73 73 72 72 86 99 113 127 141 154 168 182 195 209 217 200 183 166 149 132 115 98 82 65 48 33 19 19 21 24 27 29 32 34 37 40 42 45 48 50 53 55 58 61 63 66 69 71 74 76 79 82 84 87 90 92 95 97 100 103 105 108 111 113 116 118 121 124 126 129 132 134 137 139 142 145 147 150 153 155 158 161 140 120 100 87 87 87 87 87 87 87 87 87 87 87 87 87 87 87 87 88 88 88 88 88 88 88 88 88 88 88 88 88 88 88 88 88 88 88 88 88 88 88 88 88 88 88 88 88 88 88 88 88 88 88 88 88 88 88 88 88 88 88 88 88 88 88 88 88 89 94 98 103 108 112 117 122 126 131 136 140 145 150 154 159 164 168 173 178 182 187 192 196 201 203 183 163 143 123 103 83 63 43 41 53 65 77 21 23 26 29 32 34 37 40 42 45 50 55 60 64 69 74 79 84 89 94 98 103 107 112 117 121 126 -1 -1 -1 -1 -1 -1 -1 -1 -1 -1 -1 -1 -1 -1 -1 -1 -1 -1 -1 -1 -1 -1 -1 -1 -1 -1 -1 -1 -1 -1 -1 -1 -1 -1 -1 -1 -1 -1 -1 -1 -1 -1 -1 -1 -1 -1 -1 -1 -1 -1 -1 -1 -1 -1 -1 -1 -1 -1 -1 -1 -1 -1 -1 -1 -1 -1 -1 -1 -1 -1 -1 -1 -1 -1 -1 -1 -1 -1 -1 -1 -1 -1 -1 -1 -1 -1 -1 -1 -1 -1 -1 -1 -1 -1 -1 -1 -1 -1 -1 -1 -1 -1 -1 -1 -1 -1 -1 -1 -1 -1 -1 -1 -1 -1 -1 -1 -1 -1 -1 -1 -1 -1 -1 -1 -1 -1 -1 -1 -1 -1 -1 -1 -1 -1 -1 -1 -1 -1 -1 -1 -1 -1 -1 -1 -1 -1 -1 -1 -1 -1 -1 -1 -1 -1 -1 -1 -1 -1 -1 -1 
90 90 90 90 90 90 90 90 90 90 90 90 90 90 90 90 90 90 90 90 90 90 90 90 90 90 90 90 90 90 90 90 90 90 89 89 89 89 89 89 89 89 89 89 89 89 89 88 88 88 88 87 87 87 87 86 86 86 86 85 85 85 84 84 84 84 83 83 83 83 82 82 82 82 81 81 81 81 80 80 80 80 79 79 79 78 78 78 78 77 77 77 77 76 76 76 76 75 75 75 75 74 74 74 74 73 73 73 73 73 76 68 94 108 122 135 149 163 176 190 204 216 199 182 165 148 131 114 97 81 64 47 30 13 16 18 21 24 26 29 31 34 37 39 42 45 47 50 52 55 58 60 63 66 68 71 73 76 79 81 84 87 89 92 94 97 100 102 105 108 110 113 115 118 121 123 126 129 131 134 136 139 142 144 147 150 152 155 157 146 125 105 87 88 88 88 88 88 88 88 88 88 88 88 88 88 88 88 88 88 88 88 88 88 88 88 88 88 88 88 88 88 88 88 88 88 88 88 88 88 88 88 88 88 88 88 88 88 88 88 88 88 88 88 88 88 88 88 88 88 88 88 88 88 88 88 93 97 102 107 111 116 121 125 130 135 139 144 149 153 158 163 167 172 176 181 186 190 195 200 204 202 182 162 142 121 101 81 61 41 40 52 65 51 22 24 27 30 32 35 38 41 43 46 51 56 61 66 71 76 80 85 90 95 99 104 109 113 118 122 127 -1 -1 -1 -1 -1 -1 -1 -1 -1 -1 -1 -1 -1 -1 -1 -1 -1 -1 -1 -1 -1 -1 -1 -1 -1 -1 -1 -1 -1 -1 -1 -1 -1 -1 -1 -1 -1 -1 -1 -1 -1 -1 -1 -1 -1 -1 -1 -1 -1 -1 -1 -1 -1 -1 -1 -1 -1 -1 -1 -1 -1 -1 -1 -1 -1 -1 -1 -1 -1 -1 -1 -1 -1 -1 -1 -1 -1 -1 -1 -1 -1 -1 -1 -1 -1 -1 -1 -1 -1 -1 -1 -1 -1 -1 -1 -1 -1 -1 -1 -1 -1 -1 -1 -1 -1 -1 -1 -1 -1 -1 -1 -1 -1 -1 -1 -1 -1 -1 -1 -1 -1 -1 -1 -1 -1 -1 -1 -1 -1 -1 -1 -1 -1 -1 -1 -1 -1 -1 -1 -1 -1 -1 -1 -1 -1 -1 -1 -1 -1 -1 -1 -1 -1 -1 -1 -1 -1 -1 -1 -1 
90 90 90 90 90 90 90 90 90 90 90 90 90 90 90 90 90 90 90 90 90 90 90 90 90 90 90 90 90 90 90 90 90 90 90 90 90 90 90 89 89 89 89 89 89 89 89 89 88 88 88 88 87 87 87 87 86 86 86 85 85 85 85 84 84 84 84 83 83 83 83 82 82 82 82 81 81 81 81 80 80 80 79 79 79 79 78 78 78 78 77 77 77 77 76 76 76 76 75 75 75 75 74 74 74 73 73 74 79 74 83 80 72 64 103 116 130 144 158 171 185 199 212 198 181 164 147 130 113 96 79 63 46 14 15 15 15 18 20 23 26 28 31 34 36 39 41 44 47 49 52 55 57 60 63 65 68 70 73 76 78 81 84 86 89 91 94 97 99 102 105 107 110 112 115 118 120 123 126 128 131 133 136 139 141 144 147 149 152 154 151 131 111 90 88 88 88 88 88 88 88 88 88 88 88 88 88 88 88 88 88 88 88 88 88 88 88 88 88 88 88 88 88 88 88 88 88 88 88 88 88 88 88 88 88 88 88 88 88 88 88 88 88 88 88 88 88 88 88 88 88 88 88 88 88 91 96 101 105 110 115 119 124 129 133 138 143 147 152 157 161 166 171 175 180 185 189 194 199 203 208 200 180 160 140 120 100 80 60 39 39 52 64 20 23 25 28 31 33 36 39 42 44 47 52 57 62 67 72 77 82 87 91 96 101 105 110 114 119 124 128 -1 -1 -1 -1 -1 -1 -1 -1 -1 -1 -1 -1 -1 -1 -1 -1 -1 -1 -1 -1 -1 -1 -1 -1 -1 -1 -1 -1 -1 -1 -1 -1 -1 -1 -1 -1 -1 -1 -1 -1 -1 -1 -1 -1 -1 -1 -1 -1 -1 -1 -1 -1 -1 -1 -1 -1 -1 -1 -1 -1 -1 -1 -1 -1 -1 -1 -1 -1 -1 -1 -1 -1 -1 -1 -1 -1 -1 -1 -1 -1 -1 -1 -1 -1 -1 -1 -1 -1 -1 -1 -1 -1 -1 -1 -1 -1 -1 -1 -1 -1 -1 -1 -1 -1 -1 -1 -1 -1 -1 -1 -1 -1 -1 -1 -1 -1 -1 -1 -1 -1 -1 -1 -1 -1 -1 -1 -1 -1 -1 -1 -1 -1 -1 -1 -1 -1 -1 -1 -1 -1 -1 -1 -1 -1 -1 -1 -1 -1 -1 -1 -1 -1 -1 -1 -1 -1 -1 -1 -1 -1 
90 90 90 90 90 90 90 90 90 90 90 90 90 90 90 90 90 90 90 90 90 91 91 91 91 91 90 90 90 90 90 90 90 90 90 90 90 90 90 90 90 90 90 89 89 89 89 89 89 88 88 88 88 87 87 87 86 86 86 86 85 85 85 85 84 84 84 84 83 83 83 83 82 82 82 82 81 81 81 80 80 80 80 79 79 79 79 78 78 78 78 77 77 77 77 76 76 76 76 75 75 75 74 74 74 74 75 80 85 75 84 92 84 76 68 60 111 125 139 152 166 180 194 207 196 180 163 146 129 112 95 78 61 15 16 16 17 17 17 18 20 23 25 28 31 33 36 38 41 44 46 49 52 54 57 59 62 65 67 70 73 75 78 80 83 86 88 91 94 96 99 101 104 107 109 112 115 117 120 123 125 128 130 133 136 138 141 144 146 149 151 154 136 116 96 88 88 88 88 88 88 88 88 88 88 88 88 88 88 88 88 88 88 88 88 88 88 88 88 88 88 88 88 88 88 88 88 88 88 88 88 88 88 88 88 88 88 88 88 88 88 88 88 88 88 88 88 88 88 88 88 88 88 88 90 95 100 104 109 114 118 123 128 132 137 142 146 151 155 160 165 169 174 179 183 188 193 197 202 207 211 199 178 158 138 118 98 78 58 38 39 51 63 21 23 26 29 32 34 37 40 42 45 48 53 58 63 68 73 78 83 88 93 97 102 106 111 116 120 125 129 -1 -1 -1 -1 -1 -1 -1 -1 -1 -1 -1 -1 -1 -1 -1 -1 -1 -1 -1 -1 -1 -1 -1 -1 -1 -1 -1 -1 -1 -1 -1 -1 -1 -1 -1 -1 -1 -1 -1 -1 -1 -1 -1 -1 -1 -1 -1 -1 -1 -1 -1 -1 -1 -1 -1 -1 -1 -1 -1 -1 -1 -1 -1 -1 -1 -1 -1 -1 -1 -1 -1 -1 -1 -1 -1 -1 -1 -1 -1 -1 -1 -1 -1 -1 -1 -1 -1 -1 -1 -1 -1 -1 -1 -1 -1 -1 -1 -1 -1 -1 -1 -1 -1 -1 -1 -1 -1 -1 -1 -1 -1 -1 -1 -1 -1 -1 -1 -1 -1 -1 -1 -1 -1 -1 -1 -1 -1 -1 -1 -1 -1 -1 -1 -1 -1 -1 -1 -1 -1 -1 -1 -1 -1 -1 -1 -1 -1 -1 -1 -1 -1 -1 -1 -1 -1 -1 -1 -1 -1 -1 
90 90 90 90 90 90 90 90 90 90 90 90 90 90 91 91 91 91 91 91 91 91 91 91 91 91 91 90 90 90 90 90 90 90 90 90 90 90 90 90 90 90 90 90 90 90 89 89 89 89 88 88 88 87 87 87 87 86 86 86 86 85 85 85 85 84 84 84 84 83 83 83 83 82 82 82 81 81 81 81 80 80 80 80 79 79 79 79 78 78 78 78 77 77 77 77 76 76 76 75 75 75 75 74 74 76 81 86 90 76 84 95 96 88 80 72 64 56 99 134 147 161 175 188 202 195 179 162 145 128 111 94 16 17 17 18 18 18 19 19 20 20 20 22 25 28 30 33 35 38 41 43 46 49 51 54 56 59 62 64 67 70 72 75 77 80 83 85 88 91 93 96 98 101 104 106 109 112 114 117 119 122 125 127 130 133 135 138 140 143 146 148 151 141 121 101 88 88 88 88 88 88 88 88 88 88 88 88 88 88 88 88 88 88 88 88 88 88 88 88 88 88 88 88 88 88 88 88 88 88 88 88 88 88 88 88 88 88 88 88 88 88 88 88 88 88 88 88 88 88 88 88 88 89 94 98 103 108 112 117 122 126 131 136 140 145 150 154 159 164 168 173 178 182 187 192 196 201 206 210 215 197 177 157 137 117 96 76 56 36 38 50 51 22 24 27 30 33 35 38 41 43 46 49 54 59 64 69 74 79 84 89 94 98 103 108 112 117 121 126 130 -1 -1 -1 -1 -1 -1 -1 -1 -1 -1 -1 -1 -1 -1 -1 -1 -1 -1 -1 -1 -1 -1 -1 -1 -1 -1 -1 -1 -1 -1 -1 -1 -1 -1 -1 -1 -1 -1 -1 -1 -1 -1 -1 -1 -1 -1 -1 -1 -1 -1 -1 -1 -1 -1 -1 -1 -1 -1 -1 -1 -1 -1 -1 -1 -1 -1 -1 -1 -1 -1 -1 -1 -1 -1 -1 -1 -1 -1 -1 -1 -1 -1 -1 -1 -1 -1 -1 -1 -1 -1 -1 -1 -1 -1 -1 -1 -1 -1 -1 -1 -1 -1 -1 -1 -1 -1 -1 -1 -1 -1 -1 -1 -1 -1 -1 -1 -1 -1 -1 -1 -1 -1 -1 -1 -1 -1 -1 -1 -1 -1 -1 -1 -1 -1 -1 -1 -1 -1 -1 -1 -1 -1 -1 -1 -1 -1 -1 -1 -1 -1 -1 -1 -1 -1 -1 -1 -1 -1 -1 -1 
90 90 90 90 90 90 91 91 91 91 91 91 91 91 91 91 91 91 91 91 91 91 91 91 91 91 91 90 90 90 90 90 90 90 90 90 90 90 90 90 90 90 90 90 90 90 90 89 89 89 88 88 88 88 87 87 87 87 86 86 86 86 85 85 85 85 84 84 84 84 83 83 83 82 82 82 82 81 81 81 81 80 80 80 80 79 79 79 79 78 78 78 78 77 77 77 76 76 76 76 75 75 75 75 78 82 87 92 91 77 84 95 106 100 92 84 76 68 60 52 86 142 156 170 183 197 194 177 161 144 127 110 18 18 18 19 19 20 20 20 21 21 22 22 22 23 25 27 30 32 35 38 40 43 46 48 51 53 56 59 61 64 67 69 72 74 77 80 82 85 88 90 93 95 98 101 103 106 109 111 114 116 119 122 124 127 130 132 135 137 140 143 145 148 146 126 106 88 88 88 88 88 88 88 88 88 88 88 88 88 88 88 88 88 88 88 88 88 88 88 88 88 88 88 88 88 88 88 88 88 88 88 88 88 88 88 88 88 88 88 88 88 88 88 89 89 89 89 89 89 89 89 89 93 97 102 107 111 116 121 125 130 134 139 144 148 153 158 162 167 172 176 181 186 190 195 200 204 209 214 215 195 175 155 135 115 95 75 55 35 38 50 20 23 25 28 31 33 36 39 42 44 47 51 56 60 65 70 75 80 85 90 95 100 104 109 113 118 123 127 132 -1 -1 -1 -1 -1 -1 -1 -1 -1 -1 -1 -1 -1 -1 -1 -1 -1 -1 -1 -1 -1 -1 -1 -1 -1 -1 -1 -1 -1 -1 -1 -1 -1 -1 -1 -1 -1 -1 -1 -1 -1 -1 -1 -1 -1 -1 -1 -1 -1 -1 -1 -1 -1 -1 -1 -1 -1 -1 -1 -1 -1 -1 -1 -1 -1 -1 -1 -1 -1 -1 -1 -1 -1 -1 -1 -1 -1 -1 -1 -1 -1 -1 -1 -1 -1 -1 -1 -1 -1 -1 -1 -1 -1 -1 -1 -1 -1 -1 -1 -1 -1 -1 -1 -1 -1 -1 -1 -1 -1 -1 -1 -1 -1 -1 -1 -1 -1 -1 -1 -1 -1 -1 -1 -1 -1 -1 -1 -1 -1 -1 -1 -1 -1 -1 -1 -1 -1 -1 -1 -1 -1 -1 -1 -1 -1 -1 -1 -1 -1 -1 -1 -1 -1 -1 -1 -1 -1 -1 -1 -1 
90 90 91 91 91 91 91 91 91 91 91 91 91 91 91 91 91 91 91 91 91 91 91 91 91 91 91 91 90 90 90 90 90 90 90 90 90 90 90 90 90 90 90 90 90 90 90 89 89 89 89 88 88 88 88 87 87 87 87 86 86 86 86 85 85 85 85 84 84 84 83 83 83 83 82 82 82 82 81 81 81 81 80 80 80 80 79 79 79 79 78 78 78 77 77 77 77 76 76 76 76 75 75 79 83 88 93 98 92 78 84 95 106 112 104 96 88 80 72 64 56 47 73 151 164 178 192 193 176 159 143 126 19 19 20 20 20 21 21 22 22 22 23 23 24 24 24 25 25 27 29 32 35 37 40 42 45 48 50 53 56 58 61 64 66 69 71 74 77 79 82 85 87 90 92 95 98 100 103 106 108 111 113 116 119 121 124 127 129 132 134 137 140 142 145 148 132 111 91 88 88 88 88 88 88 88 88 88 88 88 88 88 88 88 88 88 88 88 88 88 88 88 88 88 88 88 88 88 88 88 89 89 89 89 89 89 89 89 89 89 89 89 89 89 89 89 89 89 89 89 89 89 91 96 101 105 110 115 119 124 129 133 138 143 147 152 157 161 166 171 175 180 185 189 194 199 203 208 212 217 214 194 174 154 133 113 93 73 53 33 37 49 21 23 26 29 32 34 37 40 43 45 48 52 57 62 67 72 76 81 86 91 96 101 105 110 115 119 124 128 133 -1 -1 -1 -1 -1 -1 -1 -1 -1 -1 -1 -1 -1 -1 -1 -1 -1 -1 -1 -1 -1 -1 -1 -1 -1 -1 -1 -1 -1 -1 -1 -1 -1 -1 -1 -1 -1 -1 -1 -1 -1 -1 -1 -1 -1 -1 -1 -1 -1 -1 -1 -1 -1 -1 -1 -1 -1 -1 -1 -1 -1 -1 -1 -1 -1 -1 -1 -1 -1 -1 -1 -1 -1 -1 -1 -1 -1 -1 -1 -1 -1 -1 -1 -1 -1 -1 -1 -1 -1 -1 -1 -1 -1 -1 -1 -1 -1 -1 -1 -1 -1 -1 -1 -1 -1 -1 -1 -1 -1 -1 -1 -1 -1 -1 -1 -1 -1 -1 -1 -1 -1 -1 -1 -1 -1 -1 -1 -1 -1 -1 -1 -1 -1 -1 -1 -1 -1 -1 -1 -1 -1 -1 -1 -1 -1 -1 -1 -1 -1 -1 -1 -1 -1 -1 -1 -1 -1 -1 -1 -1 
90 90 91 91 91 91 91 91 91 91 91 91 91 91 91 91 91 91 91 91 91 91 91 91 91 91 91 91 91 90 90 90 90 90 90 90 90 90 90 90 90 90 90 90 90 90 90 90 89 89 89 89 88 88 88 88 87 87 87 87 86 86 86 86 85 85 85 84 84 84 84 83 83 83 83 82 82 82 82 81 81 81 81 80 80 80 80 79 79 79 78 78 78 78 77 77 77 77 76 76 76 76 80 85 89 94 99 103 93 79 85 95 106 117 116 108 100 92 84 76 68 60 51 43 61 138 173 187 192 175 158 20 20 20 21 21 22 22 22 23 23 24 24 24 25 25 26 26 26 27 27 28 29 32 34 37 39 42 45 47 50 53 55 58 60 63 66 68 71 74 76 79 81 84 87 89 92 95 97 100 103 105 108 110 113 116 118 121 124 126 129 131 134 137 139 142 145 137 117 97 88 88 88 88 88 88 88 88 88 88 88 88 88 88 88 88 88 89 89 89 89 89 89 89 89 89 89 89 89 89 89 89 89 89 89 89 89 89 89 89 89 89 89 89 89 89 89 89 89 89 89 90 95 100 104 109 113 118 123 127 132 137 141 146 151 155 160 165 169 174 179 183 188 193 197 202 207 211 216 221 212 192 172 152 132 112 92 72 51 31 36 49 22 24 27 30 33 35 38 41 43 46 49 53 58 63 68 73 78 83 88 92 97 102 107 111 116 120 125 130 134 -1 -1 -1 -1 -1 -1 -1 -1 -1 -1 -1 -1 -1 -1 -1 -1 -1 -1 -1 -1 -1 -1 -1 -1 -1 -1 -1 -1 -1 -1 -1 -1 -1 -1 -1 -1 -1 -1 -1 -1 -1 -1 -1 -1 -1 -1 -1 -1 -1 -1 -1 -1 -1 -1 -1 -1 -1 -1 -1 -1 -1 -1 -1 -1 -1 -1 -1 -1 -1 -1 -1 -1 -1 -1 -1 -1 -1 -1 -1 -1 -1 -1 -1 -1 -1 -1 -1 -1 -1 -1 -1 -1 -1 -1 -1 -1 -1 -1 -1 -1 -1 -1 -1 -1 -1 -1 -1 -1 -1 -1 -1 -1 -1 -1 -1 -1 -1 -1 -1 -1 -1 -1 -1 -1 -1 -1 -1 -1 -1 -1 -1 -1 -1 -1 -1 -1 -1 -1 -1 -1 -1 -1 -1 -1 -1 -1 -1 -1 -1 -1 -1 -1 -1 -1 -1 -1 -1 -1 -1 -1 
90 91 91 91 91 91 91 91 91 91 91 91 91 91 91 91 91 91 91 91 91 91 91 91 91 91 91 91 91 91 90 90 90 90 90 90 90 90 90 90 90 90 90 90 90 90 90 90 90 89 89 89 89 88 88 88 88 87 87 87 87 86 86 86 85 85 85 85 84 84 84 84 83 83 83 83 82 82 82 82 81 81 81 81 80 80 80 79 79 79 79 78 78 78 78 77 77 77 77 76 76 81 86 90 95 100 104 108 94 79 85 96 107 117 128 120 112 104 96 88 80 72 64 55 47 39 48 125 181 191 174 21 21 22 22 22 23 23 24 24 24 25 25 26 26 26 27 27 28 28 28 29 29 30 30 31 34 36 39 42 44 47 50 52 55 57 60 63 65 68 71 73 76 78 81 84 86 89 92 94 97 99 102 105 107 110 113 115 118 120 123 126 128 131 134 136 139 142 142 122 102 88 88 89 89 89 89 89 89 89 89 89 89 89 89 89 89 89 89 89 89 89 89 89 89 89 89 89 89 89 89 89 89 89 89 89 89 89 89 89 89 89 89 89 89 89 89 89 89 89 89 94 98 103 108 112 117 122 126 131 136 140 145 150 154 159 164 168 173 178 182 187 191 196 201 205 210 215 219 224 211 190 170 150 130 110 90 70 50 30 36 20 23 25 28 31 33 36 39 42 44 47 50 54 59 64 69 74 79 84 89 94 99 103 108 112 117 122 126 131 135 -1 -1 -1 -1 -1 -1 -1 -1 -1 -1 -1 -1 -1 -1 -1 -1 -1 -1 -1 -1 -1 -1 -1 -1 -1 -1 -1 -1 -1 -1 -1 -1 -1 -1 -1 -1 -1 -1 -1 -1 -1 -1 -1 -1 -1 -1 -1 -1 -1 -1 -1 -1 -1 -1 -1 -1 -1 -1 -1 -1 -1 -1 -1 -1 -1 -1 -1 -1 -1 -1 -1 -1 -1 -1 -1 -1 -1 -1 -1 -1 -1 -1 -1 -1 -1 -1 -1 -1 -1 -1 -1 -1 -1 -1 -1 -1 -1 -1 -1 -1 -1 -1 -1 -1 -1 -1 -1 -1 -1 -1 -1 -1 -1 -1 -1 -1 -1 -1 -1 -1 -1 -1 -1 -1 -1 -1 -1 -1 -1 -1 -1 -1 -1 -1 -1 -1 -1 -1 -1 -1 -1 -1 -1 -1 -1 -1 -1 -1 -1 -1 -1 -1 -1 -1 -1 -1 -1 -1 -1 -1 
90 91 91 91 91 91 91 91 91 91 91 91 91 91 91 91 91 91 91 91 91 91 91 91 91 91 91 91 91 91 90 90 90 90 90 90 90 90 90 90 90 90 90 90 90 90 90 90 90 90 89 89 89 89 88 88 88 88 87 87 87 86 86 86 86 85 85 85 85 84 84 84 84 83 83 83 83 82 82 82 82 81 81 81 80 80 80 80 79 79 79 79 78 78 78 78 77 77 77 77 82 87 91 96 101 106 110 109 95 80 85 96 107 118 129 132 124 116 108 100 92 84 76 68 59 51 43 35 36 113 190 22 23 23 23 24 24 25 25 25 26 26 27 27 27 28 28 28 29 29 30 30 30 31 31 32 32 32 33 36 39 41 44 47 49 52 54 57 60 62 65 68 70 73 75 78 81 83 86 89 91 94 96 99 102 104 107 110 112 115 117 120 123 125 128 131 133 136 138 141 127 107 89 89 89 89 89 89 89 89 89 89 89 89 89 89 89 89 89 89 89 89 89 89 89 89 89 89 89 89 89 89 89 89 89 89 89 89 89 89 89 89 89 89 89 89 89 89 89 89 92 97 102 106 111 116 120 125 130 134 139 144 148 153 158 162 167 172 176 181 186 190 195 200 204 209 214 218 223 228 209 189 169 149 129 108 88 68 48 28 35 21 24 26 29 32 34 37 40 43 45 48 51 55 60 65 70 75 80 85 90 95 100 104 109 114 118 123 127 132 136 -1 -1 -1 -1 -1 -1 -1 -1 -1 -1 -1 -1 -1 -1 -1 -1 -1 -1 -1 -1 -1 -1 -1 -1 -1 -1 -1 -1 -1 -1 -1 -1 -1 -1 -1 -1 -1 -1 -1 -1 -1 -1 -1 -1 -1 -1 -1 -1 -1 -1 -1 -1 -1 -1 -1 -1 -1 -1 -1 -1 -1 -1 -1 -1 -1 -1 -1 -1 -1 -1 -1 -1 -1 -1 -1 -1 -1 -1 -1 -1 -1 -1 -1 -1 -1 -1 -1 -1 -1 -1 -1 -1 -1 -1 -1 -1 -1 -1 -1 -1 -1 -1 -1 -1 -1 -1 -1 -1 -1 -1 -1 -1 -1 -1 -1 -1 -1 -1 -1 -1 -1 -1 -1 -1 -1 -1 -1 -1 -1 -1 -1 -1 -1 -1 -1 -1 -1 -1 -1 -1 -1 -1 -1 -1 -1 -1 -1 -1 -1 -1 -1 -1 -1 -1 -1 -1 -1 -1 -1 -1 
90 91 91 91 91 91 91 91 91 91 91 91 91 91 91 91 91 91 91 91 91 91 91 91 91 91 91 91 91 91 91 90 90 90 90 90 90 90 90 90 90 90 90 90 90 90 90 90 90 90 90 89 89 89 89 88 88 88 87 87 87 87 86 86 86 86 85 85 85 85 84 84 84 84 83 83 83 83 82 82 82 81 81 81 81 80 80 80 80 79 79 79 79 78 78 78 78 77 78 83 88 93 97 102 107 111 116 110 96 81 85 96 107 118 129 140 136 128 120 112 104 96 88 80 72 63 55 47 39 31 23 23 24 24 25 25 25 26 26 27 27 27 28 28 29 29 29 30 30 31 31 31 32 32 33 33 33 34 34 34 35 36 38 41 44 46 49 51 54 57 59 62 65 67 70 72 75 78 80 83 86 88 91 93 96 99 101 104 107 109 112 114 117 120 122 125 128 130 133 135 138 132 112 92 89 89 89 89 89 89 89 89 89 89 89 89 89 89 89 89 89 89 89 89 89 89 89 89 89 89 89 89 89 89 89 89 89 89 89 89 89 89 89 89 89 89 89 89 89 91 96 101 105 110 115 119 124 129 133 138 143 147 152 157 161 166 170 175 180 184 189 194 198 203 208 212 217 222 226 227 207 187 167 147 127 107 87 67 47 26 35 22 24 27 30 33 35 38 41 43 46 49 52 56 61 66 71 76 81 86 91 96 101 106 110 115 119 124 129 133 138 -1 -1 -1 -1 -1 -1 -1 -1 -1 -1 -1 -1 -1 -1 -1 -1 -1 -1 -1 -1 -1 -1 -1 -1 -1 -1 -1 -1 -1 -1 -1 -1 -1 -1 -1 -1 -1 -1 -1 -1 -1 -1 -1 -1 -1 -1 -1 -1 -1 -1 -1 -1 -1 -1 -1 -1 -1 -1 -1 -1 -1 -1 -1 -1 -1 -1 -1 -1 -1 -1 -1 -1 -1 -1 -1 -1 -1 -1 -1 -1 -1 -1 -1 -1 -1 -1 -1 -1 -1 -1 -1 -1 -1 -1 -1 -1 -1 -1 -1 -1 -1 -1 -1 -1 -1 -1 -1 -1 -1 -1 -1 -1 -1 -1 -1 -1 -1 -1 -1 -1 -1 -1 -1 -1 -1 -1 -1 -1 -1 -1 -1 -1 -1 -1 -1 -1 -1 -1 -1 -1 -1 -1 -1 -1 -1 -1 -1 -1 -1 -1 -1 -1 -1 -1 -1 -1 -1 -1 -1 -1 
90 91 91 91 91 91 91 91 91 91 91 91 91 91 91 91 91 91 91 91 91 91 91 91 91 91 91 91 91 91 91 91 90 90 90 90 90 90 90 90 90 90 90 90 90 90 90 90 90 90 90 90 89 89 89 88 88 88 88 87 87 87 87 86 86 86 86 85 85 85 85 84 84 84 84 83 83 83 82 82 82 82 81 81 81 81 80 80 80 80 79 79 79 79 78 78 78 80 84 89 94 98 103 108 113 117 122 111 97 82 86 96 107 118 129 140 148 140 132 124 116 108 100 92 84 76 67 59 51 43 31 25 25 26 26 26 27 27 27 28 28 29 29 29 30 30 31 31 31 32 32 33 33 33 34 34 35 35 35 36 36 37 37 37 38 40 43 46 48 51 54 56 59 61 64 67 69 72 75 77 80 83 85 88 90 93 96 98 101 104 106 109 111 114 117 119 122 125 127 130 132 135 138 118 97 89 89 89 89 89 89 89 89 89 89 89 89 89 89 89 89 89 89 89 89 89 89 89 89 89 89 89 89 89 89 89 89 89 89 89 89 89 89 89 89 89 89 89 90 95 99 104 109 113 118 123 127 132 137 141 146 151 155 160 165 169 174 179 183 188 193 197 202 207 211 216 221 225 230 226 206 186 166 145 125 105 85 65 45 25 20 23 25 28 31 34 36 39 42 44 47 50 53 58 63 68 72 77 82 87 92 97 102 107 111 116 121 125 130 134 139 -1 -1 -1 -1 -1 -1 -1 -1 -1 -1 -1 -1 -1 -1 -1 -1 -1 -1 -1 -1 -1 -1 -1 -1 -1 -1 -1 -1 -1 -1 -1 -1 -1 -1 -1 -1 -1 -1 -1 -1 -1 -1 -1 -1 -1 -1 -1 -1 -1 -1 -1 -1 -1 -1 -1 -1 -1 -1 -1 -1 -1 -1 -1 -1 -1 -1 -1 -1 -1 -1 -1 -1 -1 -1 -1 -1 -1 -1 -1 -1 -1 -1 -1 -1 -1 -1 -1 -1 -1 -1 -1 -1 -1 -1 -1 -1 -1 -1 -1 -1 -1 -1 -1 -1 -1 -1 -1 -1 -1 -1 -1 -1 -1 -1 -1 -1 -1 -1 -1 -1 -1 -1 -1 -1 -1 -1 -1 -1 -1 -1 -1 -1 -1 -1 -1 -1 -1 -1 -1 -1 -1 -1 -1 -1 -1 -1 -1 -1 -1 -1 -1 -1 -1 -1 -1 -1 -1 -1 -1 -1 
90 91 91 91 91 91 91 91 91 91 91 91 91 91 91 91 91 91 91 91 91 91 91 91 91 91 91 91 91 91 91 91 91 90 90 90 90 90 90 90 90 90 90 90 90 90 90 90 90 90 90 90 89 89 89 89 88 88 88 88 87 87 87 87 86 86 86 86 85 85 85 85 84 84 84 83 83 83 83 82 82 82 82 81 81 81 81 80 80 80 80 79 79 79 79 78 81 85 90 95 100 104 109 114 118 123 126 112 98 83 86 97 108 118 129 140 151 152 144 136 128 120 112 104 96 88 80 71 63 55 38 27 27 27 28 28 28 28 29 29 29 30 30 31 31 31 32 32 33 33 33 34 34 35 35 35 36 36 37 37 37 38 38 39 39 39 40 40 43 45 48 51 53 56 58 61 64 66 69 72 74 77 79 82 85 87 90 93 95 98 100 103 106 108 111 114 116 119 122 124 127 129 132 135 123 103 89 89 89 89 89 89 89 89 89 89 89 89 89 89 89 89 89 89 89 89 89 89 89 89 89 89 89 89 89 89 89 89 89 89 89 89 89 89 89 89 89 89 94 98 103 108 112 117 122 126 131 136 140 145 149 154 159 163 168 173 177 182 187 191 196 201 205 210 215 219 224 229 233 224 204 184 164 144 124 104 84 63 43 23 21 24 26 29 32 34 37 40 43 45 48 51 54 59 64 69 74 79 84 88 93 98 103 108 113 117 122 126 131 136 140 -1 -1 -1 -1 -1 -1 -1 -1 -1 -1 -1 -1 -1 -1 -1 -1 -1 -1 -1 -1 -1 -1 -1 -1 -1 -1 -1 -1 -1 -1 -1 -1 -1 -1 -1 -1 -1 -1 -1 -1 -1 -1 -1 -1 -1 -1 -1 -1 -1 -1 -1 -1 -1 -1 -1 -1 -1 -1 -1 -1 -1 -1 -1 -1 -1 -1 -1 -1 -1 -1 -1 -1 -1 -1 -1 -1 -1 -1 -1 -1 -1 -1 -1 -1 -1 -1 -1 -1 -1 -1 -1 -1 -1 -1 -1 -1 -1 -1 -1 -1 -1 -1 -1 -1 -1 -1 -1 -1 -1 -1 -1 -1 -1 -1 -1 -1 -1 -1 -1 -1 -1 -1 -1 -1 -1 -1 -1 -1 -1 -1 -1 -1 -1 -1 -1 -1 -1 -1 -1 -1 -1 -1 -1 -1 -1 -1 -1 -1 -1 -1 -1 -1 -1 -1 -1 -1 -1 -1 -1 -1 
90 91 91 91 91 91 91 91 91 91 91 91 91 91 91 91 91 91 91 91 91 91 91 91 91 91 91 91 91 91 91 91 91 90 90 90 90 90 90 90 90 90 90 90 90 90 90 90 90 90 90 90 90 89 89 89 89 88 88 88 88 87 87 87 87 86 86 86 86 85 85 85 84 84 84 84 83 83 83 83 82 82 82 82 81 81 81 81 80 80 80 80 79 79 79 82 87 91 96 101 105 110 115 119 124 129 127 113 98 84 86 97 108 119 130 140 151 162 156 148 140 132 124 116 108 100 92 84 75 22 46 28 29 29 29 30 30 30 30 31 31 31 32 32 32 33 33 33 34 34 35 35 35 36 36 37 37 37 38 38 39 39 39 40 40 41 41 41 42 42 43 45 48 50 53 55 58 61 63 66 69 71 74 76 79 82 84 87 90 92 95 97 100 103 105 108 111 113 116 118 121 124 126 129 132 128 108 89 89 89 89 89 89 89 89 89 89 89 89 89 89 89 89 89 89 89 89 89 89 89 89 89 89 89 89 89 89 89 89 89 89 90 90 90 90 90 90 92 97 102 106 111 116 120 125 130 134 139 144 148 153 158 162 167 172 176 181 186 190 195 200 204 209 214 218 223 227 232 237 223 202 182 162 142 122 102 82 62 42 22 22 25 27 30 33 35 38 41 44 46 49 52 55 60 65 70 75 80 85 90 95 99 104 109 114 118 123 128 132 137 141 -1 -1 -1 -1 -1 -1 -1 -1 -1 -1 -1 -1 -1 -1 -1 -1 -1 -1 -1 -1 -1 -1 -1 -1 -1 -1 -1 -1 -1 -1 -1 -1 -1 -1 -1 -1 -1 -1 -1 -1 -1 -1 -1 -1 -1 -1 -1 -1 -1 -1 -1 -1 -1 -1 -1 -1 -1 -1 -1 -1 -1 -1 -1 -1 -1 -1 -1 -1 -1 -1 -1 -1 -1 -1 -1 -1 -1 -1 -1 -1 -1 -1 -1 -1 -1 -1 -1 -1 -1 -1 -1 -1 -1 -1 -1 -1 -1 -1 -1 -1 -1 -1 -1 -1 -1 -1 -1 -1 -1 -1 -1 -1 -1 -1 -1 -1 -1 -1 -1 -1 -1 -1 -1 -1 -1 -1 -1 -1 -1 -1 -1 -1 -1 -1 -1 -1 -1 -1 -1 -1 -1 -1 -1 -1 -1 -1 -1 -1 -1 -1 -1 -1 -1 -1 -1 -1 -1 -1 -1 -1 
91 91 91 91 91 91 91 91 91 91 91 91 91 91 91 91 91 91 91 91 91 91 91 91 91 91 91 91 91 91 91 91 91 91 91 91 90 90 90 90 90 90 90 90 90 90 90 90 90 90 90 90 90 90 89 89 89 89 88 88 88 88 87 87 87 87 86 86 86 85 85 85 85 84 84 84 84 83 83 83 83 82 82 82 82 81 81 81 81 80 80 80 79 79 83 88 92 97 102 106 111 116 121 125 130 135 128 114 99 85 86 97 108 119 130 141 152 162 169 160 152 144 136 128 120 112 104 96 88 39 54 30 30 31 31 31 32 32 32 32 33 33 33 34 34 34 34 35 35 35 36 36 37 37 37 38 38 39 39 39 40 40 41 41 41 42 42 43 43 43 44 44 45 45 47 50 52 55 58 60 63 66 68 71 73 76 79 81 84 87 89 92 94 97 100 102 105 108 110 113 115 118 121 123 126 129 131 113 93 89 89 89 89 89 89 89 89 89 89 89 89 89 89 89 89 89 89 90 90 90 90 90 90 90 90 90 90 90 90 90 90 90 90 90 90 90 91 96 101 105 110 115 119 124 128 133 138 142 147 152 156 161 166 170 175 180 184 189 194 198 203 208 212 217 222 226 231 236 240 221 201 181 161 141 120 100 80 60 40 20 23 25 28 31 34 36 39 42 44 47 50 53 56 61 66 71 76 81 86 91 96 101 106 110 115 120 124 129 133 138 143 -1 -1 -1 -1 -1 -1 -1 -1 -1 -1 -1 -1 -1 -1 -1 -1 -1 -1 -1 -1 -1 -1 -1 -1 -1 -1 -1 -1 -1 -1 -1 -1 -1 -1 -1 -1 -1 -1 -1 -1 -1 -1 -1 -1 -1 -1 -1 -1 -1 -1 -1 -1 -1 -1 -1 -1 -1 -1 -1 -1 -1 -1 -1 -1 -1 -1 -1 -1 -1 -1 -1 -1 -1 -1 -1 -1 -1 -1 -1 -1 -1 -1 -1 -1 -1 -1 -1 -1 -1 -1 -1 -1 -1 -1 -1 -1 -1 -1 -1 -1 -1 -1 -1 -1 -1 -1 -1 -1 -1 -1 -1 -1 -1 -1 -1 -1 -1 -1 -1 -1 -1 -1 -1 -1 -1 -1 -1 -1 -1 -1 -1 -1 -1 -1 -1 -1 -1 -1 -1 -1 -1 -1 -1 -1 -1 -1 -1 -1 -1 -1 -1 -1 -1 -1 -1 -1 -1 -1 -1 -1 
91 91 91 91 91 91 91 91 91 91 91 91 91 91 91 91 91 91 91 91 91 91 91 91 91 92 92 92 92 92 91 91 91 91 91 91 91 91 91 91 91 90 90 90 90 90 90 90 90 90 90 90 90 90 90 89 89 89 89 88 88 88 88 87 87 87 86 86 86 86 85 85 85 85 84 84 84 84 83 83 83 83 82 82 82 82 81 81 81 80 80 80 80 84 89 93 98 103 108 112 117 122 126 131 136 141 129 115 100 86 87 97 108 119 130 141 152 163 174 173 164 156 148 140 132 124 116 108 77 55 61 32 32 32 33 33 33 34 34 34 34 35 35 35 36 36 36 36 37 37 37 38 38 38 39 39 40 40 40 41 41 41 42 42 43 43 43 44 44 45 45 45 46 46 47 47 47 49 52 55 57 60 63 65 68 70 73 76 78 81 84 86 89 91 94 97 99 102 105 107 110 112 115 118 120 123 126 128 118 98 89 89 89 89 90 90 90 90 90 90 90 90 90 90 90 90 90 90 90 90 90 90 90 90 90 90 90 90 90 90 90 90 90 90 90 90 95 99 104 109 113 118 123 127 132 137 141 146 151 155 160 165 169 174 179 183 188 193 197 202 206 211 216 220 225 230 234 239 239 219 199 179 159 139 119 99 79 58 36 111 24 26 29 32 35 37 40 43 45 48 51 54 57 62 67 72 77 82 87 92 97 102 107 112 116 121 125 130 135 139 144 -1 -1 -1 -1 -1 -1 -1 -1 -1 -1 -1 -1 -1 -1 -1 -1 -1 -1 -1 -1 -1 -1 -1 -1 -1 -1 -1 -1 -1 -1 -1 -1 -1 -1 -1 -1 -1 -1 -1 -1 -1 -1 -1 -1 -1 -1 -1 -1 -1 -1 -1 -1 -1 -1 -1 -1 -1 -1 -1 -1 -1 -1 -1 -1 -1 -1 -1 -1 -1 -1 -1 -1 -1 -1 -1 -1 -1 -1 -1 -1 -1 -1 -1 -1 -1 -1 -1 -1 -1 -1 -1 -1 -1 -1 -1 -1 -1 -1 -1 -1 -1 -1 -1 -1 -1 -1 -1 -1 -1 -1 -1 -1 -1 -1 -1 -1 -1 -1 -1 -1 -1 -1 -1 -1 -1 -1 -1 -1 -1 -1 -1 -1 -1 -1 -1 -1 -1 -1 -1 -1 -1 -1 -1 -1 -1 -1 -1 -1 -1 -1 -1 -1 -1 -1 -1 -1 -1 -1 -1 -1 
91 91 91 91 91 91 91 91 91 91 91 91 91 91 91 91 91 92 92 92 92 92 92 92 92 92 92 92 92 92 91 91 91 91 91 91 91 91 91 91 91 91 91 91 91 91 90 90 90 90 90 90 90 90 90 90 89 89 89 89 88 88 88 87 87 87 87 86 86 86 86 85 85 85 85 84 84 84 84 83 83 83 83 82 82 82 81 81 81 81 80 80 85 90 95 99 104 109 113 118 123 128 132 137 142 144 130 116 101 87 87 98 109 119 130 141 152 163 174 185 177 168 160 152 144 136 128 120 21 72 69 33 34 34 34 35 35 35 36 36 36 36 37 37 37 38 38 38 38 39 39 39 40 40 40 41 41 41 42 42 42 43 43 44 44 44 45 45 46 46 46 47 47 47 48 48 49 49 49 50 52 54 57 59 62 65 67 70 73 75 78 80 83 86 88 91 94 96 99 101 104 107 109 112 115 117 120 123 125 124 103 90 90 90 90 90 90 90 90 90 90 90 90 90 90 90 90 90 90 90 90 90 90 90 90 90 90 90 90 90 90 90 90 90 90 94 98 103 107 112 117 121 126 131 135 140 145 149 154 159 163 168 173 177 182 187 191 196 201 205 210 215 219 224 229 233 238 243 238 218 198 177 157 137 117 96 74 52 31 202 25 27 30 33 35 38 41 44 46 49 52 54 59 64 68 73 78 83 88 93 98 103 108 113 117 122 127 131 136 140 145 -1 -1 -1 -1 -1 -1 -1 -1 -1 -1 -1 -1 -1 -1 -1 -1 -1 -1 -1 -1 -1 -1 -1 -1 -1 -1 -1 -1 -1 -1 -1 -1 -1 -1 -1 -1 -1 -1 -1 -1 -1 -1 -1 -1 -1 -1 -1 -1 -1 -1 -1 -1 -1 -1 -1 -1 -1 -1 -1 -1 -1 -1 -1 -1 -1 -1 -1 -1 -1 -1 -1 -1 -1 -1 -1 -1 -1 -1 -1 -1 -1 -1 -1 -1 -1 -1 -1 -1 -1 -1 -1 -1 -1 -1 -1 -1 -1 -1 -1 -1 -1 -1 -1 -1 -1 -1 -1 -1 -1 -1 -1 -1 -1 -1 -1 -1 -1 -1 -1 -1 -1 -1 -1 -1 -1 -1 -1 -1 -1 -1 -1 -1 -1 -1 -1 -1 -1 -1 -1 -1 -1 -1 -1 -1 -1 -1 -1 -1 -1 -1 -1 -1 -1 -1 -1 -1 -1 -1 -1 -1 
91 91 91 91 91 91 91 91 91 91 92 92 92 92 92 92 92 92 92 92 92 92 92 92 92 92 92 92 92 92 92 91 91 91 91 91 91 91 91 91 91 91 91 91 91 91 91 91 91 91 90 90 90 90 90 90 90 89 89 89 88 88 88 88 87 87 87 87 86 86 86 86 85 85 85 85 84 84 84 84 83 83 83 82 82 82 82 81 81 81 82 86 91 96 100 105 110 115 119 124 129 133 138 143 147 145 131 117 102 88 87 98 109 120 131 141 152 163 174 185 189 181 172 164 156 148 140 132 38 88 77 38 35 36 36 36 37 37 37 38 38 38 38 39 39 39 40 40 40 40 41 41 41 42 42 42 43 43 43 43 44 44 44 45 45 46 46 46 47 47 48 48 48 49 49 50 50 50 51 51 52 52 52 54 56 59 62 64 67 70 72 75 77 80 83 85 88 91 93 96 98 101 104 106 109 112 114 117 119 122 125 109 90 90 90 90 90 90 90 90 90 90 90 90 90 90 90 90 90 90 90 90 90 90 90 90 90 90 90 90 90 90 90 90 92 97 102 106 111 116 120 125 130 134 139 144 148 153 158 162 167 172 176 181 185 190 195 199 204 209 213 218 223 227 232 237 241 246 236 216 196 176 155 134 112 90 68 47 25 192 25 28 31 34 36 39 42 45 47 50 53 55 60 65 70 75 79 84 89 94 99 104 109 114 119 123 128 132 137 142 146 -1 -1 -1 -1 -1 -1 -1 -1 -1 -1 -1 -1 -1 -1 -1 -1 -1 -1 -1 -1 -1 -1 -1 -1 -1 -1 -1 -1 -1 -1 -1 -1 -1 -1 -1 -1 -1 -1 -1 -1 -1 -1 -1 -1 -1 -1 -1 -1 -1 -1 -1 -1 -1 -1 -1 -1 -1 -1 -1 -1 -1 -1 -1 -1 -1 -1 -1 -1 -1 -1 -1 -1 -1 -1 -1 -1 -1 -1 -1 -1 -1 -1 -1 -1 -1 -1 -1 -1 -1 -1 -1 -1 -1 -1 -1 -1 -1 -1 -1 -1 -1 -1 -1 -1 -1 -1 -1 -1 -1 -1 -1 -1 -1 -1 -1 -1 -1 -1 -1 -1 -1 -1 -1 -1 -1 -1 -1 -1 -1 -1 -1 -1 -1 -1 -1 -1 -1 -1 -1 -1 -1 -1 -1 -1 -1 -1 -1 -1 -1 -1 -1 -1 -1 -1 -1 -1 -1 -1 -1 -1 
91 91 92 92 92 92 92 92 92 92 92 92 92 92 92 92 92 92 92 92 92 92 92 92 92 92 92 92 92 92 92 92 91 91 91 91 91 91 91 91 91 91 91 91 91 91 91 91 91 91 91 91 91 91 90 90 90 89 89 89 89 88 88 88 88 87 87 87 87 86 86 86 86 85 85 85 85 84 84 84 83 83 83 83 82 82 82 82 81 83 87 92 97 102 106 111 116 120 125 130 134 139 144 149 153 146 132 117 103 89 87 98 109 120 131 142 153 163 174 185 196 193 185 176 168 160 152 76 54 105 84 46 37 37 38 38 38 39 39 39 40 40 40 40 41 41 41 42 42 42 42 43 43 43 44 44 44 45 45 45 45 46 46 46 47 47 47 48 48 48 49 49 50 50 50 51 51 52 52 52 53 53 54 54 54 55 56 59 61 64 67 69 72 74 77 80 82 85 88 90 93 95 98 101 103 106 109 111 114 116 119 122 114 94 90 90 90 90 90 90 90 90 90 90 90 90 90 90 90 90 90 90 90 90 90 90 90 90 90 90 90 90 90 91 96 100 105 110 114 119 124 128 133 138 142 147 152 156 161 166 170 175 180 184 189 194 198 203 208 212 217 222 226 231 236 240 245 250 235 214 193 172 150 132 117 103 89 74 30 182 66 29 32 35 37 40 43 45 48 51 54 56 61 66 71 76 81 86 91 95 100 105 110 115 120 124 129 134 138 143 147 -1 -1 -1 -1 -1 -1 -1 -1 -1 -1 -1 -1 -1 -1 -1 -1 -1 -1 -1 -1 -1 -1 -1 -1 -1 -1 -1 -1 -1 -1 -1 -1 -1 -1 -1 -1 -1 -1 -1 -1 -1 -1 -1 -1 -1 -1 -1 -1 -1 -1 -1 -1 -1 -1 -1 -1 -1 -1 -1 -1 -1 -1 -1 -1 -1 -1 -1 -1 -1 -1 -1 -1 -1 -1 -1 -1 -1 -1 -1 -1 -1 -1 -1 -1 -1 -1 -1 -1 -1 -1 -1 -1 -1 -1 -1 -1 -1 -1 -1 -1 -1 -1 -1 -1 -1 -1 -1 -1 -1 -1 -1 -1 -1 -1 -1 -1 -1 -1 -1 -1 -1 -1 -1 -1 -1 -1 -1 -1 -1 -1 -1 -1 -1 -1 -1 -1 -1 -1 -1 -1 -1 -1 -1 -1 -1 -1 -1 -1 -1 -1 -1 -1 -1 -1 -1 -1 -1 -1 -1 -1 
91 91 92 92 92 92 92 92 92 92 92 92 92 92 92 92 92 92 92 92 92 92 92 92 92 92 92 92 92 92 92 92 92 91 91 91 91 91 91 91 91 91 91 91 91 91 91 91 91 91 91 91 91 91 90 90 90 90 89 89 89 89 88 88 88 88 87 87 87 87 86 86 86 86 85 85 85 84 84 84 84 83 83 83 83 82 82 82 84 89 93 98 103 107 112 117 121 126 131 136 140 145 150 154 159 147 133 118 104 90 88 98 109 120 131 142 153 164 175 185 196 205 197 189 180 172 164 21 71 121 92 53 39 39 39 40 40 40 41 41 41 42 42 42 42 43 43 43 44 44 44 44 45 45 45 46 46 46 47 47 47 47 48 48 48 49 49 49 49 50 50 50 51 51 52 52 52 53 53 54 54 54 55 55 56 56 56 57 57 58 61 64 66 69 71 74 77 79 82 85 87 90 92 95 98 100 103 106 108 111 113 116 119 119 99 90 90 90 90 90 90 90 90 90 90 90 90 90 90 90 90 90 90 90 90 90 90 90 90 90 90 90 90 95 99 104 109 113 118 123 127 132 137 141 146 151 155 160 164 169 174 178 183 188 192 197 202 206 211 216 220 225 230 234 239 244 248 253 239 224 210 196 181 167 152 138 124 79 35 172 157 30 33 35 38 41 44 46 49 52 55 57 62 67 72 77 82 87 92 97 102 107 111 116 121 126 130 135 139 144 149 -1 -1 -1 -1 -1 -1 -1 -1 -1 -1 -1 -1 -1 -1 -1 -1 -1 -1 -1 -1 -1 -1 -1 -1 -1 -1 -1 -1 -1 -1 -1 -1 -1 -1 -1 -1 -1 -1 -1 -1 -1 -1 -1 -1 -1 -1 -1 -1 -1 -1 -1 -1 -1 -1 -1 -1 -1 -1 -1 -1 -1 -1 -1 -1 -1 -1 -1 -1 -1 -1 -1 -1 -1 -1 -1 -1 -1 -1 -1 -1 -1 -1 -1 -1 -1 -1 -1 -1 -1 -1 -1 -1 -1 -1 -1 -1 -1 -1 -1 -1 -1 -1 -1 -1 -1 -1 -1 -1 -1 -1 -1 -1 -1 -1 -1 -1 -1 -1 -1 -1 -1 -1 -1 -1 -1 -1 -1 -1 -1 -1 -1 -1 -1 -1 -1 -1 -1 -1 -1 -1 -1 -1 -1 -1 -1 -1 -1 -1 -1 -1 -1 -1 -1 -1 -1 -1 -1 -1 -1 -1 
91 91 92 92 92 92 92 92 92 92 92 92 92 92 92 92 92 92 92 92 92 92 92 92 92 92 92 92 92 92 92 92 92 91 91 91 91 91 91 91 91 91 91 91 91 91 91 91 91 91 91 91 91 91 91 90 90 90 90 89 89 89 89 88 88 88 88 87 87 87 87 86 86 86 85 85 85 85 84 84 84 84 83 83 83 83 82 85 90 94 99 104 108 113 118 123 127 132 137 141 146 151 155 160 162 148 134 119 105 91 88 99 110 120 131 142 153 164 175 186 197 207 209 201 193 184 131 37 88 138 100 61 41 41 41 41 42 42 42 43 43 43 44 44 44 44 45 45 45 46 46 46 46 47 47 47 48 48 48 48 49 49 49 50 50 50 51 51 51 51 52 52 52 53 53 53 54 54 54 55 55 56 56 56 57 57 58 58 58 59 59 60 60 63 66 68 71 74 76 79 81 84 87 89 92 95 97 100 103 105 108 110 113 116 118 104 90 90 90 90 90 90 90 90 90 90 90 90 90 90 90 90 90 90 90 90 90 90 90 90 90 90 93 98 103 107 112 117 121 126 131 135 140 145 149 154 159 163 168 173 177 182 187 191 196 201 205 210 215 219 224 229 233 238 231 184 137 90 150 210 245 231 216 202 187 173 159 23 40 162 181 31 34 36 39 42 45 47 50 53 55 58 63 68 73 78 83 88 93 98 103 108 113 118 122 127 131 136 141 145 150 -1 -1 -1 -1 -1 -1 -1 -1 -1 -1 -1 -1 -1 -1 -1 -1 -1 -1 -1 -1 -1 -1 -1 -1 -1 -1 -1 -1 -1 -1 -1 -1 -1 -1 -1 -1 -1 -1 -1 -1 -1 -1 -1 -1 -1 -1 -1 -1 -1 -1 -1 -1 -1 -1 -1 -1 -1 -1 -1 -1 -1 -1 -1 -1 -1 -1 -1 -1 -1 -1 -1 -1 -1 -1 -1 -1 -1 -1 -1 -1 -1 -1 -1 -1 -1 -1 -1 -1 -1 -1 -1 -1 -1 -1 -1 -1 -1 -1 -1 -1 -1 -1 -1 -1 -1 -1 -1 -1 -1 -1 -1 -1 -1 -1 -1 -1 -1 -1 -1 -1 -1 -1 -1 -1 -1 -1 -1 -1 -1 -1 -1 -1 -1 -1 -1 -1 -1 -1 -1 -1 -1 -1 -1 -1 -1 -1 -1 -1 -1 -1 -1 -1 -1 -1 -1 -1 -1 -1 -1 -1 
91 92 92 92 92 92 92 92 92 92 92 92 92 92 92 92 92 92 92 92 92 92 92 92 92 92 92 92 92 92 92 92 92 92 91 91 91 91 91 91 91 91 91 91 91 91 91 91 91 91 91 91 91 91 91 91 90 90 90 90 89 89 89 89 88 88 88 88 87 87 87 86 86 86 86 85 85 85 85 84 84 84 84 83 83 83 86 91 95 100 105 110 114 119 124 128 133 138 142 147 152 157 161 166 163 149 135 120 106 92 88 99 110 121 132 142 153 164 175 186 197 208 219 213 205 197 76 54 104 146 107 69 42 43 43 43 43 44 44 44 45 45 45 45 46 46 46 47 47 47 48 48 48 48 49 49 49 50 50 50 50 51 51 51 52 52 52 53 53 53 53 54 54 54 55 55 55 55 56 56 56 57 57 58 58 58 59 59 60 60 60 61 61 62 62 63 65 68 71 73 76 78 81 84 86 89 92 94 97 99 102 105 107 110 113 115 110 90 90 90 90 90 90 90 90 90 90 90 90 90 90 90 90 90 90 90 90 91 91 91 91 92 97 102 106 111 116 120 125 130 134 139 143 148 153 157 162 167 171 176 181 185 190 195 199 204 209 213 218 223 227 210 163 116 91 93 96 98 112 130 148 167 226 237 222 208 133 28 45 152 171 32 35 37 40 43 45 48 51 54 56 59 64 69 74 79 84 89 94 99 104 109 114 119 123 128 133 137 142 146 151 -1 -1 -1 -1 -1 -1 -1 -1 -1 -1 -1 -1 -1 -1 -1 -1 -1 -1 -1 -1 -1 -1 -1 -1 -1 -1 -1 -1 -1 -1 -1 -1 -1 -1 -1 -1 -1 -1 -1 -1 -1 -1 -1 -1 -1 -1 -1 -1 -1 -1 -1 -1 -1 -1 -1 -1 -1 -1 -1 -1 -1 -1 -1 -1 -1 -1 -1 -1 -1 -1 -1 -1 -1 -1 -1 -1 -1 -1 -1 -1 -1 -1 -1 -1 -1 -1 -1 -1 -1 -1 -1 -1 -1 -1 -1 -1 -1 -1 -1 -1 -1 -1 -1 -1 -1 -1 -1 -1 -1 -1 -1 -1 -1 -1 -1 -1 -1 -1 -1 -1 -1 -1 -1 -1 -1 -1 -1 -1 -1 -1 -1 -1 -1 -1 -1 -1 -1 -1 -1 -1 -1 -1 -1 -1 -1 -1 -1 -1 -1 -1 -1 -1 -1 -1 -1 -1 -1 -1 -1 -1 
91 92 92 92 92 92 92 92 92 92 92 92 92 92 92 92 92 92 92 92 92 92 92 92 92 92 92 92 92 92 92 92 92 92 92 91 91 91 91 91 91 91 91 91 91 91 91 91 91 91 91 91 91 91 91 91 91 90 90 90 90 89 89 89 89 88 88 88 87 87 87 87 86 86 86 86 85 85 85 85 84 84 84 84 83 87 92 97 101 106 111 115 120 125 129 134 139 144 148 153 158 162 167 172 164 150 136 121 107 92 88 99 110 121 132 143 154 164 175 186 197 208 219 225 217 186 20 70 121 153 115 76 44 44 45 45 45 45 46 46 46 47 47 47 47 48 48 48 49 49 49 50 50 50 50 51 51 51 52 52 52 52 53 53 53 54 54 54 55 55 55 55 56 56 56 57 57 57 57 58 58 58 59 59 59 60 60 60 61 61 62 62 62 63 63 64 64 64 65 68 70 73 75 78 81 83 86 89 91 94 96 99 102 104 107 110 112 115 95 90 90 90 90 90 91 91 91 91 91 91 91 91 91 91 91 91 91 91 91 91 91 96 100 105 110 114 119 124 128 133 138 142 147 152 156 161 166 170 175 180 184 189 194 198 203 208 212 217 188 141 94 92 95 97 99 101 103 105 79 135 152 170 188 206 225 243 77 33 50 142 161 113 36 38 41 44 46 49 52 55 57 61 66 71 75 80 85 90 95 100 105 110 115 120 125 129 134 138 143 148 152 -1 -1 -1 -1 -1 -1 -1 -1 -1 -1 -1 -1 -1 -1 -1 -1 -1 -1 -1 -1 -1 -1 -1 -1 -1 -1 -1 -1 -1 -1 -1 -1 -1 -1 -1 -1 -1 -1 -1 -1 -1 -1 -1 -1 -1 -1 -1 -1 -1 -1 -1 -1 -1 -1 -1 -1 -1 -1 -1 -1 -1 -1 -1 -1 -1 -1 -1 -1 -1 -1 -1 -1 -1 -1 -1 -1 -1 -1 -1 -1 -1 -1 -1 -1 -1 -1 -1 -1 -1 -1 -1 -1 -1 -1 -1 -1 -1 -1 -1 -1 -1 -1 -1 -1 -1 -1 -1 -1 -1 -1 -1 -1 -1 -1 -1 -1 -1 -1 -1 -1 -1 -1 -1 -1 -1 -1 -1 -1 -1 -1 -1 -1 -1 -1 -1 -1 -1 -1 -1 -1 -1 -1 -1 -1 -1 -1 -1 -1 -1 -1 -1 -1 -1 -1 -1 -1 -1 -1 -1 -1 
91 92 92 92 92 92 92 92 92 92 92 92 92 92 92 92 92 92 92 92 92 92 92 92 92 92 92 92 92 92 92 92 92 92 92 92 91 91 91 91 91 91 91 91 91 91 91 91 91 91 91 91 91 91 91 91 91 91 90 90 90 90 89 89 89 88 88 88 88 87 87 87 87 86 86 86 86 85 85 85 85 84 84 84 88 93 98 102 107 112 116 121 126 131 135 140 145 149 154 159 164 168 173 178 165 151 136 122 108 93 89 99 110 121 132 143 154 165 176 186 197 208 219 230 229 130 36 87 137 161 123 84 46 46 46 47 47 47 47 48 48 48 49 49 49 49 50 50 50 51 51 51 52 52 52 52 53 53 53 54 54 54 54 55 55 55 56 56 56 57 57 57 57 58 58 58 59 59 59 59 60 60 60 61 61 61 62 62 62 63 63 63 64 64 65 65 65 66 66 66 67 67 70 72 75 78 80 83 86 88 91 93 96 99 101 104 107 109 112 100 91 91 91 91 91 91 91 91 91 91 91 91 91 91 91 91 91 91 91 91 95 99 104 109 113 118 122 127 132 136 141 146 150 155 160 164 169 174 178 183 188 192 197 202 206 167 119 91 93 96 98 100 102 104 107 109 111 113 76 69 157 174 191 210 228 246 21 38 55 132 151 170 36 39 42 45 47 50 53 55 58 62 67 72 77 82 87 91 96 101 106 111 116 121 126 130 135 140 144 149 153 -1 -1 -1 -1 -1 -1 -1 -1 -1 -1 -1 -1 -1 -1 -1 -1 -1 -1 -1 -1 -1 -1 -1 -1 -1 -1 -1 -1 -1 -1 -1 -1 -1 -1 -1 -1 -1 -1 -1 -1 -1 -1 -1 -1 -1 -1 -1 -1 -1 -1 -1 -1 -1 -1 -1 -1 -1 -1 -1 -1 -1 -1 -1 -1 -1 -1 -1 -1 -1 -1 -1 -1 -1 -1 -1 -1 -1 -1 -1 -1 -1 -1 -1 -1 -1 -1 -1 -1 -1 -1 -1 -1 -1 -1 -1 -1 -1 -1 -1 -1 -1 -1 -1 -1 -1 -1 -1 -1 -1 -1 -1 -1 -1 -1 -1 -1 -1 -1 -1 -1 -1 -1 -1 -1 -1 -1 -1 -1 -1 -1 -1 -1 -1 -1 -1 -1 -1 -1 -1 -1 -1 -1 -1 -1 -1 -1 -1 -1 -1 -1 -1 -1 -1 -1 -1 -1 -1 -1 -1 -1 
91 92 92 92 92 92 92 92 92 92 92 92 92 92 92 92 92 92 92 92 92 92 92 92 92 92 92 92 92 92 92 92 92 92 92 92 91 91 91 91 91 91 91 91 91 91 91 91 91 91 91 91 91 91 91 91 91 91 91 90 90 90 90 89 89 89 88 88 88 88 87 87 87 87 86 86 86 86 85 85 85 85 85 89 94 99 103 108 113 118 122 127 132 136 141 146 151 155 160 165 169 174 179 181 166 152 137 123 109 94 89 100 111 121 132 143 154 165 176 187 198 208 219 230 241 75 53 103 154 169 130 92 53 48 48 48 49 49 49 49 50 50 50 51 51 51 51 52 52 52 53 53 53 54 54 54 54 55 55 55 56 56 56 56 57 57 57 58 58 58 59 59 59 59 60 60 60 61 61 61 61 62 62 62 63 63 63 64 64 64 64 65 65 65 66 66 67 67 67 68 68 69 69 69 70 72 75 77 80 83 85 88 90 93 96 98 101 104 106 109 105 91 91 91 91 91 91 91 91 91 91 91 91 91 91 91 91 91 91 93 98 103 107 112 117 121 126 131 135 140 145 149 154 159 163 168 173 177 182 187 191 192 145 98 92 95 97 99 101 103 106 108 110 112 114 117 119 121 74 67 60 180 197 214 231 250 98 43 60 122 141 160 37 40 43 46 48 51 54 56 59 63 68 73 78 83 88 93 98 103 107 112 117 122 127 132 136 141 145 150 155 -1 -1 -1 -1 -1 -1 -1 -1 -1 -1 -1 -1 -1 -1 -1 -1 -1 -1 -1 -1 -1 -1 -1 -1 -1 -1 -1 -1 -1 -1 -1 -1 -1 -1 -1 -1 -1 -1 -1 -1 -1 -1 -1 -1 -1 -1 -1 -1 -1 -1 -1 -1 -1 -1 -1 -1 -1 -1 -1 -1 -1 -1 -1 -1 -1 -1 -1 -1 -1 -1 -1 -1 -1 -1 -1 -1 -1 -1 -1 -1 -1 -1 -1 -1 -1 -1 -1 -1 -1 -1 -1 -1 -1 -1 -1 -1 -1 -1 -1 -1 -1 -1 -1 -1 -1 -1 -1 -1 -1 -1 -1 -1 -1 -1 -1 -1 -1 -1 -1 -1 -1 -1 -1 -1 -1 -1 -1 -1 -1 -1 -1 -1 -1 -1 -1 -1 -1 -1 -1 -1 -1 -1 -1 -1 -1 -1 -1 -1 -1 -1 -1 -1 -1 -1 -1 -1 -1 -1 -1 -1 
91 92 92 92 92 92 92 92 92 92 92 92 92 92 92 92 92 92 92 92 92 92 92 92 92 92 92 92 92 92 92 92 92 92 92 92 92 91 91 91 91 91 91 91 91 91 91 91 91 91 91 91 91 91 91 91 91 91 91 91 90 90 90 89 89 89 89 88 88 88 88 87 87 87 87 86 86 86 86 85 85 86 90 95 100 105 109 114 119 123 128 133 138 142 147 152 156 161 166 170 175 180 185 181 167 153 138 124 110 95 89 100 111 122 133 143 154 165 176 187 198 209 220 228 241 19 69 120 170 176 138 99 61 49 50 50 50 51 51 51 51 52 52 52 53 53 53 53 54 54 54 55 55 55 56 56 56 56 57 57 57 58 58 58 58 59 59 59 60 60 60 61 61 61 61 62 62 62 63 63 63 63 64 64 64 65 65 65 65 66 66 66 67 67 67 68 68 68 69 69 69 70 70 71 71 71 72 72 74 77 79 82 85 87 90 93 95 98 100 103 106 108 91 91 91 91 91 91 91 91 91 91 91 91 91 91 91 91 92 97 101 106 111 115 120 125 129 134 139 143 148 153 157 162 167 171 176 181 171 123 91 94 96 98 100 102 105 107 109 111 113 116 118 120 122 124 126 129 82 65 58 84 202 219 236 253 174 96 65 112 131 150 68 41 44 46 49 52 55 57 60 64 69 74 79 84 89 94 99 104 109 114 119 123 128 133 137 142 147 151 156 -1 -1 -1 -1 -1 -1 -1 -1 -1 -1 -1 -1 -1 -1 -1 -1 -1 -1 -1 -1 -1 -1 -1 -1 -1 -1 -1 -1 -1 -1 -1 -1 -1 -1 -1 -1 -1 -1 -1 -1 -1 -1 -1 -1 -1 -1 -1 -1 -1 -1 -1 -1 -1 -1 -1 -1 -1 -1 -1 -1 -1 -1 -1 -1 -1 -1 -1 -1 -1 -1 -1 -1 -1 -1 -1 -1 -1 -1 -1 -1 -1 -1 -1 -1 -1 -1 -1 -1 -1 -1 -1 -1 -1 -1 -1 -1 -1 -1 -1 -1 -1 -1 -1 -1 -1 -1 -1 -1 -1 -1 -1 -1 -1 -1 -1 -1 -1 -1 -1 -1 -1 -1 -1 -1 -1 -1 -1 -1 -1 -1 -1 -1 -1 -1 -1 -1 -1 -1 -1 -1 -1 -1 -1 -1 -1 -1 -1 -1 -1 -1 -1 -1 -1 -1 -1 -1 -1 -1 -1 -1 
91 92 92 92 92 92 92 92 92 92 92 92 92 92 92 92 92 92 92 92 92 92 92 92 92 92 92 92 92 92 92 92 92 92 92 92 92 92 91 91 91 91 91 91 91 91 91 91 91 91 91 91 91 91 91 91 91 91 91 91 90 90 90 90 89 89 89 89 88 88 88 88 87 87 87 87 86 86 86 86 87 92 96 101 106 110 115 120 125 129 134 139 143 148 153 157 162 167 172 176 181 186 190 182 168 154 139 125 111 96 89 100 111 122 133 144 155 165 176 187 198 209 215 193 240 64 86 136 187 184 146 107 69 51 51 52 52 52 53 53 53 53 54 54 54 55 55 55 55 56 56 56 57 57 57 58 58 58 58 59 59 59 60 60 60 60 61 61 61 62 62 62 63 63 63 63 64 64 64 65 65 65 65 66 66 66 67 67 67 67 68 68 68 69 69 69 70 70 70 70 71 71 71 72 72 73 73 73 74 74 75 76 79 82 84 87 90 92 95 97 100 103 105 96 91 91 91 91 91 91 91 91 91 91 91 91 91 91 96 100 105 110 114 119 124 128 133 138 142 147 152 156 161 166 170 149 102 93 95 97 99 101 104 106 108 110 112 114 117 119 121 123 125 128 130 132 134 136 99 63 56 49 140 224 241 19 96 173 94 102 121 140 159 42 45 47 50 53 56 58 61 65 70 75 80 85 90 95 100 105 110 115 120 125 129 134 139 143 148 152 157 -1 -1 -1 -1 -1 -1 -1 -1 -1 -1 -1 -1 -1 -1 -1 -1 -1 -1 -1 -1 -1 -1 -1 -1 -1 -1 -1 -1 -1 -1 -1 -1 -1 -1 -1 -1 -1 -1 -1 -1 -1 -1 -1 -1 -1 -1 -1 -1 -1 -1 -1 -1 -1 -1 -1 -1 -1 -1 -1 -1 -1 -1 -1 -1 -1 -1 -1 -1 -1 -1 -1 -1 -1 -1 -1 -1 -1 -1 -1 -1 -1 -1 -1 -1 -1 -1 -1 -1 -1 -1 -1 -1 -1 -1 -1 -1 -1 -1 -1 -1 -1 -1 -1 -1 -1 -1 -1 -1 -1 -1 -1 -1 -1 -1 -1 -1 -1 -1 -1 -1 -1 -1 -1 -1 -1 -1 -1 -1 -1 -1 -1 -1 -1 -1 -1 -1 -1 -1 -1 -1 -1 -1 -1 -1 -1 -1 -1 -1 -1 -1 -1 -1 -1 -1 -1 -1 -1 -1 -1 -1 
92 92 92 92 92 92 92 92 92 92 92 92 92 92 92 92 92 92 92 92 92 92 92 92 92 92 92 92 93 93 93 93 93 93 92 92 92 92 92 91 91 91 91 91 91 91 91 91 91 91 91 91 91 91 91 91 91 91 91 91 91 90 90 90 90 89 89 89 89 88 88 88 88 87 87 87 87 86 86 88 93 97 102 107 112 116 121 126 130 135 140 144 149 154 159 163 168 173 177 182 187 192 196 183 169 155 140 126 111 97 90 100 111 122 133 144 155 166 177 187 198 202 180 159 240 108 112 153 203 192 153 115 76 53 53 53 54 54 54 55 55 55 55 56 56 56 57 57 57 57 58 58 58 59 59 59 60 60 60 60 61 61 61 62 62 62 62 63 63 63 64 64 64 64 65 65 65 66 66 66 67 67 67 67 68 68 68 69 69 69 69 70 70 70 71 71 71 72 72 72 72 73 73 73 74 74 74 75 75 75 76 76 77 77 79 81 84 87 89 92 94 97 100 102 101 91 91 91 91 91 91 91 91 91 91 91 91 94 99 104 108 113 118 122 127 132 136 141 146 150 155 160 127 92 94 96 98 100 103 105 107 109 111 113 116 118 120 122 124 127 129 131 133 135 138 140 142 144 117 60 53 46 39 196 247 136 136 136 114 92 111 130 149 43 46 48 51 54 56 59 62 67 71 76 81 86 91 96 101 106 111 116 121 126 131 135 140 144 149 154 158 -1 -1 -1 -1 -1 -1 -1 -1 -1 -1 -1 -1 -1 -1 -1 -1 -1 -1 -1 -1 -1 -1 -1 -1 -1 -1 -1 -1 -1 -1 -1 -1 -1 -1 -1 -1 -1 -1 -1 -1 -1 -1 -1 -1 -1 -1 -1 -1 -1 -1 -1 -1 -1 -1 -1 -1 -1 -1 -1 -1 -1 -1 -1 -1 -1 -1 -1 -1 -1 -1 -1 -1 -1 -1 -1 -1 -1 -1 -1 -1 -1 -1 -1 -1 -1 -1 -1 -1 -1 -1 -1 -1 -1 -1 -1 -1 -1 -1 -1 -1 -1 -1 -1 -1 -1 -1 -1 -1 -1 -1 -1 -1 -1 -1 -1 -1 -1 -1 -1 -1 -1 -1 -1 -1 -1 -1 -1 -1 -1 -1 -1 -1 -1 -1 -1 -1 -1 -1 -1 -1 -1 -1 -1 -1 -1 -1 -1 -1 -1 -1 -1 -1 -1 -1 -1 -1 -1 -1 -1 -1 
92 92 92 92 92 92 92 92 92 92 92 92 92 92 92 92 92 92 92 92 93 93 93 93 93 93 93 93 93 93 93 93 93 93 92 92 92 92 92 92 92 92 92 91 91 91 91 91 91 91 91 91 91 91 91 91 91 91 91 91 91 91 90 90 90 90 89 89 89 89 88 88 88 88 87 87 87 86 89 94 99 103 108 113 117 122 127 131 136 141 146 150 155 160 164 169 174 179 183 188 193 197 199 184 170 156 141 127 112 98 90 101 112 122 133 144 155 166 177 188 189 167 145 124 239 153 156 169 220 199 161 122 84 54 55 55 55 56 56 56 57 57 57 57 58 58 58 59 59 59 59 60 60 60 61 61 61 61 62 62 62 63 63 63 64 64 64 64 65 65 65 66 66 66 66 67 67 67 68 68 68 69 69 69 69 70 70 70 71 71 71 71 72 72 72 73 73 73 74 74 74 74 75 75 75 76 76 76 76 77 77 77 78 78 79 79 79 81 84 86 89 91 94 97 99 102 91 91 91 91 91 91 91 91 91 91 93 98 103 107 112 117 121 126 131 135 140 145 149 106 93 95 97 99 102 104 106 108 110 112 115 117 119 121 123 126 128 130 132 134 137 139 141 143 145 147 150 152 134 58 51 44 37 30 252 252 252 253 253 253 101 120 139 44 47 49 52 55 57 60 63 68 73 78 83 87 92 97 102 107 112 117 122 127 132 136 141 146 150 155 159 -1 -1 -1 -1 -1 -1 -1 -1 -1 -1 -1 -1 -1 -1 -1 -1 -1 -1 -1 -1 -1 -1 -1 -1 -1 -1 -1 -1 -1 -1 -1 -1 -1 -1 -1 -1 -1 -1 -1 -1 -1 -1 -1 -1 -1 -1 -1 -1 -1 -1 -1 -1 -1 -1 -1 -1 -1 -1 -1 -1 -1 -1 -1 -1 -1 -1 -1 -1 -1 -1 -1 -1 -1 -1 -1 -1 -1 -1 -1 -1 -1 -1 -1 -1 -1 -1 -1 -1 -1 -1 -1 -1 -1 -1 -1 -1 -1 -1 -1 -1 -1 -1 -1 -1 -1 -1 -1 -1 -1 -1 -1 -1 -1 -1 -1 -1 -1 -1 -1 -1 -1 -1 -1 -1 -1 -1 -1 -1 -1 -1 -1 -1 -1 -1 -1 -1 -1 -1 -1 -1 -1 -1 -1 -1 -1 -1 -1 -1 -1 -1 -1 -1 -1 -1 -1 -1 -1 -1 -1 -1 
92 92 92 92 92 92 92 92 92 92 92 92 92 93 93 93 93 93 93 93 93 93 93 93 93 93 93 93 93 93 93 93 93 93 93 92 92 92 92 92 92 92 92 92 92 92 92 92 91 91 91 91 91 91 91 91 91 91 91 91 91 91 91 90 90 90 90 89 89 89 89 88 88 88 87 87 87 90 95 100 104 109 114 118 123 128 133 137 142 147 151 156 161 166 170 175 180 184 189 194 198 203 200 185 171 156 142 128 113 99 90 101 112 123 134 144 155 166 177 175 154 132 111 89 239 197 201 205 236 207 168 130 92 56 56 57 57 57 58 58 58 58 59 59 59 60 60 60 61 61 61 61 62 62 62 63 63 63 63 64 64 64 65 65 65 66 66 66 66 67 67 67 68 68 68 68 69 69 69 70 70 70 71 71 71 71 72 72 72 73 73 73 73 74 74 74 75 75 75 76 76 76 76 77 77 77 78 78 78 78 79 79 79 80 80 80 81 81 81 82 83 86 88 91 94 96 99 91 91 91 91 91 91 91 92 92 97 101 106 111 115 120 125 129 134 131 92 94 96 98 100 103 105 107 109 111 114 116 118 120 122 125 127 129 131 133 136 138 140 142 144 146 149 151 153 155 157 160 152 56 49 42 35 28 21 75 128 182 235 242 91 110 129 115 47 50 53 56 58 61 64 69 74 79 84 89 94 99 103 108 113 118 123 128 133 138 142 147 151 156 161 -1 -1 -1 -1 -1 -1 -1 -1 -1 -1 -1 -1 -1 -1 -1 -1 -1 -1 -1 -1 -1 -1 -1 -1 -1 -1 -1 -1 -1 -1 -1 -1 -1 -1 -1 -1 -1 -1 -1 -1 -1 -1 -1 -1 -1 -1 -1 -1 -1 -1 -1 -1 -1 -1 -1 -1 -1 -1 -1 -1 -1 -1 -1 -1 -1 -1 -1 -1 -1 -1 -1 -1 -1 -1 -1 -1 -1 -1 -1 -1 -1 -1 -1 -1 -1 -1 -1 -1 -1 -1 -1 -1 -1 -1 -1 -1 -1 -1 -1 -1 -1 -1 -1 -1 -1 -1 -1 -1 -1 -1 -1 -1 -1 -1 -1 -1 -1 -1 -1 -1 -1 -1 -1 -1 -1 -1 -1 -1 -1 -1 -1 -1 -1 -1 -1 -1 -1 -1 -1 -1 -1 -1 -1 -1 -1 -1 -1 -1 -1 -1 -1 -1 -1 -1 -1 -1 -1 -1 -1 -1 
92 92 92 92 92 93 93 93 93 93 93 93 93 93 93 93 93 93 93 93 93 93 93 93 93 93 93 93 93 93 93 93 93 93 93 93 92 92 92 92 92 92 92 92 92 92 92 92 92 92 92 92 92 91 91 91 91 91 91 91 91 91 91 91 90 90 90 90 89 89 89 88 88 88 88 87 91 96 101 105 110 115 120 124 129 134 138 143 148 153 157 162 167 171 176 181 185 190 195 200 204 209 201 186 172 157 143 129 114 100 90 101 112 123 134 145 156 166 162 141 119 98 76 55 238 242 246 249 253 215 176 138 99 61 58 58 59 59 59 60 60 60 60 61 61 61 62 62 62 63 63 63 63 64 64 64 65 65 65 65 66 66 66 67 67 67 68 68 68 68 69 69 69 70 70 70 70 71 71 71 72 72 72 73 73 73 73 74 74 74 75 75 75 75 76 76 76 77 77 77 78 78 78 78 79 79 79 80 80 80 80 81 81 81 82 82 82 83 83 83 84 84 84 85 88 91 93 96 96 92 92 92 92 92 92 96 100 105 110 114 119 124 110 93 95 97 99 102 104 106 108 110 113 115 117 119 121 124 126 128 130 132 134 137 139 141 143 145 148 150 152 154 156 159 161 163 165 167 170 74 47 40 33 26 50 110 164 217 247 230 233 100 119 138 48 51 54 57 59 62 65 70 75 80 85 90 95 100 105 110 114 119 124 129 134 139 143 148 153 157 162 -1 -1 -1 -1 -1 -1 -1 -1 -1 -1 -1 -1 -1 -1 -1 -1 -1 -1 -1 -1 -1 -1 -1 -1 -1 -1 -1 -1 -1 -1 -1 -1 -1 -1 -1 -1 -1 -1 -1 -1 -1 -1 -1 -1 -1 -1 -1 -1 -1 -1 -1 -1 -1 -1 -1 -1 -1 -1 -1 -1 -1 -1 -1 -1 -1 -1 -1 -1 -1 -1 -1 -1 -1 -1 -1 -1 -1 -1 -1 -1 -1 -1 -1 -1 -1 -1 -1 -1 -1 -1 -1 -1 -1 -1 -1 -1 -1 -1 -1 -1 -1 -1 -1 -1 -1 -1 -1 -1 -1 -1 -1 -1 -1 -1 -1 -1 -1 -1 -1 -1 -1 -1 -1 -1 -1 -1 -1 -1 -1 -1 -1 -1 -1 -1 -1 -1 -1 -1 -1 -1 -1 -1 -1 -1 -1 -1 -1 -1 -1 -1 -1 -1 -1 -1 -1 -1 -1 -1 -1 -1 
92 92 93 93 93 93 93 93 93 93 93 93 93 93 93 93 93 93 93 93 93 93 93 93 93 93 93 93 93 93 93 93 93 93 93 93 93 92 92 92 92 92 92 92 92 92 92 92 92 92 92 92 92 92 92 92 92 91 91 91 91 91 91 91 91 90 90 90 89 89 89 89 88 88 88 92 97 102 107 111 116 121 125 130 135 140 144 149 154 158 163 168 172 177 182 187 191 196 201 205 210 215 201 187 173 158 144 130 115 101 91 101 112 123 134 145 156 149 128 106 85 63 42 20 116 166 170 191 229 222 184 145 107 68 60 60 60 61 61 61 62 62 62 62 63 63 63 64 64 64 65 65 65 65 66 66 66 67 67 67 67 68 68 68 69 69 69 70 70 70 70 71 71 71 72 72 72 72 73 73 73 74 74 74 75 75 75 75 76 76 76 77 77 77 77 78 78 78 79 79 79 80 80 80 80 81 81 81 82 82 82 82 83 83 83 84 84 84 84 85 85 85 86 86 86 87 88 90 93 95 92 92 92 92 94 99 104 108 113 92 94 96 98 101 103 105 107 109 112 114 116 118 120 123 125 127 129 131 133 136 138 140 142 144 147 149 151 153 155 158 160 162 164 166 168 171 173 175 177 91 45 38 31 24 79 146 199 253 234 219 222 90 109 128 49 52 55 57 60 63 66 71 76 81 86 91 96 101 106 111 116 121 126 130 135 140 145 149 154 158 163 -1 -1 -1 -1 -1 -1 -1 -1 -1 -1 -1 -1 -1 -1 -1 -1 -1 -1 -1 -1 -1 -1 -1 -1 -1 -1 -1 -1 -1 -1 -1 -1 -1 -1 -1 -1 -1 -1 -1 -1 -1 -1 -1 -1 -1 -1 -1 -1 -1 -1 -1 -1 -1 -1 -1 -1 -1 -1 -1 -1 -1 -1 -1 -1 -1 -1 -1 -1 -1 -1 -1 -1 -1 -1 -1 -1 -1 -1 -1 -1 -1 -1 -1 -1 -1 -1 -1 -1 -1 -1 -1 -1 -1 -1 -1 -1 -1 -1 -1 -1 -1 -1 -1 -1 -1 -1 -1 -1 -1 -1 -1 -1 -1 -1 -1 -1 -1 -1 -1 -1 -1 -1 -1 -1 -1 -1 -1 -1 -1 -1 -1 -1 -1 -1 -1 -1 -1 -1 -1 -1 -1 -1 -1 -1 -1 -1 -1 -1 -1 -1 -1 -1 -1 -1 -1 -1 -1 -1 -1 -1 
92 92 93 93 93 93 93 93 93 93 93 93 93 93 93 93 93 93 93 93 93 93 93 93 93 93 93 93 93 93 93 93 93 93 93 93 93 92 92 92 92 92 92 92 92 92 92 92 92 92 92 92 92 92 92 92 92 92 92 92 92 92 91 91 91 90 90 90 90 89 89 89 89 89 94 98 103 108 112 117 122 127 131 136 141 145 150 155 159 164 169 174 178 183 188 192 197 202 207 211 216 217 202 188 174 159 145 130 116 102 91 102 113 123 134 145 136 115 93 71 50 31 24 137 114 91 129 166 204 230 191 153 115 76 62 62 62 62 63 63 63 64 64 64 64 65 65 65 66 66 66 67 67 67 67 68 68 68 69 69 69 69 70 70 70 71 71 71 72 72 72 72 73 73 73 74 74 74 74 75 75 75 76 76 76 77 77 77 77 78 78 78 79 79 79 79 80 80 80 81 81 81 81 82 82 82 83 83 83 84 84 84 84 85 85 85 86 86 86 86 87 87 87 88 88 88 89 89 89 90 92 92 92 93 98 103 93 95 97 100 102 104 106 108 111 113 115 117 119 121 124 126 128 130 132 135 137 139 141 143 146 148 150 152 154 157 159 161 163 165 167 170 172 174 176 178 181 183 185 109 42 35 28 21 108 182 235 240 221 208 211 213 99 118 70 53 56 58 61 64 67 72 77 82 87 92 97 102 107 112 117 122 127 132 137 141 146 150 155 160 164 -1 -1 -1 -1 -1 -1 -1 -1 -1 -1 -1 -1 -1 -1 -1 -1 -1 -1 -1 -1 -1 -1 -1 -1 -1 -1 -1 -1 -1 -1 -1 -1 -1 -1 -1 -1 -1 -1 -1 -1 -1 -1 -1 -1 -1 -1 -1 -1 -1 -1 -1 -1 -1 -1 -1 -1 -1 -1 -1 -1 -1 -1 -1 -1 -1 -1 -1 -1 -1 -1 -1 -1 -1 -1 -1 -1 -1 -1 -1 -1 -1 -1 -1 -1 -1 -1 -1 -1 -1 -1 -1 -1 -1 -1 -1 -1 -1 -1 -1 -1 -1 -1 -1 -1 -1 -1 -1 -1 -1 -1 -1 -1 -1 -1 -1 -1 -1 -1 -1 -1 -1 -1 -1 -1 -1 -1 -1 -1 -1 -1 -1 -1 -1 -1 -1 -1 -1 -1 -1 -1 -1 -1 -1 -1 -1 -1 -1 -1 -1 -1 -1 -1 -1 -1 -1 -1 -1 -1 -1 -1 
92 92 93 93 93 93 93 93 93 93 93 93 93 93 93 93 93 93 93 93 93 93 93 93 93 93 93 93 93 93 93 93 93 93 93 93 93 93 92 92 92 92 92 92 92 92 92 92 92 92 92 92 92 92 92 92 92 92 92 92 92 92 91 91 91 91 90 90 90 90 89 89 90 95 99 104 109 114 118 123 128 132 137 142 146 151 156 161 165 170 175 179 184 189 194 198 203 208 212 217 222 218 203 189 175 160 146 131 117 103 91 102 113 124 135 123 101 80 58 42 35 28 21 253 78 100 104 142 180 217 199 161 122 84 63 64 64 64 64 65 65 65 66 66 66 66 67 67 67 68 68 68 69 69 69 69 70 70 70 71 71 71 71 72 72 72 73 73 73 74 74 74 74 75 75 75 76 76 76 76 77 77 77 78 78 78 78 79 79 79 80 80 80 81 81 81 81 82 82 82 83 83 83 83 84 84 84 85 85 85 86 86 86 86 87 87 87 88 88 88 88 89 89 89 90 90 90 91 91 91 91 92 92 94 96 99 101 103 105 107 110 112 114 116 118 120 123 125 127 129 131 134 136 138 140 142 145 147 149 151 153 155 158 160 162 164 166 169 171 173 175 177 180 182 184 186 188 191 193 126 40 33 26 50 137 217 247 227 208 196 199 202 89 108 128 54 57 59 62 65 69 74 79 83 88 93 98 103 108 113 118 123 128 133 138 142 147 152 156 161 165 -1 -1 -1 -1 -1 -1 -1 -1 -1 -1 -1 -1 -1 -1 -1 -1 -1 -1 -1 -1 -1 -1 -1 -1 -1 -1 -1 -1 -1 -1 -1 -1 -1 -1 -1 -1 -1 -1 -1 -1 -1 -1 -1 -1 -1 -1 -1 -1 -1 -1 -1 -1 -1 -1 -1 -1 -1 -1 -1 -1 -1 -1 -1 -1 -1 -1 -1 -1 -1 -1 -1 -1 -1 -1 -1 -1 -1 -1 -1 -1 -1 -1 -1 -1 -1 -1 -1 -1 -1 -1 -1 -1 -1 -1 -1 -1 -1 -1 -1 -1 -1 -1 -1 -1 -1 -1 -1 -1 -1 -1 -1 -1 -1 -1 -1 -1 -1 -1 -1 -1 -1 -1 -1 -1 -1 -1 -1 -1 -1 -1 -1 -1 -1 -1 -1 -1 -1 -1 -1 -1 -1 -1 -1 -1 -1 -1 -1 -1 -1 -1 -1 -1 -1 -1 -1 -1 -1 -1 -1 -1 
92 92 93 93 93 93 93 93 93 93 93 93 93 93 93 93 93 93 93 93 93 93 93 93 93 93 93 93 93 93 93 93 93 93 93 93 93 93 93 92 92 92 92 92 92 92 92 92 92 92 92 92 92 92 92 92 92 92 92 92 92 92 92 91 91 91 91 90 90 90 90 91 96 101 105 110 115 119 124 129 133 138 143 148 152 157 162 166 171 176 181 185 190 195 199 204 209 213 218 223 228 219 204 190 175 161 147 132 118 104 91 102 113 124 110 88 67 53 46 39 32 25 18 65 111 109 95 118 155 193 207 168 130 91 65 65 66 66 66 66 67 67 67 68 68 68 68 69 69 69 70 70 70 71 71 71 71 72 72 72 73 73 73 73 74 74 74 75 75 75 76 76 76 76 77 77 77 78 78 78 78 79 79 79 80 80 80 80 81 81 81 82 82 82 83 83 83 83 84 84 84 85 85 85 85 86 86 86 87 87 87 88 88 88 88 89 89 89 90 90 90 90 91 91 91 92 92 94 96 98 101 103 104 106 107 109 110 112 113 115 117 119 122 124 126 128 130 133 135 137 139 141 144 146 148 150 152 154 157 159 161 163 165 168 170 172 174 176 179 181 183 185 187 189 192 194 196 198 200 144 48 31 24 79 166 253 234 214 195 185 188 191 193 98 118 55 57 60 63 66 70 75 80 85 90 94 99 104 109 114 119 124 129 134 139 144 148 153 157 162 167 -1 -1 -1 -1 -1 -1 -1 -1 -1 -1 -1 -1 -1 -1 -1 -1 -1 -1 -1 -1 -1 -1 -1 -1 -1 -1 -1 -1 -1 -1 -1 -1 -1 -1 -1 -1 -1 -1 -1 -1 -1 -1 -1 -1 -1 -1 -1 -1 -1 -1 -1 -1 -1 -1 -1 -1 -1 -1 -1 -1 -1 -1 -1 -1 -1 -1 -1 -1 -1 -1 -1 -1 -1 -1 -1 -1 -1 -1 -1 -1 -1 -1 -1 -1 -1 -1 -1 -1 -1 -1 -1 -1 -1 -1 -1 -1 -1 -1 -1 -1 -1 -1 -1 -1 -1 -1 -1 -1 -1 -1 -1 -1 -1 -1 -1 -1 -1 -1 -1 -1 -1 -1 -1 -1 -1 -1 -1 -1 -1 -1 -1 -1 -1 -1 -1 -1 -1 -1 -1 -1 -1 -1 -1 -1 -1 -1 -1 -1 -1 -1 -1 -1 -1 -1 -1 -1 -1 -1 -1 -1 
92 93 93 93 93 93 93 93 93 93 93 93 93 93 93 93 93 93 93 93 93 93 93 93 93 93 93 93 93 93 93 93 93 93 93 93 93 93 93 93 92 92 92 92 92 92 92 92 92 92 92 92 92 92 92 92 92 92 92 92 92 92 92 92 91 91 91 91 90 90 92 97 102 106 111 116 120 125 130 135 139 144 149 153 158 163 168 172 177 182 186 191 196 200 205 210 215 219 224 229 233 220 205 191 176 162 148 133 119 105 92 102 113 97 75 63 56 50 43 51 60 59 52 98 133 119 104 93 131 169 206 176 138 99 67 67 67 68 68 68 68 69 69 69 70 70 70 70 71 71 71 72 72 72 73 73 73 73 74 74 74 75 75 75 75 76 76 76 77 77 77 77 78 78 78 79 79 79 80 80 80 80 81 81 81 82 82 82 82 83 83 83 84 84 84 85 85 85 85 86 86 86 87 87 87 87 88 88 88 89 89 89 90 90 90 90 91 91 91 92 92 94 96 98 101 103 105 107 109 111 113 116 117 117 119 121 122 124 125 127 128 130 132 133 135 136 138 140 142 145 147 149 151 153 156 158 160 162 164 167 169 171 173 175 178 180 182 184 186 188 191 193 195 197 199 202 204 206 208 161 65 29 22 108 195 223 221 201 182 174 177 179 182 88 108 56 58 61 64 67 71 76 81 86 91 96 101 106 110 115 120 125 130 135 140 145 149 154 159 163 168 -1 -1 -1 -1 -1 -1 -1 -1 -1 -1 -1 -1 -1 -1 -1 -1 -1 -1 -1 -1 -1 -1 -1 -1 -1 -1 -1 -1 -1 -1 -1 -1 -1 -1 -1 -1 -1 -1 -1 -1 -1 -1 -1 -1 -1 -1 -1 -1 -1 -1 -1 -1 -1 -1 -1 -1 -1 -1 -1 -1 -1 -1 -1 -1 -1 -1 -1 -1 -1 -1 -1 -1 -1 -1 -1 -1 -1 -1 -1 -1 -1 -1 -1 -1 -1 -1 -1 -1 -1 -1 -1 -1 -1 -1 -1 -1 -1 -1 -1 -1 -1 -1 -1 -1 -1 -1 -1 -1 -1 -1 -1 -1 -1 -1 -1 -1 -1 -1 -1 -1 -1 -1 -1 -1 -1 -1 -1 -1 -1 -1 -1 -1 -1 -1 -1 -1 -1 -1 -1 -1 -1 -1 -1 -1 -1 -1 -1 -1 -1 -1 -1 -1 -1 -1 -1 -1 -1 -1 -1 -1 
92 93 93 93 93 93 93 93 93 93 93 93 93 93 93 93 93 93 93 93 93 93 93 93 93 93 93 93 93 93 93 93 93 93 93 93 93 93 93 93 92 92 92 92 92 92 92 92 92 92 92 92 92 92 92 92 92 92 92 92 92 92 92 92 92 91 91 91 91 93 98 103 107 112 117 122 126 131 136 140 145 150 155 159 164 169 173 178 183 187 192 197 202 206 211 216 220 225 230 235 235 220 206 192 177 163 149 134 120 105 92 103 84 74 67 76 84 93 101 110 100 85 85 132 142 128 114 99 107 144 182 184 145 107 68 69 69 69 70 70 70 70 71 71 71 72 72 72 72 73 73 73 74 74 74 74 75 75 75 76 76 76 77 77 77 77 78 78 78 79 79 79 79 80 80 80 81 81 81 82 82 82 82 83 83 83 84 84 84 84 85 85 85 86 86 86 87 87 87 87 88 88 88 89 89 89 89 90 90 90 91 91 91 92 92 94 96 98 100 103 105 107 109 111 113 116 118 120 122 124 126 129 129 129 131 133 134 136 137 139 140 142 143 145 147 148 150 151 153 154 156 158 159 161 163 166 168 170 172 174 176 179 181 183 185 187 190 192 194 196 198 201 203 205 207 209 212 214 216 179 83 26 51 138 165 192 208 189 169 163 165 168 171 173 98 117 59 62 65 67 72 77 82 87 92 97 102 107 112 117 122 126 131 136 141 146 151 155 160 164 169 -1 -1 -1 -1 -1 -1 -1 -1 -1 -1 -1 -1 -1 -1 -1 -1 -1 -1 -1 -1 -1 -1 -1 -1 -1 -1 -1 -1 -1 -1 -1 -1 -1 -1 -1 -1 -1 -1 -1 -1 -1 -1 -1 -1 -1 -1 -1 -1 -1 -1 -1 -1 -1 -1 -1 -1 -1 -1 -1 -1 -1 -1 -1 -1 -1 -1 -1 -1 -1 -1 -1 -1 -1 -1 -1 -1 -1 -1 -1 -1 -1 -1 -1 -1 -1 -1 -1 -1 -1 -1 -1 -1 -1 -1 -1 -1 -1 -1 -1 -1 -1 -1 -1 -1 -1 -1 -1 -1 -1 -1 -1 -1 -1 -1 -1 -1 -1 -1 -1 -1 -1 -1 -1 -1 -1 -1 -1 -1 -1 -1 -1 -1 -1 -1 -1 -1 -1 -1 -1 -1 -1 -1 -1 -1 -1 -1 -1 -1 -1 -1 -1 -1 -1 -1 -1 -1 -1 -1 -1 -1 
92 93 93 93 93 93 93 93 93 93 93 93 93 93 93 93 93 93 93 93 93 93 93 93 93 93 93 93 93 93 93 93 93 93 93 93 93 93 93 93 93 92 92 92 92 92 92 92 92 92 92 92 92 92 92 92 92 92 92 92 92 92 92 92 92 92 91 91 94 99 104 109 113 118 123 127 132 137 142 146 151 156 160 165 170 174 179 184 189 193 198 203 207 212 217 222 226 231 236 240 236 221 207 193 178 164 150 135 121 106 92 101 109 118 126 135 143 152 155 140 126 111 119 166 151 137 123 109 94 120 158 191 153 114 76 70 71 71 71 71 72 72 72 73 73 73 74 74 74 74 75 75 75 76 76 76 76 77 77 77 78 78 78 79 79 79 79 80 80 80 81 81 81 81 82 82 82 83 83 83 84 84 84 84 85 85 85 86 86 86 86 87 87 87 88 88 88 89 89 89 89 90 90 90 91 91 91 91 92 94 96 98 100 103 105 107 109 111 113 116 118 120 122 124 126 128 131 133 135 137 139 141 141 141 143 144 146 148 149 151 152 154 155 157 159 160 162 163 165 166 168 169 171 173 174 176 177 179 180 182 184 186 189 191 193 195 197 200 202 204 206 208 210 213 215 217 219 221 224 196 100 24 80 107 134 162 189 176 156 151 154 157 159 162 88 107 60 63 66 68 73 78 83 88 93 98 103 108 113 118 123 128 133 138 142 147 152 156 161 166 170 -1 -1 -1 -1 -1 -1 -1 -1 -1 -1 -1 -1 -1 -1 -1 -1 -1 -1 -1 -1 -1 -1 -1 -1 -1 -1 -1 -1 -1 -1 -1 -1 -1 -1 -1 -1 -1 -1 -1 -1 -1 -1 -1 -1 -1 -1 -1 -1 -1 -1 -1 -1 -1 -1 -1 -1 -1 -1 -1 -1 -1 -1 -1 -1 -1 -1 -1 -1 -1 -1 -1 -1 -1 -1 -1 -1 -1 -1 -1 -1 -1 -1 -1 -1 -1 -1 -1 -1 -1 -1 -1 -1 -1 -1 -1 -1 -1 -1 -1 -1 -1 -1 -1 -1 -1 -1 -1 -1 -1 -1 -1 -1 -1 -1 -1 -1 -1 -1 -1 -1 -1 -1 -1 -1 -1 -1 -1 -1 -1 -1 -1 -1 -1 -1 -1 -1 -1 -1 -1 -1 -1 -1 -1 -1 -1 -1 -1 -1 -1 -1 -1 -1 -1 -1 -1 -1 -1 -1 -1 -1 
92 93 93 93 93 93 93 93 93 93 93 93 93 93 93 93 93 93 93 93 93 93 93 93 93 93 93 93 93 93 93 93 93 93 93 93 93 93 93 93 93 93 92 92 92 92 92 92 92 92 92 92 92 92 92 92 92 92 92 92 92 92 92 92 92 92 92 96 100 105 110 114 119 124 129 133 138 143 147 152 157 161 166 171 176 180 185 190 194 199 204 209 213 218 223 227 232 237 241 246 237 222 208 194 179 167 158 149 140 131 132 171 172 176 185 193 202 196 181 166 151 136 152 175 160 146 132 118 104 95 133 171 161 122 84 72 72 73 73 73 73 74 74 74 75 75 75 76 76 76 76 77 77 77 78 78 78 78 79 79 79 80 80 80 81 81 81 81 82 82 82 83 83 83 83 84 84 84 85 85 85 86 86 86 86 87 87 87 88 88 88 88 89 89 89 90 90 90 91 91 91 91 92 94 96 98 100 102 105 107 109 111 113 115 118 120 122 124 126 128 131 133 135 137 139 141 144 146 148 150 152 153 153 154 155 156 158 160 161 163 164 166 167 169 170 172 174 175 177 178 180 181 183 185 186 188 189 191 192 194 195 197 199 200 202 203 205 207 209 212 214 216 218 220 223 225 227 229 231 214 118 22 49 77 104 131 159 163 144 140 143 145 148 151 154 97 61 64 67 70 74 79 84 89 94 99 104 109 114 119 124 129 134 139 144 148 153 158 162 167 171 -1 -1 -1 -1 -1 -1 -1 -1 -1 -1 -1 -1 -1 -1 -1 -1 -1 -1 -1 -1 -1 -1 -1 -1 -1 -1 -1 -1 -1 -1 -1 -1 -1 -1 -1 -1 -1 -1 -1 -1 -1 -1 -1 -1 -1 -1 -1 -1 -1 -1 -1 -1 -1 -1 -1 -1 -1 -1 -1 -1 -1 -1 -1 -1 -1 -1 -1 -1 -1 -1 -1 -1 -1 -1 -1 -1 -1 -1 -1 -1 -1 -1 -1 -1 -1 -1 -1 -1 -1 -1 -1 -1 -1 -1 -1 -1 -1 -1 -1 -1 -1 -1 -1 -1 -1 -1 -1 -1 -1 -1 -1 -1 -1 -1 -1 -1 -1 -1 -1 -1 -1 -1 -1 -1 -1 -1 -1 -1 -1 -1 -1 -1 -1 -1 -1 -1 -1 -1 -1 -1 -1 -1 -1 -1 -1 -1 -1 -1 -1 -1 -1 -1 -1 -1 -1 -1 -1 -1 -1 -1 
92 93 93 93 93 93 93 93 93 93 93 93 93 93 93 93 93 93 93 93 93 93 93 93 93 93 93 93 93 93 93 94 94 94 94 94 94 94 93 93 93 93 93 92 92 92 92 92 92 92 92 92 92 92 92 92 92 92 92 92 92 92 92 92 92 92 97 101 106 111 116 120 125 130 134 139 144 148 153 158 163 167 172 177 181 186 191 196 200 205 210 214 219 224 228 233 238 243 247 252 243 234 225 216 207 197 188 179 170 161 171 211 250 251 251 252 237 222 207 192 177 162 186 184 170 155 141 127 113 99 109 146 168 130 91 74 74 74 75 75 75 75 76 76 76 77 77 77 78 78 78 78 79 79 79 80 80 80 80 81 81 81 82 82 82 83 83 83 83 84 84 84 85 85 85 85 86 86 86 87 87 87 88 88 88 88 89 89 89 90 90 90 90 91 91 91 92 94 96 98 100 102 105 107 109 111 113 115 118 120 122 124 126 128 130 133 135 137 139 141 143 146 148 150 152 154 156 159 161 163 165 166 166 166 167 168 170 171 173 175 176 178 179 181 182 184 186 187 189 190 192 193 195 196 198 200 201 203 204 206 207 209 211 212 214 215 217 218 220 221 223 225 226 228 230 233 235 237 239 231 136 136 81 46 74 101 128 150 131 129 131 134 137 140 142 87 72 65 68 71 76 81 86 90 95 100 105 110 115 120 125 130 135 140 145 150 154 159 163 168 173 -1 -1 -1 -1 -1 -1 -1 -1 -1 -1 -1 -1 -1 -1 -1 -1 -1 -1 -1 -1 -1 -1 -1 -1 -1 -1 -1 -1 -1 -1 -1 -1 -1 -1 -1 -1 -1 -1 -1 -1 -1 -1 -1 -1 -1 -1 -1 -1 -1 -1 -1 -1 -1 -1 -1 -1 -1 -1 -1 -1 -1 -1 -1 -1 -1 -1 -1 -1 -1 -1 -1 -1 -1 -1 -1 -1 -1 -1 -1 -1 -1 -1 -1 -1 -1 -1 -1 -1 -1 -1 -1 -1 -1 -1 -1 -1 -1 -1 -1 -1 -1 -1 -1 -1 -1 -1 -1 -1 -1 -1 -1 -1 -1 -1 -1 -1 -1 -1 -1 -1 -1 -1 -1 -1 -1 -1 -1 -1 -1 -1 -1 -1 -1 -1 -1 -1 -1 -1 -1 -1 -1 -1 -1 -1 -1 -1 -1 -1 -1 -1 -1 -1 -1 -1 -1 -1 -1 -1 -1 -1 
92 93 93 93 93 93 93 93 93 93 93 93 93 93 93 93 93 93 93 93 93 93 93 94 94 94 94 94 94 94 94 94 94 94 94 94 94 94 93 93 93 93 93 92 92 92 92 92 92 92 92 92 92 92 92 92 92 92 92 92 92 92 92 92 92 97 104 109 114 118 123 128 132 137 142 147 151 156 161 165 170 175 179 184 189 194 198 203 208 212 217 222 227 231 236 241 245 250 193 91 139 187 236 246 237 227 218 209 200 191 211 250 210 90 125 160 195 248 233 218 203 188 207 193 179 165 150 136 122 108 94 122 160 137 99 75 76 76 76 77 77 77 77 78 78 78 79 79 79 80 80 80 80 81 81 81 82 82 82 82 83 83 83 84 84 84 85 85 85 85 86 86 86 87 87 87 87 88 88 88 89 89 89 90 90 90 90 91 91 91 92 94 96 98 100 102 105 107 109 111 113 115 117 120 122 124 126 128 130 133 135 137 139 141 143 146 148 150 152 154 156 159 161 163 165 167 169 171 174 176 178 178 178 178 179 180 182 183 185 187 188 190 191 193 194 196 197 199 201 202 204 205 207 208 210 212 213 215 216 218 219 221 222 224 226 227 229 230 232 233 235 237 238 240 241 243 244 246 247 249 250 250 195 140 85 71 98 125 118 117 120 123 126 128 131 134 96 66 68 72 77 82 87 92 97 102 106 111 116 121 126 131 136 141 146 151 155 160 165 169 174 -1 -1 -1 -1 -1 -1 -1 -1 -1 -1 -1 -1 -1 -1 -1 -1 -1 -1 -1 -1 -1 -1 -1 -1 -1 -1 -1 -1 -1 -1 -1 -1 -1 -1 -1 -1 -1 -1 -1 -1 -1 -1 -1 -1 -1 -1 -1 -1 -1 -1 -1 -1 -1 -1 -1 -1 -1 -1 -1 -1 -1 -1 -1 -1 -1 -1 -1 -1 -1 -1 -1 -1 -1 -1 -1 -1 -1 -1 -1 -1 -1 -1 -1 -1 -1 -1 -1 -1 -1 -1 -1 -1 -1 -1 -1 -1 -1 -1 -1 -1 -1 -1 -1 -1 -1 -1 -1 -1 -1 -1 -1 -1 -1 -1 -1 -1 -1 -1 -1 -1 -1 -1 -1 -1 -1 -1 -1 -1 -1 -1 -1 -1 -1 -1 -1 -1 -1 -1 -1 -1 -1 -1 -1 -1 -1 -1 -1 -1 -1 -1 -1 -1 -1 -1 -1 -1 -1 -1 -1 -1 
93 93 93 93 93 93 93 93 93 93 93 93 93 93 93 93 94 94 94 94 94 94 94 94 94 94 94 94 94 94 94 94 94 94 94 94 94 94 94 93 93 93 93 93 93 93 92 92 92 92 92 92 92 92 92 92 92 92 92 92 92 92 92 92 94 101 108 115 121 126 130 135 140 145 149 154 159 163 168 173 177 182 187 192 196 201 206 210 215 220 225 229 234 239 243 248 235 133 103 100 98 95 93 111 171 219 248 239 230 221 251 251 171 146 122 68 103 138 191 244 229 214 217 202 188 174 160 145 131 117 103 98 135 145 107 77 77 78 78 78 79 79 79 79 80 80 80 81 81 81 82 82 82 82 83 83 83 84 84 84 84 85 85 85 86 86 86 87 87 87 87 88 88 88 89 89 89 89 90 90 90 91 91 91 92 94 96 98 100 102 104 107 109 111 113 115 117 120 122 124 126 128 130 133 135 137 139 141 143 145 148 150 152 154 156 158 161 163 165 167 169 171 174 176 178 180 182 184 187 189 190 190 190 190 191 192 194 195 197 199 200 202 203 205 206 208 209 211 213 214 216 217 219 220 222 223 225 227 228 230 231 233 234 236 238 239 241 242 244 245 247 248 249 249 249 249 249 249 249 192 20 242 222 202 181 143 88 95 105 106 109 111 114 117 120 122 86 67 69 73 78 83 88 93 98 103 108 113 118 122 127 132 137 142 147 152 157 161 166 170 175 -1 -1 -1 -1 -1 -1 -1 -1 -1 -1 -1 -1 -1 -1 -1 -1 -1 -1 -1 -1 -1 -1 -1 -1 -1 -1 -1 -1 -1 -1 -1 -1 -1 -1 -1 -1 -1 -1 -1 -1 -1 -1 -1 -1 -1 -1 -1 -1 -1 -1 -1 -1 -1 -1 -1 -1 -1 -1 -1 -1 -1 -1 -1 -1 -1 -1 -1 -1 -1 -1 -1 -1 -1 -1 -1 -1 -1 -1 -1 -1 -1 -1 -1 -1 -1 -1 -1 -1 -1 -1 -1 -1 -1 -1 -1 -1 -1 -1 -1 -1 -1 -1 -1 -1 -1 -1 -1 -1 -1 -1 -1 -1 -1 -1 -1 -1 -1 -1 -1 -1 -1 -1 -1 -1 -1 -1 -1 -1 -1 -1 -1 -1 -1 -1 -1 -1 -1 -1 -1 -1 -1 -1 -1 -1 -1 -1 -1 -1 -1 -1 -1 -1 -1 -1 -1 -1 -1 -1 -1 -1 
93 93 93 93 93 93 93 93 94 94 94 94 94 94 94 94 94 94 94 94 94 94 94 94 94 94 94 94 94 94 94 94 94 94 94 94 94 94 94 94 93 93 93 93 93 93 93 93 93 93 92 92 92 92 92 92 92 92 92 92 92 92 92 92 99 106 113 120 127 133 138 143 147 152 157 161 166 171 176 180 185 190 194 199 204 208 213 218 223 227 232 237 241 246 251 176 119 116 113 110 107 104 102 100 97 95 92 132 191 251 251 251 227 202 178 154 100 46 81 134 187 240 226 212 197 183 169 155 140 126 112 98 111 149 114 79 79 79 80 80 80 81 81 81 81 82 82 82 83 83 83 84 84 84 84 85 85 85 86 86 86 86 87 87 87 88 88 88 89 89 89 89 90 90 90 91 91 91 91 94 96 98 100 102 104 107 109 111 113 115 117 120 122 124 126 128 130 132 135 137 139 141 143 145 148 150 152 154 156 158 161 163 165 167 169 171 174 176 178 180 182 184 186 189 191 193 195 197 199 202 202 202 202 203 203 204 206 207 209 210 212 214 215 217 218 220 221 223 225 226 228 229 231 232 234 235 237 239 240 242 243 245 246 248 249 250 250 250 250 250 250 250 249 249 249 249 249 249 249 135 134 234 214 194 173 153 133 112 92 95 97 100 103 106 108 111 114 68 70 74 79 84 89 94 99 104 109 114 119 124 129 134 138 143 148 153 158 162 167 172 176 -1 -1 -1 -1 -1 -1 -1 -1 -1 -1 -1 -1 -1 -1 -1 -1 -1 -1 -1 -1 -1 -1 -1 -1 -1 -1 -1 -1 -1 -1 -1 -1 -1 -1 -1 -1 -1 -1 -1 -1 -1 -1 -1 -1 -1 -1 -1 -1 -1 -1 -1 -1 -1 -1 -1 -1 -1 -1 -1 -1 -1 -1 -1 -1 -1 -1 -1 -1 -1 -1 -1 -1 -1 -1 -1 -1 -1 -1 -1 -1 -1 -1 -1 -1 -1 -1 -1 -1 -1 -1 -1 -1 -1 -1 -1 -1 -1 -1 -1 -1 -1 -1 -1 -1 -1 -1 -1 -1 -1 -1 -1 -1 -1 -1 -1 -1 -1 -1 -1 -1 -1 -1 -1 -1 -1 -1 -1 -1 -1 -1 -1 -1 -1 -1 -1 -1 -1 -1 -1 -1 -1 -1 -1 -1 -1 -1 -1 -1 -1 -1 -1 -1 -1 -1 -1 -1 -1 -1 -1 -1 
93 93 94 94 94 94 94 94 94 94 94 94 94 94 94 94 94 94 94 94 94 94 94 94 94 94 94 94 94 94 94 94 94 94 94 94 94 94 94 94 94 93 93 93 93 93 93 93 93 93 93 93 93 93 93 92 92 92 92 92 92 92 92 96 103 110 117 124 131 138 145 150 155 159 164 169 174 178 183 188 192 197 202 207 211 216 221 225 230 235 239 244 249 218 134 131 128 125 122 119 116 114 111 109 106 104 102 99 97 94 92 129 165 218 234 210 185 132 78 24 243 239 230 220 207 192 178 164 150 135 121 107 93 124 122 83 81 81 81 82 82 82 83 83 83 83 84 84 84 85 85 85 86 86 86 86 87 87 87 88 88 88 88 89 89 89 90 90 90 90 91 91 91 94 96 98 100 102 104 106 109 111 113 115 117 119 122 124 126 128 130 132 135 137 139 141 143 145 148 150 152 154 156 158 160 163 165 167 169 171 173 176 178 180 182 184 186 189 191 193 195 197 199 202 204 206 208 210 212 214 214 215 215 215 215 216 218 219 221 222 224 226 227 229 230 232 233 235 236 238 240 241 243 244 246 247 249 251 250 250 250 250 250 250 250 250 250 250 250 250 250 250 249 249 249 249 249 249 249 78 247 229 212 194 176 159 141 124 106 132 102 89 92 94 97 100 102 85 71 75 80 85 90 95 100 105 110 115 120 125 130 135 140 145 149 154 159 164 168 173 177 -1 -1 -1 -1 -1 -1 -1 -1 -1 -1 -1 -1 -1 -1 -1 -1 -1 -1 -1 -1 -1 -1 -1 -1 -1 -1 -1 -1 -1 -1 -1 -1 -1 -1 -1 -1 -1 -1 -1 -1 -1 -1 -1 -1 -1 -1 -1 -1 -1 -1 -1 -1 -1 -1 -1 -1 -1 -1 -1 -1 -1 -1 -1 -1 -1 -1 -1 -1 -1 -1 -1 -1 -1 -1 -1 -1 -1 -1 -1 -1 -1 -1 -1 -1 -1 -1 -1 -1 -1 -1 -1 -1 -1 -1 -1 -1 -1 -1 -1 -1 -1 -1 -1 -1 -1 -1 -1 -1 -1 -1 -1 -1 -1 -1 -1 -1 -1 -1 -1 -1 -1 -1 -1 -1 -1 -1 -1 -1 -1 -1 -1 -1 -1 -1 -1 -1 -1 -1 -1 -1 -1 -1 -1 -1 -1 -1 -1 -1 -1 -1 -1 -1 -1 -1 -1 -1 -1 -1 -1 -1 
93 93 94 94 94 94 94 94 94 94 94 94 94 94 94 94 94 94 94 94 94 94 94 94 94 94 94 94 94 94 94 94 94 94 94 94 94 94 94 94 94 93 93 93 93 93 93 93 93 93 93 93 93 93 93 93 93 93 93 93 92 92 94 101 108 115 122 129 136 143 150 157 162 167 172 176 181 186 190 195 200 205 209 214 219 223 228 233 237 242 247 252 159 147 144 141 138 135 132 129 126 123 120 118 116 113 111 108 106 104 102 106 83 80 117 184 242 217 163 246 183 238 229 219 210 200 187 173 159 145 130 116 102 100 130 91 83 83 83 83 84 84 84 85 85 85 85 86 86 86 87 87 87 87 88 88 88 89 89 89 90 90 90 90 91 91 91 93 96 98 100 102 104 106 109 111 113 115 117 119 122 124 126 128 130 132 135 137 139 141 143 145 147 150 152 154 156 158 160 163 165 167 169 171 173 176 178 180 182 184 186 188 191 193 195 197 199 201 204 206 208 210 212 214 217 219 221 223 225 227 227 227 227 227 227 228 230 231 233 234 236 237 239 241 242 244 245 247 248 250 251 251 251 251 251 251 251 250 250 250 250 250 250 250 250 250 250 250 250 250 250 250 249 249 249 249 249 249 249 21 68 115 161 208 190 173 155 137 120 102 173 143 113 83 86 88 91 94 72 77 82 86 91 96 101 106 111 116 121 126 131 136 141 146 151 156 160 165 169 174 179 -1 -1 -1 -1 -1 -1 -1 -1 -1 -1 -1 -1 -1 -1 -1 -1 -1 -1 -1 -1 -1 -1 -1 -1 -1 -1 -1 -1 -1 -1 -1 -1 -1 -1 -1 -1 -1 -1 -1 -1 -1 -1 -1 -1 -1 -1 -1 -1 -1 -1 -1 -1 -1 -1 -1 -1 -1 -1 -1 -1 -1 -1 -1 -1 -1 -1 -1 -1 -1 -1 -1 -1 -1 -1 -1 -1 -1 -1 -1 -1 -1 -1 -1 -1 -1 -1 -1 -1 -1 -1 -1 -1 -1 -1 -1 -1 -1 -1 -1 -1 -1 -1 -1 -1 -1 -1 -1 -1 -1 -1 -1 -1 -1 -1 -1 -1 -1 -1 -1 -1 -1 -1 -1 -1 -1 -1 -1 -1 -1 -1 -1 -1 -1 -1 -1 -1 -1 -1 -1 -1 -1 -1 -1 -1 -1 -1 -1 -1 -1 -1 -1 -1 -1 -1 -1 -1 -1 -1 -1 -1 
93 93 94 94 94 94 94 94 94 94 94 94 94 94 94 94 94 94 94 94 94 94 94 94 94 94 94 94 94 94 94 94 94 94 94 94 94 94 94 94 94 94 93 93 93 93 93 93 93 93 93 93 93 93 93 93 93 93 93 93 93 93 98 105 112 119 126 133 140 147 154 161 168 174 179 184 188 193 198 203 207 212 217 221 226 231 236 240 245 250 201 162 159 156 153 150 147 144 141 138 135 132 130 127 125 122 120 118 115 113 112 125 120 97 74 51 68 151 249 101 208 237 228 218 209 199 190 180 168 154 140 125 111 97 113 99 84 84 85 85 85 86 86 86 87 87 87 87 88 88 88 89 89 89 89 90 90 90 91 91 91 93 96 98 100 102 104 106 109 111 113 115 117 119 121 124 126 128 130 132 134 137 139 141 143 145 147 150 152 154 156 158 160 163 165 167 169 171 173 175 178 180 182 184 186 188 191 193 195 197 199 201 204 206 208 210 212 214 217 219 221 223 225 227 229 232 234 236 238 239 239 239 239 239 240 240 242 243 245 246 248 249 251 251 251 251 251 251 251 251 251 251 251 251 251 251 251 250 250 250 250 250 250 250 250 250 250 250 250 250 250 249 249 249 249 249 249 249 221 65 60 55 51 46 76 122 169 151 134 116 98 213 183 153 123 93 80 83 73 78 83 88 93 98 102 107 112 117 122 127 132 137 142 147 152 157 161 166 171 175 180 -1 -1 -1 -1 -1 -1 -1 -1 -1 -1 -1 -1 -1 -1 -1 -1 -1 -1 -1 -1 -1 -1 -1 -1 -1 -1 -1 -1 -1 -1 -1 -1 -1 -1 -1 -1 -1 -1 -1 -1 -1 -1 -1 -1 -1 -1 -1 -1 -1 -1 -1 -1 -1 -1 -1 -1 -1 -1 -1 -1 -1 -1 -1 -1 -1 -1 -1 -1 -1 -1 -1 -1 -1 -1 -1 -1 -1 -1 -1 -1 -1 -1 -1 -1 -1 -1 -1 -1 -1 -1 -1 -1 -1 -1 -1 -1 -1 -1 -1 -1 -1 -1 -1 -1 -1 -1 -1 -1 -1 -1 -1 -1 -1 -1 -1 -1 -1 -1 -1 -1 -1 -1 -1 -1 -1 -1 -1 -1 -1 -1 -1 -1 -1 -1 -1 -1 -1 -1 -1 -1 -1 -1 -1 -1 -1 -1 -1 -1 -1 -1 -1 -1 -1 -1 -1 -1 -1 -1 -1 -1 
93 93 94 94 94 94 94 94 94 94 94 94 94 94 94 94 94 94 94 94 94 94 94 94 94 94 94 94 94 94 94 94 94 94 94 94 94 94 94 94 94 94 94 93 93 93 93 93 93 93 93 93 93 93 93 93 93 93 93 93 93 96 103 110 117 124 131 138 145 152 159 166 173 180 187 191 196 201 205 210 215 219 224 229 234 238 243 248 244 178 175 172 169 166 163 160 157 154 151 148 145 142 139 136 134 131 129 127 124 122 122 135 148 134 111 88 65 42 19 126 233 236 227 217 208 198 189 179 170 160 149 135 120 106 92 106 86 86 86 87 87 87 88 88 88 89 89 89 89 90 90 90 91 91 91 93 96 98 100 102 104 106 108 111 113 115 117 119 121 124 126 128 130 132 134 137 139 141 143 145 147 149 152 154 156 158 160 162 165 167 169 171 173 175 178 180 182 184 186 188 191 193 195 197 199 201 203 206 208 210 212 214 216 219 221 223 225 227 229 232 234 236 238 240 242 245 247 249 251 251 251 251 252 252 252 252 252 252 252 252 252 252 252 251 251 251 251 251 251 251 251 251 251 251 251 251 251 250 250 250 250 250 250 250 250 250 250 250 250 250 250 249 249 249 249 249 249 249 164 108 104 99 94 90 85 80 76 71 83 130 112 95 253 223 193 164 134 104 74 79 84 89 94 99 104 109 114 118 123 128 133 138 143 148 153 158 163 167 172 176 181 -1 -1 -1 -1 -1 -1 -1 -1 -1 -1 -1 -1 -1 -1 -1 -1 -1 -1 -1 -1 -1 -1 -1 -1 -1 -1 -1 -1 -1 -1 -1 -1 -1 -1 -1 -1 -1 -1 -1 -1 -1 -1 -1 -1 -1 -1 -1 -1 -1 -1 -1 -1 -1 -1 -1 -1 -1 -1 -1 -1 -1 -1 -1 -1 -1 -1 -1 -1 -1 -1 -1 -1 -1 -1 -1 -1 -1 -1 -1 -1 -1 -1 -1 -1 -1 -1 -1 -1 -1 -1 -1 -1 -1 -1 -1 -1 -1 -1 -1 -1 -1 -1 -1 -1 -1 -1 -1 -1 -1 -1 -1 -1 -1 -1 -1 -1 -1 -1 -1 -1 -1 -1 -1 -1 -1 -1 -1 -1 -1 -1 -1 -1 -1 -1 -1 -1 -1 -1 -1 -1 -1 -1 -1 -1 -1 -1 -1 -1 -1 -1 -1 -1 -1 -1 -1 -1 -1 -1 -1 -1 
93 93 94 94 94 94 94 94 94 94 94 94 94 94 94 94 94 94 94 94 94 94 94 94 94 94 94 94 94 94 94 94 94 94 94 94 94 94 94 94 94 94 94 94 93 93 93 93 93 93 93 93 93 93 93 93 93 93 93 93 93 100 107 114 121 128 135 143 150 157 164 171 178 185 192 199 203 208 213 217 222 227 232 236 241 246 250 193 190 187 184 181 178 175 172 169 166 163 160 157 154 151 148 145 143 141 138 136 133 131 132 145 158 171 148 125 102 79 65 151 245 235 226 216 207 197 188 178 169 159 150 140 130 115 101 102 88 88 88 88 89 89 89 90 90 90 91 91 91 93 95 98 100 102 104 106 108 111 113 115 117 119 121 124 126 128 130 132 134 136 139 141 143 145 147 149 152 154 156 158 160 162 165 167 169 171 173 175 178 180 182 184 186 188 190 193 195 197 201 205 209 213 218 222 226 231 235 239 244 248 250 241 232 224 215 206 197 189 180 171 163 154 145 137 128 119 110 102 93 236 212 188 164 141 117 93 104 116 127 138 149 161 172 183 195 206 217 228 240 251 251 251 251 251 251 251 251 250 250 250 250 250 250 250 250 250 250 250 250 250 250 249 249 249 249 249 249 249 157 152 147 143 138 133 129 124 119 115 110 105 100 96 91 99 106 114 121 129 107 80 85 90 95 100 105 110 115 120 125 129 134 139 144 149 154 159 164 168 173 178 182 -1 -1 -1 -1 -1 -1 -1 -1 -1 -1 -1 -1 -1 -1 -1 -1 -1 -1 -1 -1 -1 -1 -1 -1 -1 -1 -1 -1 -1 -1 -1 -1 -1 -1 -1 -1 -1 -1 -1 -1 -1 -1 -1 -1 -1 -1 -1 -1 -1 -1 -1 -1 -1 -1 -1 -1 -1 -1 -1 -1 -1 -1 -1 -1 -1 -1 -1 -1 -1 -1 -1 -1 -1 -1 -1 -1 -1 -1 -1 -1 -1 -1 -1 -1 -1 -1 -1 -1 -1 -1 -1 -1 -1 -1 -1 -1 -1 -1 -1 -1 -1 -1 -1 -1 -1 -1 -1 -1 -1 -1 -1 -1 -1 -1 -1 -1 -1 -1 -1 -1 -1 -1 -1 -1 -1 -1 -1 -1 -1 -1 -1 -1 -1 -1 -1 -1 -1 -1 -1 -1 -1 -1 -1 -1 -1 -1 -1 -1 -1 -1 -1 -1 -1 -1 -1 -1 -1 -1 -1 -1 
93 93 94 94 94 94 94 94 94 94 94 94 94 94 94 94 94 94 94 94 94 94 94 94 94 94 94 94 94 94 94 94 94 94 94 94 94 94 94 94 94 94 94 94 93 93 93 93 93 93 93 93 93 93 93 93 93 93 93 93 98 105 112 119 126 133 140 147 154 161 168 175 182 189 196 203 210 216 220 225 230 234 239 244 248 227 206 203 200 197 194 191 188 185 182 179 176 173 170 167 164 161 158 155 152 150 147 145 143 140 142 155 168 181 184 161 139 116 111 175 244 234 225 215 206 196 187 177 168 158 149 139 130 120 110 96 89 90 90 90 90 91 91 93 95 98 100 102 104 106 108 110 113 115 117 119 121 123 126 128 130 132 134 136 139 141 143 146 150 154 159 163 167 172 176 180 185 189 193 197 202 206 210 215 219 223 228 232 236 241 245 249 248 240 231 222 214 205 196 187 179 170 161 153 144 135 131 129 127 125 123 121 119 117 115 113 110 108 106 104 102 100 98 96 94 106 125 144 163 244 220 196 173 154 135 116 98 92 95 91 96 100 105 110 115 119 124 129 133 138 143 147 152 157 162 166 171 182 194 205 216 227 239 250 250 250 250 250 250 250 250 249 249 249 249 249 249 249 201 196 191 186 182 177 172 150 109 68 77 86 95 104 122 142 162 176 183 191 139 81 86 91 96 101 106 111 116 121 126 131 136 141 145 150 155 160 165 170 174 179 183 -1 -1 -1 -1 -1 -1 -1 -1 -1 -1 -1 -1 -1 -1 -1 -1 -1 -1 -1 -1 -1 -1 -1 -1 -1 -1 -1 -1 -1 -1 -1 -1 -1 -1 -1 -1 -1 -1 -1 -1 -1 -1 -1 -1 -1 -1 -1 -1 -1 -1 -1 -1 -1 -1 -1 -1 -1 -1 -1 -1 -1 -1 -1 -1 -1 -1 -1 -1 -1 -1 -1 -1 -1 -1 -1 -1 -1 -1 -1 -1 -1 -1 -1 -1 -1 -1 -1 -1 -1 -1 -1 -1 -1 -1 -1 -1 -1 -1 -1 -1 -1 -1 -1 -1 -1 -1 -1 -1 -1 -1 -1 -1 -1 -1 -1 -1 -1 -1 -1 -1 -1 -1 -1 -1 -1 -1 -1 -1 -1 -1 -1 -1 -1 -1 -1 -1 -1 -1 -1 -1 -1 -1 -1 -1 -1 -1 -1 -1 -1 -1 -1 -1 -1 -1 -1 -1 -1 -1 -1 -1 
93 94 94 94 94 94 94 94 94 94 94 94 94 94 94 94 94 94 94 94 94 94 94 94 94 94 94 94 94 94 94 94 94 94 94 94 94 94 94 94 94 94 94 94 94 93 93 93 93 93 93 93 93 93 93 93 93 93 93 95 102 110 117 124 131 138 145 152 159 166 173 180 187 194 201 208 215 222 228 232 237 242 247 251 221 218 215 212 209 206 203 200 197 194 191 188 185 182 179 176 173 170 167 164 161 159 157 154 152 149 152 165 178 191 203 198 175 157 157 200 243 233 224 214 205 195 186 176 167 157 148 138 129 119 110 100 91 95 100 104 108 113 117 121 125 130 134 138 143 147 151 156 160 164 169 173 177 182 186 190 194 199 203 207 212 216 220 225 229 233 238 242 246 250 247 238 230 221 212 203 195 186 177 172 170 168 166 164 161 159 157 155 153 151 149 147 145 143 140 138 136 134 132 130 128 126 124 122 119 117 115 113 111 109 107 105 103 101 98 96 94 100 119 138 157 176 195 214 233 252 233 214 196 177 158 139 121 103 96 90 84 98 84 89 94 98 103 108 113 117 122 127 131 136 141 146 150 155 160 164 169 174 178 183 188 193 197 202 207 211 216 221 225 230 235 240 244 249 208 168 127 86 46 55 64 72 81 90 99 108 117 133 153 173 193 213 233 253 172 91 87 92 97 102 107 112 117 122 127 132 137 142 147 152 157 161 166 171 175 180 185 -1 -1 -1 -1 -1 -1 -1 -1 -1 -1 -1 -1 -1 -1 -1 -1 -1 -1 -1 -1 -1 -1 -1 -1 -1 -1 -1 -1 -1 -1 -1 -1 -1 -1 -1 -1 -1 -1 -1 -1 -1 -1 -1 -1 -1 -1 -1 -1 -1 -1 -1 -1 -1 -1 -1 -1 -1 -1 -1 -1 -1 -1 -1 -1 -1 -1 -1 -1 -1 -1 -1 -1 -1 -1 -1 -1 -1 -1 -1 -1 -1 -1 -1 -1 -1 -1 -1 -1 -1 -1 -1 -1 -1 -1 -1 -1 -1 -1 -1 -1 -1 -1 -1 -1 -1 -1 -1 -1 -1 -1 -1 -1 -1 -1 -1 -1 -1 -1 -1 -1 -1 -1 -1 -1 -1 -1 -1 -1 -1 -1 -1 -1 -1 -1 -1 -1 -1 -1 -1 -1 -1 -1 -1 -1 -1 -1 -1 -1 -1 -1 -1 -1 -1 -1 -1 -1 -1 -1 -1 -1 
93 94 94 94 94 94 94 94 94 94 94 94 94 94 94 94 94 94 94 94 94 94 94 94 94 94 94 94 94 94 94 94 94 94 94 94 94 94 94 94 94 94 94 94 94 94 93 93 93 93 93 93 93 93 93 93 93 93 93 100 107 114 121 128 135 142 149 156 163 170 177 184 191 198 205 212 219 226 233 240 245 249 237 234 231 228 225 222 219 216 213 210 207 204 201 198 195 192 189 186 183 180 177 174 171 168 166 163 161 158 162 175 188 201 213 226 212 203 204 225 242 232 223 213 204 194 185 175 166 157 148 139 130 121 112 103 94 174 178 183 187 191 196 200 204 209 213 217 222 226 230 234 239 243 247 252 246 237 228 220 212 210 208 206 204 202 200 198 196 194 191 189 187 185 183 181 179 177 175 173 170 168 166 164 162 160 158 156 154 152 149 147 145 143 141 139 137 135 133 131 129 126 124 122 120 118 116 114 112 110 108 105 103 101 99 97 95 95 114 133 151 170 189 208 227 245 245 246 247 248 251 238 219 200 181 162 144 125 107 101 95 89 82 114 100 78 82 87 92 96 101 106 111 115 120 125 129 134 139 144 148 153 158 162 167 172 176 181 186 191 195 200 205 209 214 219 224 23 32 41 50 59 68 77 85 94 103 112 121 130 144 164 184 204 224 244 246 250 205 124 89 94 98 103 108 113 118 123 128 133 138 143 148 153 158 163 167 172 177 181 186 -1 -1 -1 -1 -1 -1 -1 -1 -1 -1 -1 -1 -1 -1 -1 -1 -1 -1 -1 -1 -1 -1 -1 -1 -1 -1 -1 -1 -1 -1 -1 -1 -1 -1 -1 -1 -1 -1 -1 -1 -1 -1 -1 -1 -1 -1 -1 -1 -1 -1 -1 -1 -1 -1 -1 -1 -1 -1 -1 -1 -1 -1 -1 -1 -1 -1 -1 -1 -1 -1 -1 -1 -1 -1 -1 -1 -1 -1 -1 -1 -1 -1 -1 -1 -1 -1 -1 -1 -1 -1 -1 -1 -1 -1 -1 -1 -1 -1 -1 -1 -1 -1 -1 -1 -1 -1 -1 -1 -1 -1 -1 -1 -1 -1 -1 -1 -1 -1 -1 -1 -1 -1 -1 -1 -1 -1 -1 -1 -1 -1 -1 -1 -1 -1 -1 -1 -1 -1 -1 -1 -1 -1 -1 -1 -1 -1 -1 -1 -1 -1 -1 -1 -1 -1 -1 -1 -1 -1 -1 -1 
93 94 94 94 94 94 94 94 94 94 94 94 94 94 94 94 94 94 94 94 94 94 94 94 94 94 94 94 94 94 94 94 94 94 95 95 95 95 95 95 95 94 94 94 94 94 94 93 93 93 93 93 93 93 93 93 93 93 98 105 112 119 126 133 140 147 154 161 168 175 182 189 196 203 210 217 224 231 238 245 252 249 246 243 240 237 234 231 228 225 222 219 216 213 210 207 204 201 198 195 192 189 186 183 180 177 175 172 170 168 172 185 198 211 223 236 249 249 250 250 241 232 223 214 205 196 187 178 169 160 151 142 133 124 115 106 97 253 251 249 247 245 243 240 238 236 234 232 230 228 226 224 222 219 217 215 213 211 209 207 205 203 201 198 196 194 192 190 188 186 184 182 180 177 175 173 171 169 167 165 163 161 159 156 154 152 150 148 146 144 142 140 138 135 133 131 129 127 125 123 121 119 117 114 112 110 108 106 104 102 100 98 96 93 108 127 146 165 184 203 222 237 238 239 240 241 242 243 244 245 245 250 242 223 204 186 167 148 129 112 106 100 93 87 81 75 133 102 71 76 80 85 90 95 99 104 109 113 118 123 127 132 137 142 146 151 156 160 165 170 174 179 184 189 193 198 203 32 54 63 72 81 90 98 107 116 125 134 143 155 175 195 215 235 241 238 240 247 237 156 90 95 100 105 109 114 119 124 129 134 139 144 149 154 159 164 169 173 178 182 187 -1 -1 -1 -1 -1 -1 -1 -1 -1 -1 -1 -1 -1 -1 -1 -1 -1 -1 -1 -1 -1 -1 -1 -1 -1 -1 -1 -1 -1 -1 -1 -1 -1 -1 -1 -1 -1 -1 -1 -1 -1 -1 -1 -1 -1 -1 -1 -1 -1 -1 -1 -1 -1 -1 -1 -1 -1 -1 -1 -1 -1 -1 -1 -1 -1 -1 -1 -1 -1 -1 -1 -1 -1 -1 -1 -1 -1 -1 -1 -1 -1 -1 -1 -1 -1 -1 -1 -1 -1 -1 -1 -1 -1 -1 -1 -1 -1 -1 -1 -1 -1 -1 -1 -1 -1 -1 -1 -1 -1 -1 -1 -1 -1 -1 -1 -1 -1 -1 -1 -1 -1 -1 -1 -1 -1 -1 -1 -1 -1 -1 -1 -1 -1 -1 -1 -1 -1 -1 -1 -1 -1 -1 -1 -1 -1 -1 -1 -1 -1 -1 -1 -1 -1 -1 -1 -1 -1 -1 -1 -1 
93 94 94 94 94 94 94 94 94 94 94 94 94 94 94 94 94 94 94 94 94 94 94 94 94 94 94 95 95 95 95 95 95 95 95 95 95 95 95 95 95 95 94 94 94 94 94 93 93 93 93 93 93 93 93 93 93 95 102 109 116 123 130 137 144 151 158 165 172 179 186 193 200 207 214 221 228 235 241 246 246 244 245 241 249 246 243 240 237 234 231 228 225 222 219 216 213 210 207 204 201 198 195 192 189 186 184 182 179 177 182 195 208 221 234 246 21 119 217 246 237 228 220 211 203 194 185 177 168 160 151 143 134 125 117 108 100 91 243 241 239 237 235 233 231 228 226 224 222 220 218 216 214 212 210 207 205 203 201 199 197 195 193 191 189 186 184 182 180 178 176 174 172 170 168 165 163 161 159 157 155 153 151 149 147 144 142 140 138 136 134 132 130 128 126 123 121 119 117 115 113 111 109 107 105 102 100 98 96 94 102 121 140 159 178 197 216 230 231 232 232 233 234 235 236 237 238 239 240 241 241 244 249 246 228 209 190 171 152 134 117 111 104 98 92 86 79 73 98 135 104 73 69 74 78 83 88 93 97 102 107 111 116 121 125 130 135 140 144 149 154 158 163 168 173 177 182 41 67 85 94 103 111 120 129 138 147 156 166 186 206 226 246 209 231 253 238 245 252 189 108 96 101 106 111 116 121 125 130 135 140 145 150 155 160 165 170 174 179 184 188 -1 -1 -1 -1 -1 -1 -1 -1 -1 -1 -1 -1 -1 -1 -1 -1 -1 -1 -1 -1 -1 -1 -1 -1 -1 -1 -1 -1 -1 -1 -1 -1 -1 -1 -1 -1 -1 -1 -1 -1 -1 -1 -1 -1 -1 -1 -1 -1 -1 -1 -1 -1 -1 -1 -1 -1 -1 -1 -1 -1 -1 -1 -1 -1 -1 -1 -1 -1 -1 -1 -1 -1 -1 -1 -1 -1 -1 -1 -1 -1 -1 -1 -1 -1 -1 -1 -1 -1 -1 -1 -1 -1 -1 -1 -1 -1 -1 -1 -1 -1 -1 -1 -1 -1 -1 -1 -1 -1 -1 -1 -1 -1 -1 -1 -1 -1 -1 -1 -1 -1 -1 -1 -1 -1 -1 -1 -1 -1 -1 -1 -1 -1 -1 -1 -1 -1 -1 -1 -1 -1 -1 -1 -1 -1 -1 -1 -1 -1 -1 -1 -1 -1 -1 -1 -1 -1 -1 -1 -1 -1 
93 94 94 94 94 94 94 94 94 94 94 94 94 94 94 94 94 94 94 95 95 95 95 95 95 95 95 95 95 95 95 95 95 95 95 95 95 95 95 95 95 95 95 94 94 94 94 94 93 93 93 93 93 93 93 93 93 100 107 114 121 128 135 142 149 156 163 170 177 184 191 198 205 212 219 224 229 235 240 242 240 237 237 249 239 228 230 250 247 244 241 238 235 232 229 226 223 220 217 214 211 208 205 202 199 196 193 191 188 186 192 205 218 231 244 86 86 184 250 241 233 224 215 207 198 190 181 173 164 155 147 138 130 121 112 105 103 101 235 233 231 229 227 225 223 221 219 216 214 212 210 208 206 204 202 200 198 195 193 191 189 187 185 183 181 179 177 175 172 170 168 166 164 162 160 158 156 154 151 149 147 145 143 141 139 137 135 133 130 128 126 124 122 120 118 116 114 112 109 107 105 103 101 99 97 95 96 115 134 153 172 191 210 222 223 224 225 226 227 228 229 230 231 232 233 234 235 236 237 238 237 238 243 248 251 232 213 194 176 157 138 122 115 109 103 97 90 84 78 72 65 135 138 107 76 62 67 72 76 81 86 91 95 100 105 109 114 119 124 128 133 138 142 147 152 156 24 50 76 102 116 124 133 142 151 160 169 178 197 217 237 230 202 224 245 228 235 242 249 222 141 97 102 107 112 117 122 127 132 137 141 146 151 156 161 166 171 176 180 185 189 -1 -1 -1 -1 -1 -1 -1 -1 -1 -1 -1 -1 -1 -1 -1 -1 -1 -1 -1 -1 -1 -1 -1 -1 -1 -1 -1 -1 -1 -1 -1 -1 -1 -1 -1 -1 -1 -1 -1 -1 -1 -1 -1 -1 -1 -1 -1 -1 -1 -1 -1 -1 -1 -1 -1 -1 -1 -1 -1 -1 -1 -1 -1 -1 -1 -1 -1 -1 -1 -1 -1 -1 -1 -1 -1 -1 -1 -1 -1 -1 -1 -1 -1 -1 -1 -1 -1 -1 -1 -1 -1 -1 -1 -1 -1 -1 -1 -1 -1 -1 -1 -1 -1 -1 -1 -1 -1 -1 -1 -1 -1 -1 -1 -1 -1 -1 -1 -1 -1 -1 -1 -1 -1 -1 -1 -1 -1 -1 -1 -1 -1 -1 -1 -1 -1 -1 -1 -1 -1 -1 -1 -1 -1 -1 -1 -1 -1 -1 -1 -1 -1 -1 -1 -1 -1 -1 -1 -1 -1 -1 
94 94 94 94 94 94 94 94 94 94 94 94 95 95 95 95 95 95 95 95 95 95 95 95 95 95 95 95 95 95 95 95 95 95 95 95 95 95 95 95 95 95 95 95 94 94 94 94 94 93 93 93 93 93 93 93 97 104 111 118 125 132 139 146 153 160 167 174 181 188 195 202 208 213 218 223 228 233 238 236 234 231 229 229 249 243 232 222 211 218 250 247 244 241 238 235 232 229 226 223 220 217 214 211 208 205 202 200 197 195 203 215 228 241 152 78 152 250 245 237 228 220 211 203 194 185 177 168 160 151 142 134 125 119 117 115 113 111 228 226 223 221 219 217 215 213 211 209 207 205 202 200 198 196 194 192 190 188 186 184 181 179 177 175 173 171 169 167 165 163 160 158 156 154 152 150 148 146 144 142 139 137 135 133 131 129 127 125 123 121 118 116 114 112 110 108 106 104 102 100 97 95 93 109 128 147 166 185 204 215 216 217 218 219 219 220 221 222 223 224 225 226 227 228 229 230 231 232 233 234 234 233 237 242 246 251 236 218 199 180 161 142 126 120 114 108 101 95 89 83 76 70 64 83 171 140 109 78 56 60 65 70 74 79 84 89 93 98 103 107 112 117 122 126 131 136 33 59 85 111 138 146 155 164 173 182 191 208 228 248 173 194 216 238 218 225 232 239 246 253 173 98 103 108 113 118 123 128 133 138 143 148 153 157 162 167 172 177 181 186 191 -1 -1 -1 -1 -1 -1 -1 -1 -1 -1 -1 -1 -1 -1 -1 -1 -1 -1 -1 -1 -1 -1 -1 -1 -1 -1 -1 -1 -1 -1 -1 -1 -1 -1 -1 -1 -1 -1 -1 -1 -1 -1 -1 -1 -1 -1 -1 -1 -1 -1 -1 -1 -1 -1 -1 -1 -1 -1 -1 -1 -1 -1 -1 -1 -1 -1 -1 -1 -1 -1 -1 -1 -1 -1 -1 -1 -1 -1 -1 -1 -1 -1 -1 -1 -1 -1 -1 -1 -1 -1 -1 -1 -1 -1 -1 -1 -1 -1 -1 -1 -1 -1 -1 -1 -1 -1 -1 -1 -1 -1 -1 -1 -1 -1 -1 -1 -1 -1 -1 -1 -1 -1 -1 -1 -1 -1 -1 -1 -1 -1 -1 -1 -1 -1 -1 -1 -1 -1 -1 -1 -1 -1 -1 -1 -1 -1 -1 -1 -1 -1 -1 -1 -1 -1 -1 -1 -1 -1 -1 -1 
94 94 94 94 95 95 95 95 95 95 95 95 95 95 95 95 95 95 95 95 95 95 95 95 95 95 95 95 95 95 95 95 95 95 95 95 95 95 95 95 95 95 95 95 94 94 94 94 94 94 94 94 94 93 93 95 102 109 116 123 130 137 144 151 158 165 172 179 186 192 197 202 207 212 217 222 227 232 232 230 227 225 223 221 221 241 247 236 226 215 205 194 207 251 248 245 242 239 236 233 230 227 224 221 218 215 212 209 207 204 213 225 238 217 107 119 217 250 241 232 224 215 207 198 190 181 172 164 155 147 138 133 131 129 127 125 123 121 91 218 216 214 211 209 207 205 203 201 199 197 195 193 190 188 186 184 182 180 178 176 174 172 169 167 165 163 161 159 157 155 153 151 148 146 144 142 140 138 136 134 132 130 128 125 123 121 119 117 115 113 111 109 107 104 102 100 98 96 94 104 123 142 161 180 198 207 208 209 210 211 212 213 214 215 216 217 218 219 220 221 222 223 224 225 226 227 228 229 230 231 230 230 231 236 241 245 250 241 222 203 184 166 147 131 125 119 112 106 100 94 87 81 75 69 63 56 119 173 142 111 80 49 54 58 63 68 73 77 82 87 91 96 101 105 110 115 43 69 95 121 147 168 177 186 195 204 219 239 218 165 187 209 231 252 215 222 229 236 243 250 206 125 104 109 114 119 124 129 134 139 144 149 154 159 164 168 173 178 183 187 192 -1 -1 -1 -1 -1 -1 -1 -1 -1 -1 -1 -1 -1 -1 -1 -1 -1 -1 -1 -1 -1 -1 -1 -1 -1 -1 -1 -1 -1 -1 -1 -1 -1 -1 -1 -1 -1 -1 -1 -1 -1 -1 -1 -1 -1 -1 -1 -1 -1 -1 -1 -1 -1 -1 -1 -1 -1 -1 -1 -1 -1 -1 -1 -1 -1 -1 -1 -1 -1 -1 -1 -1 -1 -1 -1 -1 -1 -1 -1 -1 -1 -1 -1 -1 -1 -1 -1 -1 -1 -1 -1 -1 -1 -1 -1 -1 -1 -1 -1 -1 -1 -1 -1 -1 -1 -1 -1 -1 -1 -1 -1 -1 -1 -1 -1 -1 -1 -1 -1 -1 -1 -1 -1 -1 -1 -1 -1 -1 -1 -1 -1 -1 -1 -1 -1 -1 -1 -1 -1 -1 -1 -1 -1 -1 -1 -1 -1 -1 -1 -1 -1 -1 -1 -1 -1 -1 -1 -1 -1 -1 
94 94 95 95 95 95 95 95 95 95 95 95 95 95 95 95 95 95 95 95 95 95 95 95 95 95 95 95 95 95 95 95 95 95 95 95 95 95 95 95 95 95 95 95 95 94 94 94 94 94 94 94 94 94 94 99 106 113 120 127 134 141 148 155 162 169 176 181 186 191 196 201 206 211 216 221 226 228 226 224 221 219 217 214 212 214 234 251 240 230 219 209 198 187 177 196 245 248 245 242 239 236 233 230 227 224 221 218 216 213 223 235 248 135 135 184 137 245 237 228 220 211 202 194 185 177 168 159 151 147 145 143 141 139 137 135 133 131 129 210 208 206 204 202 200 197 195 193 191 189 187 185 183 181 179 176 174 172 170 168 166 164 162 160 158 155 153 151 149 147 145 143 141 139 137 134 132 130 128 126 124 122 120 118 116 113 111 109 107 105 103 101 99 97 95 98 117 136 155 174 193 200 201 202 203 204 205 206 206 207 208 209 210 211 212 213 214 215 216 217 218 219 220 221 222 223 224 225 226 227 227 226 225 230 235 240 244 249 245 226 208 189 170 151 136 130 123 117 111 105 99 92 86 80 74 67 61 55 67 156 176 144 113 82 51 47 52 56 61 66 71 75 80 85 89 26 52 78 104 130 156 182 199 208 217 230 250 161 158 180 201 223 245 205 212 219 226 233 240 247 239 158 105 110 115 120 125 130 135 140 145 150 155 160 165 170 175 179 184 188 193 -1 -1 -1 -1 -1 -1 -1 -1 -1 -1 -1 -1 -1 -1 -1 -1 -1 -1 -1 -1 -1 -1 -1 -1 -1 -1 -1 -1 -1 -1 -1 -1 -1 -1 -1 -1 -1 -1 -1 -1 -1 -1 -1 -1 -1 -1 -1 -1 -1 -1 -1 -1 -1 -1 -1 -1 -1 -1 -1 -1 -1 -1 -1 -1 -1 -1 -1 -1 -1 -1 -1 -1 -1 -1 -1 -1 -1 -1 -1 -1 -1 -1 -1 -1 -1 -1 -1 -1 -1 -1 -1 -1 -1 -1 -1 -1 -1 -1 -1 -1 -1 -1 -1 -1 -1 -1 -1 -1 -1 -1 -1 -1 -1 -1 -1 -1 -1 -1 -1 -1 -1 -1 -1 -1 -1 -1 -1 -1 -1 -1 -1 -1 -1 -1 -1 -1 -1 -1 -1 -1 -1 -1 -1 -1 -1 -1 -1 -1 -1 -1 -1 -1 -1 -1 -1 -1 -1 -1 -1 -1 
94 94 95 95 95 95 95 95 95 95 95 95 95 95 95 95 95 95 95 95 95 95 95 95 95 95 95 95 95 95 95 95 95 95 95 95 95 95 95 95 95 95 95 95 95 95 94 94 94 94 94 94 94 94 97 104 111 118 125 132 139 146 153 159 164 169 174 179 184 189 195 200 205 210 215 220 224 222 220 217 215 213 211 208 206 204 206 226 246 244 234 223 213 202 191 181 170 160 185 234 249 246 243 240 237 234 231 228 225 223 233 245 164 164 164 249 250 241 232 224 215 207 198 189 181 172 164 161 159 157 155 153 151 149 147 145 143 142 140 202 200 198 196 194 192 190 188 185 183 181 179 177 175 173 171 169 167 164 162 160 158 156 154 152 150 148 146 143 141 139 137 135 133 131 129 127 125 122 120 118 116 114 112 110 108 106 104 101 99 97 95 93 111 130 149 168 187 192 193 194 195 196 197 198 199 200 201 202 203 204 205 206 207 208 209 210 211 212 213 214 215 216 217 218 219 219 220 221 222 223 225 222 222 224 229 234 238 243 248 249 231 212 193 174 156 141 134 128 122 116 110 103 97 91 85 78 72 66 60 53 47 104 192 178 147 116 85 54 40 45 50 54 59 64 69 35 61 87 113 139 165 191 217 230 241 206 129 150 172 194 216 238 195 202 209 216 223 230 237 244 251 190 110 112 117 121 126 131 136 141 146 151 156 161 166 171 176 180 185 190 194 -1 -1 -1 -1 -1 -1 -1 -1 -1 -1 -1 -1 -1 -1 -1 -1 -1 -1 -1 -1 -1 -1 -1 -1 -1 -1 -1 -1 -1 -1 -1 -1 -1 -1 -1 -1 -1 -1 -1 -1 -1 -1 -1 -1 -1 -1 -1 -1 -1 -1 -1 -1 -1 -1 -1 -1 -1 -1 -1 -1 -1 -1 -1 -1 -1 -1 -1 -1 -1 -1 -1 -1 -1 -1 -1 -1 -1 -1 -1 -1 -1 -1 -1 -1 -1 -1 -1 -1 -1 -1 -1 -1 -1 -1 -1 -1 -1 -1 -1 -1 -1 -1 -1 -1 -1 -1 -1 -1 -1 -1 -1 -1 -1 -1 -1 -1 -1 -1 -1 -1 -1 -1 -1 -1 -1 -1 -1 -1 -1 -1 -1 -1 -1 -1 -1 -1 -1 -1 -1 -1 -1 -1 -1 -1 -1 -1 -1 -1 -1 -1 -1 -1 -1 -1 -1 -1 -1 -1 -1 -1 
94 94 95 95 95 95 95 95 95 95 95 95 95 95 95 95 95 95 95 95 95 95 95 95 95 95 95 95 95 95 95 95 95 95 95 95 95 95 95 95 95 95 95 95 95 95 95 94 94 94 94 94 94 94 101 108 115 122 129 136 143 148 153 158 163 168 173 178 183 188 193 198 203 208 214 219 218 216 214 211 209 207 204 202 200 198 195 199 219 239 248 238 227 217 206 195 185 174 164 153 142 174 223 249 246 243 240 237 234 232 243 193 192 192 217 137 245 237 228 219 211 202 194 185 177 175 173 171 169 167 165 163 161 159 157 156 154 152 150 92 192 190 188 186 184 182 180 178 176 174 171 169 167 165 163 161 159 157 155 153 150 148 146 144 142 140 138 136 134 132 129 127 125 123 121 119 117 115 113 111 108 106 104 102 100 98 96 94 105 124 143 162 181 185 186 187 188 189 190 191 192 192 193 194 195 196 197 198 199 200 201 202 203 204 205 206 207 208 209 210 211 212 213 214 215 216 217 218 219 220 230 219 218 218 223 228 233 237 242 247 252 235 216 198 179 160 146 139 133 127 121 114 108 102 96 89 83 77 71 64 58 52 46 52 140 211 180 149 118 87 56 34 38 43 48 44 70 96 122 148 174 200 226 252 149 121 143 165 187 208 230 252 193 200 207 214 221 228 235 242 249 223 142 113 118 123 128 133 137 142 147 152 157 162 167 172 177 182 186 191 195 -1 -1 -1 -1 -1 -1 -1 -1 -1 -1 -1 -1 -1 -1 -1 -1 -1 -1 -1 -1 -1 -1 -1 -1 -1 -1 -1 -1 -1 -1 -1 -1 -1 -1 -1 -1 -1 -1 -1 -1 -1 -1 -1 -1 -1 -1 -1 -1 -1 -1 -1 -1 -1 -1 -1 -1 -1 -1 -1 -1 -1 -1 -1 -1 -1 -1 -1 -1 -1 -1 -1 -1 -1 -1 -1 -1 -1 -1 -1 -1 -1 -1 -1 -1 -1 -1 -1 -1 -1 -1 -1 -1 -1 -1 -1 -1 -1 -1 -1 -1 -1 -1 -1 -1 -1 -1 -1 -1 -1 -1 -1 -1 -1 -1 -1 -1 -1 -1 -1 -1 -1 -1 -1 -1 -1 -1 -1 -1 -1 -1 -1 -1 -1 -1 -1 -1 -1 -1 -1 -1 -1 -1 -1 -1 -1 -1 -1 -1 -1 -1 -1 -1 -1 -1 -1 -1 -1 -1 -1 -1 
94 94 95 95 95 95 95 95 95 95 95 95 95 95 95 95 95 95 95 95 95 95 95 95 95 95 95 95 95 95 95 95 95 95 95 95 95 95 95 95 95 95 95 95 95 95 95 94 94 94 94 94 94 99 106 113 120 127 132 137 142 147 152 157 162 167 172 177 182 187 192 197 202 207 212 214 212 210 207 205 203 201 198 196 194 191 189 187 191 211 231 251 242 231 221 210 200 189 178 168 157 147 136 125 163 212 250 247 244 241 221 221 221 221 137 249 241 232 224 215 206 198 191 189 187 185 183 181 179 177 175 173 171 170 168 166 164 162 160 158 185 183 180 178 176 174 172 170 168 166 164 162 159 157 155 153 151 149 147 145 143 141 138 136 134 132 130 128 126 124 122 120 117 115 113 111 109 107 105 103 101 99 96 94 100 119 137 156 175 177 178 179 180 181 182 183 184 185 186 187 188 189 190 191 192 193 194 195 196 197 198 199 200 201 202 203 204 205 205 206 207 208 209 210 211 212 213 214 215 216 234 215 215 214 217 222 227 231 236 241 246 250 239 221 202 183 164 150 144 138 132 125 119 113 107 100 94 88 82 75 69 63 57 50 44 38 88 176 213 182 151 120 89 58 27 62 98 133 168 204 239 211 152 92 114 136 157 179 201 223 245 183 190 197 204 211 218 225 232 239 246 253 175 114 119 124 129 134 139 144 149 153 158 163 168 173 178 183 187 192 197 -1 -1 -1 -1 -1 -1 -1 -1 -1 -1 -1 -1 -1 -1 -1 -1 -1 -1 -1 -1 -1 -1 -1 -1 -1 -1 -1 -1 -1 -1 -1 -1 -1 -1 -1 -1 -1 -1 -1 -1 -1 -1 -1 -1 -1 -1 -1 -1 -1 -1 -1 -1 -1 -1 -1 -1 -1 -1 -1 -1 -1 -1 -1 -1 -1 -1 -1 -1 -1 -1 -1 -1 -1 -1 -1 -1 -1 -1 -1 -1 -1 -1 -1 -1 -1 -1 -1 -1 -1 -1 -1 -1 -1 -1 -1 -1 -1 -1 -1 -1 -1 -1 -1 -1 -1 -1 -1 -1 -1 -1 -1 -1 -1 -1 -1 -1 -1 -1 -1 -1 -1 -1 -1 -1 -1 -1 -1 -1 -1 -1 -1 -1 -1 -1 -1 -1 -1 -1 -1 -1 -1 -1 -1 -1 -1 -1 -1 -1 -1 -1 -1 -1 -1 -1 -1 -1 -1 -1 -1 -1 
94 94 95 95 95 95 95 95 95 95 95 95 95 95 95 95 95 95 95 95 95 95 95 95 95 95 95 95 95 95 95 95 95 95 95 95 95 95 95 95 95 95 95 95 95 95 95 95 94 94 94 94 96 103 110 115 120 125 130 136 141 146 151 156 161 166 171 176 181 186 191 196 201 206 211 208 206 204 201 199 197 194 192 190 188 185 183 181 178 183 203 223 243 246 235 225 214 204 193 182 172 161 151 140 129 119 108 151 201 250 250 250 249 249 137 245 236 228 219 211 205 203 201 199 197 195 193 191 189 187 185 184 182 180 178 176 174 172 170 168 177 175 173 171 168 166 164 162 160 158 156 154 152 150 147 145 143 141 139 137 135 133 131 129 126 124 122 120 118 116 114 112 110 108 106 103 101 99 97 95 94 113 132 151 169 170 171 172 173 174 175 176 177 178 179 179 180 181 182 183 184 185 186 187 188 189 190 191 192 193 194 195 196 197 198 199 200 201 202 203 204 205 206 207 208 209 210 211 212 213 239 212 211 211 211 216 221 226 230 235 240 245 249 244 225 206 188 169 155 149 143 136 130 124 118 111 105 99 93 86 80 74 68 61 55 49 43 36 36 125 213 216 185 154 138 156 191 226 230 171 154 138 122 106 128 150 172 194 216 237 173 180 187 194 201 208 215 222 229 236 243 250 208 127 120 125 130 135 140 145 150 155 160 164 169 174 179 184 189 193 198 -1 -1 -1 -1 -1 -1 -1 -1 -1 -1 -1 -1 -1 -1 -1 -1 -1 -1 -1 -1 -1 -1 -1 -1 -1 -1 -1 -1 -1 -1 -1 -1 -1 -1 -1 -1 -1 -1 -1 -1 -1 -1 -1 -1 -1 -1 -1 -1 -1 -1 -1 -1 -1 -1 -1 -1 -1 -1 -1 -1 -1 -1 -1 -1 -1 -1 -1 -1 -1 -1 -1 -1 -1 -1 -1 -1 -1 -1 -1 -1 -1 -1 -1 -1 -1 -1 -1 -1 -1 -1 -1 -1 -1 -1 -1 -1 -1 -1 -1 -1 -1 -1 -1 -1 -1 -1 -1 -1 -1 -1 -1 -1 -1 -1 -1 -1 -1 -1 -1 -1 -1 -1 -1 -1 -1 -1 -1 -1 -1 -1 -1 -1 -1 -1 -1 -1 -1 -1 -1 -1 -1 -1 -1 -1 -1 -1 -1 -1 -1 -1 -1 -1 -1 -1 -1 -1 -1 -1 -1 -1 
94 94 95 95 95 95 95 95 95 95 95 95 95 95 95 95 95 95 95 95 95 95 95 95 95 95 95 95 95 95 95 95 95 95 95 95 95 95 95 95 95 95 95 95 95 95 95 95 95 94 94 94 99 104 109 114 119 124 129 134 139 144 149 155 160 165 170 175 180 185 190 195 200 205 204 202 200 197 195 193 191 188 186 184 181 179 177 174 172 170 176 196 216 236 250 239 229 218 208 197 186 176 165 155 144 133 123 112 102 91 74 58 41 24 249 241 232 223 219 217 215 213 211 209 207 205 203 201 200 198 196 194 192 190 188 186 184 182 180 178 92 167 165 163 161 159 157 154 152 150 148 146 144 142 140 138 136 133 131 129 127 125 123 121 119 117 115 112 110 108 106 104 102 100 98 96 94 107 126 145 161 162 163 164 165 166 167 168 169 170 171 172 173 174 175 176 177 178 179 180 181 182 183 184 185 186 187 188 189 190 191 192 192 193 194 195 196 197 198 199 200 201 202 203 204 205 206 207 208 209 243 208 208 207 206 210 215 220 224 229 234 239 243 248 248 229 211 192 173 160 154 147 141 135 129 122 116 110 104 97 91 85 79 72 66 60 54 47 41 35 29 73 161 249 249 249 233 217 201 185 169 153 137 121 143 165 186 208 230 252 170 177 184 191 198 205 212 219 226 233 240 247 240 159 121 126 131 136 141 146 151 156 161 166 171 176 180 185 190 194 199 -1 -1 -1 -1 -1 -1 -1 -1 -1 -1 -1 -1 -1 -1 -1 -1 -1 -1 -1 -1 -1 -1 -1 -1 -1 -1 -1 -1 -1 -1 -1 -1 -1 -1 -1 -1 -1 -1 -1 -1 -1 -1 -1 -1 -1 -1 -1 -1 -1 -1 -1 -1 -1 -1 -1 -1 -1 -1 -1 -1 -1 -1 -1 -1 -1 -1 -1 -1 -1 -1 -1 -1 -1 -1 -1 -1 -1 -1 -1 -1 -1 -1 -1 -1 -1 -1 -1 -1 -1 -1 -1 -1 -1 -1 -1 -1 -1 -1 -1 -1 -1 -1 -1 -1 -1 -1 -1 -1 -1 -1 -1 -1 -1 -1 -1 -1 -1 -1 -1 -1 -1 -1 -1 -1 -1 -1 -1 -1 -1 -1 -1 -1 -1 -1 -1 -1 -1 -1 -1 -1 -1 -1 -1 -1 -1 -1 -1 -1 -1 -1 -1 -1 -1 -1 -1 -1 -1 -1 -1 -1 
94 95 95 95 95 95 95 95 95 95 95 95 95 95 95 95 95 95 95 95 95 95 95 95 95 95 95 95 95 95 95 95 95 95 95 95 95 95 95 95 95 95 95 95 95 95 95 95 95 95 94 120 98 103 108 113 118 123 128 133 138 143 148 153 158 163 168 174 179 184 189 194 199 201 198 196 194 191 189 187 184 182 180 178 175 173 171 168 166 164 161 168 188 208 228 248 243 233 222 212 201 190 180 169 159 148 137 127 116 106 124 170 153 137 245 236 233 231 229 227 225 223 221 219 217 215 214 212 210 208 206 204 202 200 198 196 194 192 190 188 172 159 157 155 153 151 149 147 145 142 140 138 136 134 132 130 128 126 124 121 119 117 115 113 111 109 107 105 103 100 98 96 94 101 120 139 154 155 156 157 158 159 160 161 162 163 164 165 166 166 167 168 169 170 171 172 173 174 175 176 177 178 179 180 181 182 183 184 185 186 187 188 189 190 191 192 193 194 195 196 197 198 199 200 201 202 203 204 205 205 248 205 204 204 203 204 209 214 219 223 228 233 238 242 247 252 234 215 196 178 165 158 152 146 140 133 127 121 115 108 102 96 90 83 77 71 65 58 52 46 40 33 27 21 157 248 247 231 215 199 183 167 151 135 157 179 201 223 244 160 167 174 181 188 195 202 209 216 223 230 237 244 251 192 122 127 132 137 142 147 152 157 162 167 172 177 182 186 191 196 200 -1 -1 -1 -1 -1 -1 -1 -1 -1 -1 -1 -1 -1 -1 -1 -1 -1 -1 -1 -1 -1 -1 -1 -1 -1 -1 -1 -1 -1 -1 -1 -1 -1 -1 -1 -1 -1 -1 -1 -1 -1 -1 -1 -1 -1 -1 -1 -1 -1 -1 -1 -1 -1 -1 -1 -1 -1 -1 -1 -1 -1 -1 -1 -1 -1 -1 -1 -1 -1 -1 -1 -1 -1 -1 -1 -1 -1 -1 -1 -1 -1 -1 -1 -1 -1 -1 -1 -1 -1 -1 -1 -1 -1 -1 -1 -1 -1 -1 -1 -1 -1 -1 -1 -1 -1 -1 -1 -1 -1 -1 -1 -1 -1 -1 -1 -1 -1 -1 -1 -1 -1 -1 -1 -1 -1 -1 -1 -1 -1 -1 -1 -1 -1 -1 -1 -1 -1 -1 -1 -1 -1 -1 -1 -1 -1 -1 -1 -1 -1 -1 -1 -1 -1 -1 -1 -1 -1 -1 -1 -1 
94 95 95 95 95 95 95 95 95 95 95 95 95 95 95 95 95 95 95 95 95 95 95 95 95 95 95 95 95 95 95 95 95 95 95 95 95 96 96 96 96 96 96 96 96 95 95 95 95 95 252 147 97 102 107 112 117 122 127 132 137 142 147 152 157 162 167 172 177 182 187 192 197 194 192 190 187 185 183 181 178 176 174 171 169 167 165 162 160 158 155 153 160 180 200 220 241 247 237 226 216 205 194 184 173 163 152 141 131 120 111 157 203 249 247 245 243 241 239 237 235 233 231 229 228 226 224 222 220 218 216 214 212 210 208 206 204 202 200 198 196 152 149 147 145 143 141 139 137 135 133 131 128 126 124 122 120 118 116 114 112 110 107 105 103 101 99 97 95 95 114 133 146 147 148 149 150 151 152 153 154 155 156 157 158 159 160 161 162 163 164 165 166 167 168 169 170 171 172 173 174 175 176 177 178 179 179 180 181 182 183 184 185 186 187 188 189 190 191 192 193 194 195 196 197 198 199 200 201 202 252 201 201 200 199 199 203 208 213 218 222 227 232 237 241 246 251 238 219 201 182 169 163 157 151 144 138 132 126 119 113 107 101 94 88 82 76 69 63 57 51 45 38 66 202 248 249 246 230 214 198 182 166 150 172 193 215 237 173 158 165 172 179 186 193 200 206 213 220 227 234 241 248 225 144 129 133 138 143 148 153 158 163 168 173 178 183 188 192 197 201 -1 -1 -1 -1 -1 -1 -1 -1 -1 -1 -1 -1 -1 -1 -1 -1 -1 -1 -1 -1 -1 -1 -1 -1 -1 -1 -1 -1 -1 -1 -1 -1 -1 -1 -1 -1 -1 -1 -1 -1 -1 -1 -1 -1 -1 -1 -1 -1 -1 -1 -1 -1 -1 -1 -1 -1 -1 -1 -1 -1 -1 -1 -1 -1 -1 -1 -1 -1 -1 -1 -1 -1 -1 -1 -1 -1 -1 -1 -1 -1 -1 -1 -1 -1 -1 -1 -1 -1 -1 -1 -1 -1 -1 -1 -1 -1 -1 -1 -1 -1 -1 -1 -1 -1 -1 -1 -1 -1 -1 -1 -1 -1 -1 -1 -1 -1 -1 -1 -1 -1 -1 -1 -1 -1 -1 -1 -1 -1 -1 -1 -1 -1 -1 -1 -1 -1 -1 -1 -1 -1 -1 -1 -1 -1 -1 -1 -1 -1 -1 -1 -1 -1 -1 -1 -1 -1 -1 -1 -1 -1 
94 95 95 95 95 95 95 95 95 95 95 95 95 95 95 95 95 95 95 95 95 95 95 95 95 95 95 95 95 95 96 96 96 96 96 96 96 96 96 96 96 96 96 96 96 96 95 95 95 147 238 173 96 101 106 111 116 121 126 131 136 141 146 151 156 161 166 171 176 181 186 191 191 188 186 184 181 179 177 174 172 170 168 165 163 161 158 156 154 151 149 147 145 153 173 193 213 233 251 241 230 220 209 199 188 177 167 156 146 135 98 144 190 219 225 232 238 244 249 247 245 243 242 240 238 236 234 232 230 228 226 224 222 220 218 216 214 212 210 208 206 92 142 140 137 135 133 131 129 127 125 123 121 119 116 114 112 110 108 106 104 102 100 98 95 93 109 128 139 140 141 142 143 144 145 146 147 148 149 150 151 152 152 153 154 155 156 157 158 159 160 161 162 163 164 165 166 167 168 169 170 171 172 173 174 175 176 177 178 179 180 181 182 183 184 185 186 187 188 189 190 191 192 192 193 194 195 196 197 198 239 198 197 197 196 195 197 202 207 212 216 221 226 231 235 240 245 250 243 224 205 186 174 168 162 155 149 143 137 130 124 118 112 105 99 93 87 80 74 68 62 56 49 110 246 247 248 249 244 228 212 196 180 164 186 208 230 252 148 155 162 169 176 183 190 197 204 211 218 225 232 239 246 253 176 130 135 140 144 149 154 159 164 169 174 179 184 189 193 198 203 -1 -1 -1 -1 -1 -1 -1 -1 -1 -1 -1 -1 -1 -1 -1 -1 -1 -1 -1 -1 -1 -1 -1 -1 -1 -1 -1 -1 -1 -1 -1 -1 -1 -1 -1 -1 -1 -1 -1 -1 -1 -1 -1 -1 -1 -1 -1 -1 -1 -1 -1 -1 -1 -1 -1 -1 -1 -1 -1 -1 -1 -1 -1 -1 -1 -1 -1 -1 -1 -1 -1 -1 -1 -1 -1 -1 -1 -1 -1 -1 -1 -1 -1 -1 -1 -1 -1 -1 -1 -1 -1 -1 -1 -1 -1 -1 -1 -1 -1 -1 -1 -1 -1 -1 -1 -1 -1 -1 -1 -1 -1 -1 -1 -1 -1 -1 -1 -1 -1 -1 -1 -1 -1 -1 -1 -1 -1 -1 -1 -1 -1 -1 -1 -1 -1 -1 -1 -1 -1 -1 -1 -1 -1 -1 -1 -1 -1 -1 -1 -1 -1 -1 -1 -1 -1 -1 -1 -1 -1 -1 
94 95 95 95 95 95 95 95 95 95 95 95 95 95 95 95 95 95 95 95 95 95 96 96 96 96 96 96 96 96 96 96 96 96 96 96 96 96 96 96 96 96 96 96 96 96 96 95 95 203 224 200 94 99 104 109 115 120 125 130 135 140 145 150 155 160 165 170 175 180 185 187 184 182 180 177 175 173 171 168 166 164 161 159 157 155 152 150 148 145 143 141 138 136 145 165 185 205 225 245 245 234 224 213 203 192 181 171 160 150 85 131 177 189 195 202 208 214 221 227 233 240 246 250 248 246 244 242 240 238 236 234 232 230 228 226 224 222 220 218 216 173 134 132 130 128 125 123 121 119 117 115 113 111 109 107 105 102 100 98 96 94 103 122 131 132 133 134 135 136 137 138 139 140 141 142 143 144 145 146 147 148 149 150 151 152 153 154 155 156 157 158 159 160 161 162 163 164 165 166 166 167 168 169 170 171 172 173 174 175 176 177 178 179 180 181 182 183 184 185 186 187 188 189 190 191 192 193 194 195 225 199 194 193 192 192 192 196 201 206 211 215 220 225 230 234 239 244 249 247 228 209 191 179 173 166 160 154 148 141 135 129 123 116 110 104 98 92 85 79 73 67 73 155 246 247 248 248 249 243 227 211 195 179 201 222 244 138 145 152 159 166 173 180 187 194 201 208 215 222 229 236 243 250 209 131 136 141 146 151 156 160 165 170 175 180 185 190 195 199 204 -1 -1 -1 -1 -1 -1 -1 -1 -1 -1 -1 -1 -1 -1 -1 -1 -1 -1 -1 -1 -1 -1 -1 -1 -1 -1 -1 -1 -1 -1 -1 -1 -1 -1 -1 -1 -1 -1 -1 -1 -1 -1 -1 -1 -1 -1 -1 -1 -1 -1 -1 -1 -1 -1 -1 -1 -1 -1 -1 -1 -1 -1 -1 -1 -1 -1 -1 -1 -1 -1 -1 -1 -1 -1 -1 -1 -1 -1 -1 -1 -1 -1 -1 -1 -1 -1 -1 -1 -1 -1 -1 -1 -1 -1 -1 -1 -1 -1 -1 -1 -1 -1 -1 -1 -1 -1 -1 -1 -1 -1 -1 -1 -1 -1 -1 -1 -1 -1 -1 -1 -1 -1 -1 -1 -1 -1 -1 -1 -1 -1 -1 -1 -1 -1 -1 -1 -1 -1 -1 -1 -1 -1 -1 -1 -1 -1 -1 -1 -1 -1 -1 -1 -1 -1 -1 -1 -1 -1 -1 -1 
94 95 95 95 95 95 95 95 95 95 95 95 95 95 95 96 96 96 96 96 96 96 96 96 96 96 96 96 96 96 96 96 96 96 96 96 96 96 96 96 96 96 96 96 96 96 96 96 167 189 210 226 121 98 103 108 113 118 123 128 133 139 144 149 154 159 164 169 174 179 183 181 178 176 174 171 169 167 164 162 160 158 155 153 151 148 146 144 141 139 137 135 132 130 128 137 157 178 198 218 238 249 238 228 217 207 196 185 175 164 72 118 153 159 165 172 178 184 191 197 203 210 216 222 229 235 241 248 250 248 246 244 242 240 238 236 234 232 230 229 227 225 126 124 122 120 118 116 114 111 109 107 105 103 101 99 97 95 97 116 124 125 126 127 128 129 130 131 132 133 134 135 136 137 138 139 139 140 141 142 143 144 145 146 147 148 149 150 151 152 153 154 155 156 157 158 159 160 161 162 163 164 165 166 167 168 169 170 171 172 173 174 175 176 177 178 179 179 180 181 182 183 184 185 186 187 188 189 190 191 212 203 190 189 189 188 188 190 195 200 205 209 214 219 224 228 233 238 243 247 251 233 214 195 184 177 171 165 159 152 146 140 134 128 121 115 109 103 96 90 84 78 107 199 245 246 247 248 249 250 241 225 209 193 215 237 172 135 142 149 156 163 170 177 184 191 198 205 212 219 226 233 240 247 242 161 137 142 147 152 157 162 167 172 176 181 186 191 196 200 205 -1 -1 -1 -1 -1 -1 -1 -1 -1 -1 -1 -1 -1 -1 -1 -1 -1 -1 -1 -1 -1 -1 -1 -1 -1 -1 -1 -1 -1 -1 -1 -1 -1 -1 -1 -1 -1 -1 -1 -1 -1 -1 -1 -1 -1 -1 -1 -1 -1 -1 -1 -1 -1 -1 -1 -1 -1 -1 -1 -1 -1 -1 -1 -1 -1 -1 -1 -1 -1 -1 -1 -1 -1 -1 -1 -1 -1 -1 -1 -1 -1 -1 -1 -1 -1 -1 -1 -1 -1 -1 -1 -1 -1 -1 -1 -1 -1 -1 -1 -1 -1 -1 -1 -1 -1 -1 -1 -1 -1 -1 -1 -1 -1 -1 -1 -1 -1 -1 -1 -1 -1 -1 -1 -1 -1 -1 -1 -1 -1 -1 -1 -1 -1 -1 -1 -1 -1 -1 -1 -1 -1 -1 -1 -1 -1 -1 -1 -1 -1 -1 -1 -1 -1 -1 -1 -1 -1 -1 -1 -1 
94 95 95 95 95 95 95 96 96 96 96 96 96 96 96 96 96 96 96 96 96 96 96 96 96 96 96 96 96 96 96 96 96 96 96 96 96 96 96 96 96 96 96 96 96 96 96 132 153 175 196 218 147 97 102 107 112 117 122 127 132 137 142 147 152 158 163 168 173 178 177 174 172 170 168 165 163 161 158 156 154 151 149 147 145 142 140 138 135 133 131 128 126 124 122 119 130 150 170 190 210 230 250 242 232 221 211 200 189 179 59 105 123 129 135 142 148 154 161 167 173 180 186 192 199 205 211 218 224 231 237 243 250 250 248 246 245 243 241 239 237 235 93 116 114 112 110 108 106 104 102 99 97 95 93 110 116 117 118 119 120 121 122 123 124 125 126 127 128 129 130 131 132 133 134 135 136 137 138 139 140 141 142 143 144 145 146 147 148 149 150 151 152 152 153 154 155 156 157 158 159 160 161 162 163 164 165 166 167 168 169 170 171 172 173 174 175 176 177 178 179 180 181 182 183 184 185 186 187 188 198 208 187 186 185 185 184 185 189 194 199 204 208 213 218 223 227 232 237 242 246 251 237 218 199 188 182 176 170 163 157 151 145 139 132 126 120 114 107 101 95 92 140 244 245 245 246 247 248 249 250 240 224 208 229 251 125 132 139 146 153 160 167 174 181 188 195 202 209 216 223 230 237 244 251 193 138 143 148 153 158 163 168 173 178 183 188 192 197 202 206 -1 -1 -1 -1 -1 -1 -1 -1 -1 -1 -1 -1 -1 -1 -1 -1 -1 -1 -1 -1 -1 -1 -1 -1 -1 -1 -1 -1 -1 -1 -1 -1 -1 -1 -1 -1 -1 -1 -1 -1 -1 -1 -1 -1 -1 -1 -1 -1 -1 -1 -1 -1 -1 -1 -1 -1 -1 -1 -1 -1 -1 -1 -1 -1 -1 -1 -1 -1 -1 -1 -1 -1 -1 -1 -1 -1 -1 -1 -1 -1 -1 -1 -1 -1 -1 -1 -1 -1 -1 -1 -1 -1 -1 -1 -1 -1 -1 -1 -1 -1 -1 -1 -1 -1 -1 -1 -1 -1 -1 -1 -1 -1 -1 -1 -1 -1 -1 -1 -1 -1 -1 -1 -1 -1 -1 -1 -1 -1 -1 -1 -1 -1 -1 -1 -1 -1 -1 -1 -1 -1 -1 -1 -1 -1 -1 -1 -1 -1 -1 -1 -1 -1 -1 -1 -1 -1 -1 -1 -1 -1 
95 95 95 96 96 96 96 96 96 96 96 96 96 96 96 96 96 96 96 96 96 96 96 96 96 96 96 96 96 96 96 96 96 96 96 96 96 96 96 96 96 96 96 96 96 96 96 118 139 161 182 204 174 96 101 106 111 116 121 126 131 136 141 146 151 156 161 166 171 173 171 168 166 164 161 159 157 154 152 150 148 145 143 141 138 136 134 132 129 127 125 122 120 118 115 113 111 122 142 162 182 202 222 242 246 236 225 215 204 193 46 86 93 99 105 112 118 124 131 137 143 150 156 162 169 175 181 188 194 201 207 213 220 226 232 239 245 251 251 249 247 245 173 109 106 104 102 100 98 96 94 105 109 110 111 112 113 114 115 116 117 118 119 120 121 122 123 124 125 126 126 127 128 129 130 131 132 133 134 135 136 137 138 139 140 141 142 143 144 145 146 147 148 149 150 151 152 153 154 155 156 157 158 159 160 161 162 163 164 165 165 166 167 168 169 170 171 172 173 174 175 176 177 178 179 180 181 182 183 184 185 212 183 182 182 181 180 180 184 188 193 198 203 207 212 217 221 226 231 236 240 245 250 241 223 204 193 187 181 175 168 162 156 150 143 137 131 125 118 112 106 125 174 243 244 245 246 247 248 249 249 250 238 222 244 115 122 129 136 143 150 157 164 171 178 185 192 199 206 213 220 227 234 241 248 226 145 144 149 154 159 164 169 174 179 184 189 194 198 203 207 -1 -1 -1 -1 -1 -1 -1 -1 -1 -1 -1 -1 -1 -1 -1 -1 -1 -1 -1 -1 -1 -1 -1 -1 -1 -1 -1 -1 -1 -1 -1 -1 -1 -1 -1 -1 -1 -1 -1 -1 -1 -1 -1 -1 -1 -1 -1 -1 -1 -1 -1 -1 -1 -1 -1 -1 -1 -1 -1 -1 -1 -1 -1 -1 -1 -1 -1 -1 -1 -1 -1 -1 -1 -1 -1 -1 -1 -1 -1 -1 -1 -1 -1 -1 -1 -1 -1 -1 -1 -1 -1 -1 -1 -1 -1 -1 -1 -1 -1 -1 -1 -1 -1 -1 -1 -1 -1 -1 -1 -1 -1 -1 -1 -1 -1 -1 -1 -1 -1 -1 -1 -1 -1 -1 -1 -1 -1 -1 -1 -1 -1 -1 -1 -1 -1 -1 -1 -1 -1 -1 -1 -1 -1 -1 -1 -1 -1 -1 -1 -1 -1 -1 -1 -1 -1 -1 -1 -1 -1 -1 
95 95 95 96 96 96 96 96 96 96 96 96 96 96 96 96 96 96 96 96 96 96 96 96 96 96 96 96 96 96 96 96 96 96 96 96 96 96 96 96 96 96 96 96 96 96 104 104 125 147 168 190 200 95 100 105 110 115 120 125 130 135 140 145 150 155 160 165 169 167 164 162 160 158 155 153 151 148 146 144 141 139 137 135 132 130 128 125 123 121 118 116 114 112 109 107 105 102 114 135 155 175 195 215 235 250 240 229 219 208 33 56 63 69 75 82 88 94 101 107 113 120 126 132 139 145 151 158 164 171 177 183 190 196 202 209 215 221 228 234 240 247 253 101 99 97 94 99 101 102 103 104 105 106 107 108 109 110 111 112 113 114 115 116 117 118 119 120 121 122 123 124 125 126 127 128 129 130 131 132 133 134 135 136 137 138 139 139 140 141 142 143 144 145 146 147 148 149 150 151 152 153 154 155 156 157 158 159 160 161 162 163 164 165 166 167 168 169 170 171 172 173 174 175 176 177 178 178 179 180 181 217 180 179 178 178 177 176 178 182 187 192 197 201 206 211 216 220 225 230 235 239 244 249 246 227 208 198 192 186 179 173 167 161 154 148 142 136 129 123 117 159 207 242 243 244 245 246 247 248 249 250 251 237 172 113 120 127 134 141 148 155 162 169 176 183 190 197 204 211 218 225 232 239 246 253 178 145 150 155 160 165 170 175 180 185 190 195 199 204 209 -1 -1 -1 -1 -1 -1 -1 -1 -1 -1 -1 -1 -1 -1 -1 -1 -1 -1 -1 -1 -1 -1 -1 -1 -1 -1 -1 -1 -1 -1 -1 -1 -1 -1 -1 -1 -1 -1 -1 -1 -1 -1 -1 -1 -1 -1 -1 -1 -1 -1 -1 -1 -1 -1 -1 -1 -1 -1 -1 -1 -1 -1 -1 -1 -1 -1 -1 -1 -1 -1 -1 -1 -1 -1 -1 -1 -1 -1 -1 -1 -1 -1 -1 -1 -1 -1 -1 -1 -1 -1 -1 -1 -1 -1 -1 -1 -1 -1 -1 -1 -1 -1 -1 -1 -1 -1 -1 -1 -1 -1 -1 -1 -1 -1 -1 -1 -1 -1 -1 -1 -1 -1 -1 -1 -1 -1 -1 -1 -1 -1 -1 -1 -1 -1 -1 -1 -1 -1 -1 -1 -1 -1 -1 -1 -1 -1 -1 -1 -1 -1 -1 -1 -1 -1 -1 -1 -1 -1 -1 -1 
95 95 96 96 96 96 96 96 96 96 96 96 96 96 96 96 96 96 96 96 96 96 96 96 96 96 96 96 96 96 96 96 96 96 96 96 96 96 96 96 96 96 96 96 96 108 111 99 111 133 154 176 197 121 99 104 109 114 119 124 129 134 139 144 149 154 159 164 163 161 158 156 154 151 149 147 144 142 140 138 135 133 131 128 126 124 122 119 117 115 112 110 108 105 103 101 99 96 94 107 127 147 167 187 207 227 247 244 233 223 20 27 35 42 50 57 64 72 79 86 94 101 109 116 123 131 138 145 153 160 168 175 182 190 198 211 224 236 249 226 193 160 126 93 94 95 96 97 98 99 100 101 102 103 104 105 106 107 108 109 110 111 112 113 113 114 115 116 117 118 119 120 121 122 123 124 125 126 127 128 129 130 131 132 133 134 135 136 137 138 139 140 141 142 143 144 145 146 147 148 149 150 151 152 152 153 154 155 156 157 158 159 160 161 162 163 164 165 166 167 168 169 170 171 172 173 174 175 176 177 178 221 176 175 175 174 173 173 172 177 181 186 191 196 200 205 210 215 219 224 229 234 238 243 248 250 231 213 203 197 190 184 178 172 165 159 153 147 140 134 144 192 241 242 243 244 245 246 246 247 248 249 250 251 103 110 117 124 131 138 145 152 159 166 173 180 187 194 201 208 215 222 229 236 243 250 210 147 152 156 161 166 171 176 181 186 191 196 201 205 210 -1 -1 -1 -1 -1 -1 -1 -1 -1 -1 -1 -1 -1 -1 -1 -1 -1 -1 -1 -1 -1 -1 -1 -1 -1 -1 -1 -1 -1 -1 -1 -1 -1 -1 -1 -1 -1 -1 -1 -1 -1 -1 -1 -1 -1 -1 -1 -1 -1 -1 -1 -1 -1 -1 -1 -1 -1 -1 -1 -1 -1 -1 -1 -1 -1 -1 -1 -1 -1 -1 -1 -1 -1 -1 -1 -1 -1 -1 -1 -1 -1 -1 -1 -1 -1 -1 -1 -1 -1 -1 -1 -1 -1 -1 -1 -1 -1 -1 -1 -1 -1 -1 -1 -1 -1 -1 -1 -1 -1 -1 -1 -1 -1 -1 -1 -1 -1 -1 -1 -1 -1 -1 -1 -1 -1 -1 -1 -1 -1 -1 -1 -1 -1 -1 -1 -1 -1 -1 -1 -1 -1 -1 -1 -1 -1 -1 -1 -1 -1 -1 -1 -1 -1 -1 -1 -1 -1 -1 -1 -1 
95 95 96 96 96 96 96 96 96 96 96 96 96 96 96 96 96 96 96 96 96 96 96 96 96 96 96 96 96 96 96 96 96 96 96 96 96 96 96 96 96 96 96 96 108 120 119 107 97 119 140 162 184 147 97 102 107 112 118 123 128 133 138 143 148 153 158 159 157 154 152 150 148 145 143 141 138 136 134 131 129 127 125 122 120 118 115 113 111 108 106 104 102 99 97 95 92 90 88 86 99 119 139 159 179 199 220 240 248 237 23 31 38 45 53 60 67 75 82 90 97 104 112 119 126 134 144 156 169 182 194 207 220 232 245 232 199 166 133 110 106 101 97 93 95 94 92 93 94 95 96 97 98 99 100 101 102 103 104 105 106 107 108 109 110 111 112 113 114 115 116 117 118 119 120 121 122 123 124 125 126 126 127 128 129 130 131 132 133 134 135 136 137 138 139 140 141 142 143 144 145 146 147 148 149 150 151 152 153 154 155 156 157 158 159 160 161 162 163 164 165 165 166 167 168 169 170 171 172 173 174 226 172 172 171 171 170 169 169 171 175 180 185 190 194 199 204 209 213 218 223 228 232 237 242 247 251 236 217 208 201 195 189 183 176 170 164 158 151 145 178 226 237 224 211 198 185 172 159 145 132 119 106 93 100 107 114 121 128 135 142 149 156 163 170 177 184 191 198 205 212 219 226 233 240 247 243 162 153 158 163 168 172 177 182 187 192 197 202 206 211 -1 -1 -1 -1 -1 -1 -1 -1 -1 -1 -1 -1 -1 -1 -1 -1 -1 -1 -1 -1 -1 -1 -1 -1 -1 -1 -1 -1 -1 -1 -1 -1 -1 -1 -1 -1 -1 -1 -1 -1 -1 -1 -1 -1 -1 -1 -1 -1 -1 -1 -1 -1 -1 -1 -1 -1 -1 -1 -1 -1 -1 -1 -1 -1 -1 -1 -1 -1 -1 -1 -1 -1 -1 -1 -1 -1 -1 -1 -1 -1 -1 -1 -1 -1 -1 -1 -1 -1 -1 -1 -1 -1 -1 -1 -1 -1 -1 -1 -1 -1 -1 -1 -1 -1 -1 -1 -1 -1 -1 -1 -1 -1 -1 -1 -1 -1 -1 -1 -1 -1 -1 -1 -1 -1 -1 -1 -1 -1 -1 -1 -1 -1 -1 -1 -1 -1 -1 -1 -1 -1 -1 -1 -1 -1 -1 -1 -1 -1 -1 -1 -1 -1 -1 -1 -1 -1 -1 -1 -1 -1 
95 95 96 96 96 96 96 96 96 96 96 96 96 96 96 96 96 96 96 96 96 96 96 96 96 96 96 96 96 96 96 96 96 96 96 96 96 96 96 96 96 96 96 108 120 132 126 114 103 105 126 148 170 174 96 101 106 111 116 121 126 131 137 142 147 152 155 153 151 148 146 144 141 139 137 135 132 130 128 125 123 121 118 116 114 112 109 107 105 102 100 98 95 93 91 89 86 84 82 79 77 92 112 132 152 172 192 212 232 252 26 34 41 48 56 63 71 78 89 102 115 127 140 153 165 178 191 203 216 229 241 239 205 172 139 127 123 118 114 109 104 100 97 93 95 97 98 94 91 92 93 94 95 96 97 98 99 99 100 101 102 103 104 105 106 107 108 109 110 111 112 113 114 115 116 117 118 119 120 121 122 123 124 125 126 127 128 129 130 131 132 133 134 135 136 137 138 139 139 140 141 142 143 144 145 146 147 148 149 150 151 152 153 154 155 156 157 158 159 160 161 162 163 164 165 166 167 168 169 170 171 230 169 168 168 167 166 166 165 165 170 174 179 184 189 193 198 203 208 212 217 222 227 231 236 241 246 250 240 221 212 206 200 194 187 181 175 169 162 163 211 198 233 220 207 194 181 168 155 142 129 115 102 99 98 104 111 118 125 132 139 146 153 160 167 174 181 188 195 202 209 216 223 230 237 244 251 195 154 159 164 169 174 179 183 188 193 198 203 208 212 -1 -1 -1 -1 -1 -1 -1 -1 -1 -1 -1 -1 -1 -1 -1 -1 -1 -1 -1 -1 -1 -1 -1 -1 -1 -1 -1 -1 -1 -1 -1 -1 -1 -1 -1 -1 -1 -1 -1 -1 -1 -1 -1 -1 -1 -1 -1 -1 -1 -1 -1 -1 -1 -1 -1 -1 -1 -1 -1 -1 -1 -1 -1 -1 -1 -1 -1 -1 -1 -1 -1 -1 -1 -1 -1 -1 -1 -1 -1 -1 -1 -1 -1 -1 -1 -1 -1 -1 -1 -1 -1 -1 -1 -1 -1 -1 -1 -1 -1 -1 -1 -1 -1 -1 -1 -1 -1 -1 -1 -1 -1 -1 -1 -1 -1 -1 -1 -1 -1 -1 -1 -1 -1 -1 -1 -1 -1 -1 -1 -1 -1 -1 -1 -1 -1 -1 -1 -1 -1 -1 -1 -1 -1 -1 -1 -1 -1 -1 -1 -1 -1 -1 -1 -1 -1 -1 -1 -1 -1 -1 
95 95 96 96 96 96 96 96 96 96 96 96 96 96 96 96 96 96 96 96 96 96 96 96 96 96 96 96 96 96 96 96 96 96 96 96 96 96 96 96 96 96 108 120 132 144 134 122 110 99 112 134 156 177 95 100 105 110 115 120 125 130 135 140 145 150 149 147 144 142 140 138 135 133 131 128 126 124 121 119 117 115 112 110 108 105 103 101 98 96 94 92 89 87 85 82 80 78 76 73 71 69 84 104 124 144 164 184 204 22 35 47 60 73 85 98 111 123 136 149 161 174 187 199 212 225 237 245 212 178 149 144 140 135 131 126 122 118 112 108 104 100 97 93 95 97 99 101 98 95 91 90 91 92 93 94 95 96 97 98 99 100 101 102 103 104 105 106 107 108 109 110 111 112 112 113 114 115 116 117 118 119 120 121 122 123 124 125 126 127 128 129 130 131 132 133 134 135 136 137 138 139 140 141 142 143 144 145 146 147 148 149 150 151 152 152 153 154 155 156 157 158 159 160 161 162 163 164 165 166 167 235 172 165 164 163 163 162 162 161 164 169 173 178 183 187 192 197 202 206 211 216 221 225 230 235 240 244 249 244 226 217 211 205 198 192 186 180 173 196 245 243 230 216 203 190 177 164 151 138 124 110 106 104 103 102 108 115 122 129 136 143 150 157 164 171 178 185 192 199 206 213 220 227 234 241 248 227 155 160 165 170 175 180 185 190 195 199 204 209 213 -1 -1 -1 -1 -1 -1 -1 -1 -1 -1 -1 -1 -1 -1 -1 -1 -1 -1 -1 -1 -1 -1 -1 -1 -1 -1 -1 -1 -1 -1 -1 -1 -1 -1 -1 -1 -1 -1 -1 -1 -1 -1 -1 -1 -1 -1 -1 -1 -1 -1 -1 -1 -1 -1 -1 -1 -1 -1 -1 -1 -1 -1 -1 -1 -1 -1 -1 -1 -1 -1 -1 -1 -1 -1 -1 -1 -1 -1 -1 -1 -1 -1 -1 -1 -1 -1 -1 -1 -1 -1 -1 -1 -1 -1 -1 -1 -1 -1 -1 -1 -1 -1 -1 -1 -1 -1 -1 -1 -1 -1 -1 -1 -1 -1 -1 -1 -1 -1 -1 -1 -1 -1 -1 -1 -1 -1 -1 -1 -1 -1 -1 -1 -1 -1 -1 -1 -1 -1 -1 -1 -1 -1 -1 -1 -1 -1 -1 -1 -1 -1 -1 -1 -1 -1 -1 -1 -1 -1 -1 -1 
95 95 96 96 96 96 96 96 96 96 96 96 96 96 96 96 96 96 96 96 96 96 96 96 96 96 96 96 96 96 96 96 96 96 96 96 96 96 96 96 96 108 120 132 144 153 141 129 118 106 99 120 142 163 121 99 104 109 114 119 124 129 134 139 144 145 143 141 138 136 134 131 129 127 125 122 120 118 115 113 111 108 106 104 102 99 97 95 92 90 88 85 83 81 79 76 74 72 69 67 65 62 60 76 96 116 136 156 177 69 81 94 107 119 132 145 157 170 183 195 208 221 233 246 218 185 166 161 157 152 148 144 139 135 130 126 120 115 112 108 104 100 97 93 95 97 99 101 102 103 99 95 92 88 89 90 91 92 93 94 95 96 97 98 99 100 101 102 103 104 105 106 107 108 109 110 111 112 113 114 115 116 117 118 119 120 121 122 123 124 125 126 126 127 128 129 130 131 132 133 134 135 136 137 138 139 140 141 142 143 144 145 146 147 148 149 150 151 152 153 154 155 156 157 158 159 160 161 162 163 164 239 177 161 161 160 159 159 158 157 158 163 167 172 177 182 186 191 196 201 205 210 215 220 224 229 234 239 243 248 249 230 222 216 209 203 197 191 184 230 154 239 226 213 200 186 173 160 147 133 119 112 111 110 109 108 107 113 120 126 133 140 147 154 161 168 175 182 189 196 203 210 217 224 231 238 245 252 179 161 166 171 176 181 186 191 196 201 205 210 215 -1 -1 -1 -1 -1 -1 -1 -1 -1 -1 -1 -1 -1 -1 -1 -1 -1 -1 -1 -1 -1 -1 -1 -1 -1 -1 -1 -1 -1 -1 -1 -1 -1 -1 -1 -1 -1 -1 -1 -1 -1 -1 -1 -1 -1 -1 -1 -1 -1 -1 -1 -1 -1 -1 -1 -1 -1 -1 -1 -1 -1 -1 -1 -1 -1 -1 -1 -1 -1 -1 -1 -1 -1 -1 -1 -1 -1 -1 -1 -1 -1 -1 -1 -1 -1 -1 -1 -1 -1 -1 -1 -1 -1 -1 -1 -1 -1 -1 -1 -1 -1 -1 -1 -1 -1 -1 -1 -1 -1 -1 -1 -1 -1 -1 -1 -1 -1 -1 -1 -1 -1 -1 -1 -1 -1 -1 -1 -1 -1 -1 -1 -1 -1 -1 -1 -1 -1 -1 -1 -1 -1 -1 -1 -1 -1 -1 -1 -1 -1 -1 -1 -1 -1 -1 -1 -1 -1 -1 -1 -1 
95 95 96 96 96 96 96 96 96 96 96 96 96 96 96 96 96 96 96 96 96 96 96 96 96 96 96 96 96 96 96 96 96 96 96 96 96 96 96 96 108 120 132 144 156 160 149 137 125 114 102 106 128 149 148 98 103 108 113 118 123 128 133 138 141 139 137 134 132 130 128 125 123 121 118 116 114 111 109 107 105 102 100 98 95 93 91 89 86 84 82 79 77 75 72 70 68 66 63 61 59 56 54 52 69 89 109 129 149 115 128 141 153 166 179 191 204 217 229 242 224 191 183 178 174 169 165 161 156 152 147 143 138 134 129 123 119 115 112 108 104 100 97 93 95 97 99 101 102 104 106 103 100 96 92 89 88 89 90 91 92 93 94 95 96 97 98 99 99 100 101 102 103 104 105 106 107 108 109 110 111 112 113 114 115 116 117 118 119 120 121 122 123 124 125 126 127 128 129 130 131 132 133 134 135 136 137 138 139 139 140 141 142 143 144 145 146 147 148 149 150 151 152 153 154 155 156 157 158 159 160 244 181 158 157 156 156 155 155 154 153 157 162 166 171 176 181 185 190 195 200 204 209 214 218 223 228 233 237 242 247 252 234 227 220 214 208 202 215 133 199 235 222 209 196 183 170 155 141 127 119 118 117 116 115 114 113 112 117 124 131 138 145 152 159 166 173 180 187 194 201 208 215 222 229 236 243 250 212 162 167 172 177 182 187 192 197 202 207 211 216 -1 -1 -1 -1 -1 -1 -1 -1 -1 -1 -1 -1 -1 -1 -1 -1 -1 -1 -1 -1 -1 -1 -1 -1 -1 -1 -1 -1 -1 -1 -1 -1 -1 -1 -1 -1 -1 -1 -1 -1 -1 -1 -1 -1 -1 -1 -1 -1 -1 -1 -1 -1 -1 -1 -1 -1 -1 -1 -1 -1 -1 -1 -1 -1 -1 -1 -1 -1 -1 -1 -1 -1 -1 -1 -1 -1 -1 -1 -1 -1 -1 -1 -1 -1 -1 -1 -1 -1 -1 -1 -1 -1 -1 -1 -1 -1 -1 -1 -1 -1 -1 -1 -1 -1 -1 -1 -1 -1 -1 -1 -1 -1 -1 -1 -1 -1 -1 -1 -1 -1 -1 -1 -1 -1 -1 -1 -1 -1 -1 -1 -1 -1 -1 -1 -1 -1 -1 -1 -1 -1 -1 -1 -1 -1 -1 -1 -1 -1 -1 -1 -1 -1 -1 -1 -1 -1 -1 -1 -1 -1 
95 96 96 96 96 96 96 96 96 96 96 96 96 96 96 96 96 96 96 96 96 96 96 96 96 96 96 96 96 96 96 96 96 97 97 97 97 97 97 108 120 132 144 156 168 168 156 144 133 121 110 98 114 135 157 97 102 107 112 117 122 127 132 137 135 133 131 128 126 124 121 119 117 115 112 110 108 105 103 101 98 96 94 92 89 87 85 82 80 78 75 73 71 69 66 64 62 59 57 55 53 50 48 46 43 61 81 101 20 162 175 188 200 213 226 238 230 204 200 195 191 187 182 178 173 169 164 160 155 151 146 142 137 131 127 123 119 115 112 108 104 100 97 93 95 97 99 100 102 104 106 108 108 104 100 97 93 89 86 87 88 89 90 91 92 93 94 95 96 97 98 99 100 101 102 103 104 105 106 107 108 109 110 111 112 112 113 114 115 116 117 118 119 120 121 122 123 124 125 126 127 128 129 130 131 132 133 134 135 136 137 138 139 140 141 142 143 144 145 146 147 148 149 150 151 152 152 153 154 155 156 248 186 154 154 153 152 152 151 150 150 151 156 160 165 170 175 179 184 189 194 198 203 208 213 217 222 227 232 236 241 246 251 239 231 225 219 213 248 111 244 231 218 205 192 178 164 150 136 126 125 124 123 122 121 119 118 117 116 121 128 135 142 149 156 163 170 177 184 191 198 205 212 219 226 233 240 247 244 164 168 173 178 183 188 193 198 203 208 212 217 -1 -1 -1 -1 -1 -1 -1 -1 -1 -1 -1 -1 -1 -1 -1 -1 -1 -1 -1 -1 -1 -1 -1 -1 -1 -1 -1 -1 -1 -1 -1 -1 -1 -1 -1 -1 -1 -1 -1 -1 -1 -1 -1 -1 -1 -1 -1 -1 -1 -1 -1 -1 -1 -1 -1 -1 -1 -1 -1 -1 -1 -1 -1 -1 -1 -1 -1 -1 -1 -1 -1 -1 -1 -1 -1 -1 -1 -1 -1 -1 -1 -1 -1 -1 -1 -1 -1 -1 -1 -1 -1 -1 -1 -1 -1 -1 -1 -1 -1 -1 -1 -1 -1 -1 -1 -1 -1 -1 -1 -1 -1 -1 -1 -1 -1 -1 -1 -1 -1 -1 -1 -1 -1 -1 -1 -1 -1 -1 -1 -1 -1 -1 -1 -1 -1 -1 -1 -1 -1 -1 -1 -1 -1 -1 -1 -1 -1 -1 -1 -1 -1 -1 -1 -1 -1 -1 -1 -1 -1 -1 
95 96 96 96 96 96 96 96 96 96 96 96 96 96 96 96 96 96 96 96 96 96 96 96 96 96 97 97 97 97 97 97 97 97 97 97 97 97 108 120 132 144 156 168 179 175 164 152 140 129 117 106 100 121 143 95 100 105 110 116 121 126 131 131 129 127 124 122 120 118 115 113 111 108 106 104 101 99 97 95 92 90 88 85 83 81 79 76 74 72 69 67 65 62 60 58 56 53 51 49 46 44 42 39 37 35 53 73 132 209 222 234 237 221 217 213 208 204 199 195 190 186 181 177 172 168 164 159 155 150 145 140 134 130 127 123 119 115 112 108 104 100 97 93 95 97 99 100 102 104 106 108 110 112 108 105 101 97 93 90 86 86 86 87 88 89 90 91 92 93 94 95 96 97 98 99 100 101 102 103 104 105 106 107 108 109 110 111 112 113 114 115 116 117 118 119 120 121 122 123 124 125 125 126 127 128 129 130 131 132 133 134 135 136 137 138 139 140 141 142 143 144 145 146 147 148 149 150 151 152 153 253 190 151 150 149 149 148 147 147 146 146 150 155 159 164 169 174 178 183 188 193 197 202 207 212 216 221 226 230 235 240 245 249 243 236 230 233 22 156 241 227 214 201 187 172 158 144 133 132 131 130 129 127 126 125 124 123 122 121 125 132 139 146 153 160 167 174 181 188 195 202 209 216 223 230 237 244 251 196 170 175 179 184 189 194 199 204 209 214 218 -1 -1 -1 -1 -1 -1 -1 -1 -1 -1 -1 -1 -1 -1 -1 -1 -1 -1 -1 -1 -1 -1 -1 -1 -1 -1 -1 -1 -1 -1 -1 -1 -1 -1 -1 -1 -1 -1 -1 -1 -1 -1 -1 -1 -1 -1 -1 -1 -1 -1 -1 -1 -1 -1 -1 -1 -1 -1 -1 -1 -1 -1 -1 -1 -1 -1 -1 -1 -1 -1 -1 -1 -1 -1 -1 -1 -1 -1 -1 -1 -1 -1 -1 -1 -1 -1 -1 -1 -1 -1 -1 -1 -1 -1 -1 -1 -1 -1 -1 -1 -1 -1 -1 -1 -1 -1 -1 -1 -1 -1 -1 -1 -1 -1 -1 -1 -1 -1 -1 -1 -1 -1 -1 -1 -1 -1 -1 -1 -1 -1 -1 -1 -1 -1 -1 -1 -1 -1 -1 -1 -1 -1 -1 -1 -1 -1 -1 -1 -1 -1 -1 -1 -1 -1 -1 -1 -1 -1 -1 -1 
95 96 96 96 96 96 96 96 96 96 96 96 96 96 96 96 96 96 97 97 97 97 97 97 97 97 97 97 97 97 97 97 97 97 97 97 97 109 120 132 144 156 168 180 191 183 171 160 148 136 125 113 101 107 129 122 99 104 109 114 119 124 128 125 123 121 118 116 114 111 109 107 105 102 100 98 95 93 91 88 86 84 82 79 77 75 72 70 68 65 63 61 59 56 54 52 49 47 45 43 40 38 36 33 31 29 26 46 243 239 234 230 225 221 216 212 207 203 198 194 190 185 181 176 172 167 163 158 153 148 142 138 134 130 127 123 119 115 112 108 104 100 97 93 95 97 99 100 102 104 106 108 110 112 114 113 109 105 101 98 94 90 87 84 85 86 87 88 89 90 91 92 93 94 95 96 97 98 99 99 100 101 102 103 104 105 106 107 108 109 110 111 112 113 114 115 116 117 118 119 120 121 122 123 124 125 126 127 128 129 130 131 132 133 134 135 136 137 138 138 139 140 141 142 143 144 145 146 147 148 149 239 195 147 146 146 145 145 144 143 143 142 144 149 153 158 163 168 172 177 182 187 191 196 201 206 210 215 220 225 229 234 239 244 248 248 241 137 135 201 237 223 209 195 181 167 153 140 139 138 136 135 134 133 132 131 130 129 128 127 125 129 136 143 150 157 164 171 178 185 192 199 206 213 220 227 234 241 248 229 171 176 181 186 191 195 200 205 210 215 219 -1 -1 -1 -1 -1 -1 -1 -1 -1 -1 -1 -1 -1 -1 -1 -1 -1 -1 -1 -1 -1 -1 -1 -1 -1 -1 -1 -1 -1 -1 -1 -1 -1 -1 -1 -1 -1 -1 -1 -1 -1 -1 -1 -1 -1 -1 -1 -1 -1 -1 -1 -1 -1 -1 -1 -1 -1 -1 -1 -1 -1 -1 -1 -1 -1 -1 -1 -1 -1 -1 -1 -1 -1 -1 -1 -1 -1 -1 -1 -1 -1 -1 -1 -1 -1 -1 -1 -1 -1 -1 -1 -1 -1 -1 -1 -1 -1 -1 -1 -1 -1 -1 -1 -1 -1 -1 -1 -1 -1 -1 -1 -1 -1 -1 -1 -1 -1 -1 -1 -1 -1 -1 -1 -1 -1 -1 -1 -1 -1 -1 -1 -1 -1 -1 -1 -1 -1 -1 -1 -1 -1 -1 -1 -1 -1 -1 -1 -1 -1 -1 -1 -1 -1 -1 -1 -1 -1 -1 -1 -1 
95 96 96 96 96 96 96 96 96 96 96 97 97 97 97 97 97 97 97 97 97 97 97 97 97 97 97 97 97 97 97 97 97 97 97 97 109 120 132 144 156 168 180 191 202 190 179 167 155 144 132 121 109 97 115 137 98 103 108 113 118 123 121 119 117 114 112 110 108 105 103 101 98 96 94 92 89 87 85 82 80 78 75 73 71 69 66 64 62 59 57 55 52 50 48 46 43 41 39 36 34 32 29 27 25 23 20 18 242 238 233 229 224 220 216 211 207 202 198 193 189 184 180 175 171 167 162 156 150 145 142 138 134 130 127 123 119 115 112 108 104 100 97 93 95 97 99 100 102 104 106 108 110 112 114 116 117 113 109 106 102 98 95 91 87 83 83 84 85 86 87 88 89 90 91 92 93 94 95 96 97 98 99 100 101 102 103 104 105 106 107 108 109 110 111 112 112 113 114 115 116 117 118 119 120 121 122 123 124 125 126 127 128 129 130 131 132 133 134 135 136 137 138 139 140 141 142 143 144 145 146 226 199 144 143 142 142 141 140 140 139 138 138 143 148 152 157 162 167 171 176 181 186 190 195 200 205 209 214 219 224 228 233 238 243 247 252 250 248 246 232 218 204 190 175 161 147 146 144 143 142 141 140 139 138 137 136 134 133 132 131 130 133 140 147 154 161 168 175 182 189 196 203 210 217 224 231 238 245 252 181 177 182 187 192 197 202 207 211 216 221 -1 -1 -1 -1 -1 -1 -1 -1 -1 -1 -1 -1 -1 -1 -1 -1 -1 -1 -1 -1 -1 -1 -1 -1 -1 -1 -1 -1 -1 -1 -1 -1 -1 -1 -1 -1 -1 -1 -1 -1 -1 -1 -1 -1 -1 -1 -1 -1 -1 -1 -1 -1 -1 -1 -1 -1 -1 -1 -1 -1 -1 -1 -1 -1 -1 -1 -1 -1 -1 -1 -1 -1 -1 -1 -1 -1 -1 -1 -1 -1 -1 -1 -1 -1 -1 -1 -1 -1 -1 -1 -1 -1 -1 -1 -1 -1 -1 -1 -1 -1 -1 -1 -1 -1 -1 -1 -1 -1 -1 -1 -1 -1 -1 -1 -1 -1 -1 -1 -1 -1 -1 -1 -1 -1 -1 -1 -1 -1 -1 -1 -1 -1 -1 -1 -1 -1 -1 -1 -1 -1 -1 -1 -1 -1 -1 -1 -1 -1 -1 -1 -1 -1 -1 -1 -1 -1 -1 -1 -1 -1 
95 96 96 97 97 97 97 97 97 97 97 97 97 97 97 97 97 97 97 97 97 97 97 97 97 97 97 97 97 97 97 97 97 97 97 109 121 132 144 156 168 180 192 203 209 198 186 175 163 151 140 128 116 105 101 123 97 102 107 112 117 118 115 113 111 108 106 104 101 99 97 95 92 90 88 85 83 81 78 76 74 72 69 67 65 62 60 58 56 53 51 49 46 44 42 39 37 35 33 30 29 27 26 24 23 21 20 132 242 237 233 228 224 219 215 210 206 201 197 193 188 184 179 175 170 164 159 153 149 145 141 138 134 130 127 123 119 115 112 108 104 100 97 93 95 97 99 100 102 104 106 108 110 112 114 116 117 119 118 114 110 106 103 99 95 91 88 84 82 83 84 85 86 86 87 88 89 90 91 92 93 94 95 96 97 98 99 100 101 102 103 104 105 106 107 108 109 110 111 112 113 114 115 116 117 118 119 120 121 122 123 124 125 125 126 127 128 129 130 131 132 133 134 135 136 137 138 139 140 141 142 212 204 141 139 139 138 138 137 136 136 135 134 137 142 147 151 156 161 166 170 175 180 184 189 194 199 203 208 213 218 222 227 232 237 241 194 19 155 240 226 212 198 184 170 156 152 151 150 149 148 147 146 145 144 142 141 140 139 138 137 136 135 138 145 152 159 166 173 180 186 193 200 207 214 221 228 235 242 249 213 178 183 188 193 198 203 208 213 217 222 -1 -1 -1 -1 -1 -1 -1 -1 -1 -1 -1 -1 -1 -1 -1 -1 -1 -1 -1 -1 -1 -1 -1 -1 -1 -1 -1 -1 -1 -1 -1 -1 -1 -1 -1 -1 -1 -1 -1 -1 -1 -1 -1 -1 -1 -1 -1 -1 -1 -1 -1 -1 -1 -1 -1 -1 -1 -1 -1 -1 -1 -1 -1 -1 -1 -1 -1 -1 -1 -1 -1 -1 -1 -1 -1 -1 -1 -1 -1 -1 -1 -1 -1 -1 -1 -1 -1 -1 -1 -1 -1 -1 -1 -1 -1 -1 -1 -1 -1 -1 -1 -1 -1 -1 -1 -1 -1 -1 -1 -1 -1 -1 -1 -1 -1 -1 -1 -1 -1 -1 -1 -1 -1 -1 -1 -1 -1 -1 -1 -1 -1 -1 -1 -1 -1 -1 -1 -1 -1 -1 -1 -1 -1 -1 -1 -1 -1 -1 -1 -1 -1 -1 -1 -1 -1 -1 -1 -1 -1 -1 
95 96 96 97 97 97 97 97 97 97 97 97 97 97 97 97 97 97 97 97 97 97 97 97 97 97 97 97 97 97 97 97 97 97 109 121 132 144 156 168 180 192 203 215 217 205 194 182 170 159 147 136 124 112 101 109 96 101 106 111 114 111 109 107 104 102 100 98 95 93 91 88 86 84 82 79 77 75 72 70 68 65 63 61 59 56 54 52 49 47 45 43 41 40 38 37 35 34 32 31 29 28 26 24 23 21 20 245 241 236 232 227 223 219 214 210 205 201 196 192 187 183 178 172 167 161 156 153 149 145 141 138 134 130 127 123 119 115 112 108 104 100 97 93 95 97 99 100 102 104 106 108 110 112 114 116 117 119 121 122 118 114 111 107 103 100 96 92 88 85 81 81 82 83 84 85 86 87 88 89 90 91 92 93 94 95 96 97 98 99 99 100 101 102 103 104 105 106 107 108 109 110 111 112 113 114 115 116 117 118 119 120 121 122 123 124 125 126 127 128 129 130 131 132 133 134 135 136 137 138 138 199 208 146 136 135 135 134 133 133 132 131 131 131 136 141 145 150 155 160 164 169 174 179 183 188 193 198 202 207 212 217 221 226 231 244 135 65 201 235 221 207 192 178 164 159 158 157 156 155 154 153 151 150 149 148 147 146 145 144 143 142 140 139 142 149 156 163 170 177 184 191 198 205 212 219 226 233 240 247 246 179 184 189 194 199 204 209 214 218 223 -1 -1 -1 -1 -1 -1 -1 -1 -1 -1 -1 -1 -1 -1 -1 -1 -1 -1 -1 -1 -1 -1 -1 -1 -1 -1 -1 -1 -1 -1 -1 -1 -1 -1 -1 -1 -1 -1 -1 -1 -1 -1 -1 -1 -1 -1 -1 -1 -1 -1 -1 -1 -1 -1 -1 -1 -1 -1 -1 -1 -1 -1 -1 -1 -1 -1 -1 -1 -1 -1 -1 -1 -1 -1 -1 -1 -1 -1 -1 -1 -1 -1 -1 -1 -1 -1 -1 -1 -1 -1 -1 -1 -1 -1 -1 -1 -1 -1 -1 -1 -1 -1 -1 -1 -1 -1 -1 -1 -1 -1 -1 -1 -1 -1 -1 -1 -1 -1 -1 -1 -1 -1 -1 -1 -1 -1 -1 -1 -1 -1 -1 -1 -1 -1 -1 -1 -1 -1 -1 -1 -1 -1 -1 -1 -1 -1 -1 -1 -1 -1 -1 -1 -1 -1 -1 -1 -1 -1 -1 -1 
96 96 96 97 97 97 97 97 97 97 97 97 97 97 97 97 97 97 97 97 97 97 97 97 97 97 97 97 97 97 97 97 97 109 121 132 144 156 168 180 192 204 215 227 224 213 201 190 178 166 155 143 132 120 108 97 116 100 105 110 108 105 103 101 98 96 94 91 89 87 85 82 80 78 75 73 71 68 66 64 62 59 57 55 54 52 51 49 48 46 45 43 42 40 39 37 35 34 32 31 29 28 26 25 23 22 20 245 240 236 231 227 222 218 213 209 204 200 196 191 186 181 175 170 164 160 156 153 149 145 141 138 134 130 127 123 119 115 112 108 104 100 97 93 95 97 99 100 102 104 106 108 110 112 114 116 117 119 121 123 125 122 119 115 111 108 104 100 96 93 89 85 81 79 80 81 82 83 84 85 86 87 88 89 90 91 92 93 94 95 96 97 98 99 100 101 102 103 104 105 106 107 108 109 110 111 112 112 113 114 115 116 117 118 119 120 121 122 123 124 125 126 127 128 129 130 131 132 133 134 135 185 213 150 132 132 131 130 130 129 129 128 127 127 130 135 140 144 149 154 159 163 168 173 178 182 187 192 197 201 206 211 215 220 228 251 77 111 243 229 215 201 187 173 166 165 164 163 162 161 159 158 157 156 155 154 153 152 151 149 148 147 146 145 144 146 153 160 167 174 181 188 195 202 209 216 223 230 237 244 251 198 185 190 195 200 205 210 215 220 224 -1 -1 -1 -1 -1 -1 -1 -1 -1 -1 -1 -1 -1 -1 -1 -1 -1 -1 -1 -1 -1 -1 -1 -1 -1 -1 -1 -1 -1 -1 -1 -1 -1 -1 -1 -1 -1 -1 -1 -1 -1 -1 -1 -1 -1 -1 -1 -1 -1 -1 -1 -1 -1 -1 -1 -1 -1 -1 -1 -1 -1 -1 -1 -1 -1 -1 -1 -1 -1 -1 -1 -1 -1 -1 -1 -1 -1 -1 -1 -1 -1 -1 -1 -1 -1 -1 -1 -1 -1 -1 -1 -1 -1 -1 -1 -1 -1 -1 -1 -1 -1 -1 -1 -1 -1 -1 -1 -1 -1 -1 -1 -1 -1 -1 -1 -1 -1 -1 -1 -1 -1 -1 -1 -1 -1 -1 -1 -1 -1 -1 -1 -1 -1 -1 -1 -1 -1 -1 -1 -1 -1 -1 -1 -1 -1 -1 -1 -1 -1 -1 -1 -1 -1 -1 -1 -1 -1 -1 -1 -1 
96 96 97 97 97 97 97 97 97 97 97 97 97 97 97 97 97 97 97 97 97 97 97 97 97 97 97 97 97 97 97 97 109 121 133 144 156 168 180 192 204 215 227 239 232 220 209 197 185 174 162 151 139 127 116 104 102 98 103 104 101 99 97 95 92 90 88 85 83 81 78 76 74 72 69 68 66 65 63 62 60 59 57 56 54 53 51 49 48 46 45 43 42 40 39 37 36 34 32 31 29 28 26 25 23 22 134 244 239 235 230 226 222 217 213 208 204 199 194 189 183 178 172 168 164 160 156 153 149 145 141 138 134 130 127 123 119 115 112 108 104 100 97 93 95 97 99 100 102 104 106 108 110 112 114 116 117 119 121 123 125 127 127 123 119 116 112 108 104 101 97 93 90 86 82 78 79 80 81 82 83 84 85 85 86 87 88 89 90 91 92 93 94 95 96 97 98 99 100 101 102 103 104 105 106 107 108 109 110 111 112 113 114 115 116 117 118 119 120 121 122 123 124 125 125 126 127 128 129 130 131 172 217 155 129 128 128 127 126 126 125 124 124 123 124 129 134 138 143 148 153 157 162 167 172 176 181 186 191 195 200 205 210 214 235 193 20 157 238 224 210 195 181 173 172 171 170 168 167 166 165 164 163 162 161 160 159 157 156 155 154 153 152 151 150 149 150 157 164 171 178 185 192 199 206 213 220 227 234 241 248 230 187 191 196 201 206 211 216 221 225 -1 -1 -1 -1 -1 -1 -1 -1 -1 -1 -1 -1 -1 -1 -1 -1 -1 -1 -1 -1 -1 -1 -1 -1 -1 -1 -1 -1 -1 -1 -1 -1 -1 -1 -1 -1 -1 -1 -1 -1 -1 -1 -1 -1 -1 -1 -1 -1 -1 -1 -1 -1 -1 -1 -1 -1 -1 -1 -1 -1 -1 -1 -1 -1 -1 -1 -1 -1 -1 -1 -1 -1 -1 -1 -1 -1 -1 -1 -1 -1 -1 -1 -1 -1 -1 -1 -1 -1 -1 -1 -1 -1 -1 -1 -1 -1 -1 -1 -1 -1 -1 -1 -1 -1 -1 -1 -1 -1 -1 -1 -1 -1 -1 -1 -1 -1 -1 -1 -1 -1 -1 -1 -1 -1 -1 -1 -1 -1 -1 -1 -1 -1 -1 -1 -1 -1 -1 -1 -1 -1 -1 -1 -1 -1 -1 -1 -1 -1 -1 -1 -1 -1 -1 -1 -1 -1 -1 -1 -1 -1 
96 96 97 97 97 97 97 97 97 97 97 97 97 97 97 97 97 97 97 97 97 97 97 97 97 97 97 97 97 97 97 109 121 133 144 156 168 180 192 204 215 227 239 251 239 228 216 205 193 181 170 158 147 135 123 112 100 97 100 98 95 93 91 88 86 84 82 80 79 77 76 74 73 71 70 68 67 65 63 62 60 59 57 56 54 53 51 50 48 47 45 43 42 40 39 37 36 34 33 31 30 28 26 25 23 22 248 243 239 234 230 225 221 216 212 207 203 197 192 186 180 175 171 168 164 160 156 153 149 145 141 138 134 130 126 123 119 115 112 108 104 100 97 93 95 97 99 100 102 104 106 108 110 112 114 116 117 119 121 123 125 127 129 131 127 124 120 116 112 109 105 101 98 94 90 86 83 79 77 78 79 80 81 82 83 84 85 86 87 88 89 90 91 92 93 94 95 96 97 98 99 99 100 101 102 103 104 105 106 107 108 109 110 111 112 113 114 115 116 117 118 119 120 121 122 123 124 125 126 127 128 158 221 159 125 125 124 123 123 122 121 121 120 120 119 123 128 133 137 142 147 152 156 161 166 171 175 180 185 190 194 199 204 219 243 134 66 246 232 218 204 190 180 179 178 176 175 174 173 172 171 170 169 168 166 165 164 163 162 161 160 159 158 157 155 154 153 154 161 168 175 182 189 196 203 210 217 224 231 238 245 252 188 193 198 203 207 212 217 222 227 -1 -1 -1 -1 -1 -1 -1 -1 -1 -1 -1 -1 -1 -1 -1 -1 -1 -1 -1 -1 -1 -1 -1 -1 -1 -1 -1 -1 -1 -1 -1 -1 -1 -1 -1 -1 -1 -1 -1 -1 -1 -1 -1 -1 -1 -1 -1 -1 -1 -1 -1 -1 -1 -1 -1 -1 -1 -1 -1 -1 -1 -1 -1 -1 -1 -1 -1 -1 -1 -1 -1 -1 -1 -1 -1 -1 -1 -1 -1 -1 -1 -1 -1 -1 -1 -1 -1 -1 -1 -1 -1 -1 -1 -1 -1 -1 -1 -1 -1 -1 -1 -1 -1 -1 -1 -1 -1 -1 -1 -1 -1 -1 -1 -1 -1 -1 -1 -1 -1 -1 -1 -1 -1 -1 -1 -1 -1 -1 -1 -1 -1 -1 -1 -1 -1 -1 -1 -1 -1 -1 -1 -1 -1 -1 -1 -1 -1 -1 -1 -1 -1 -1 -1 -1 -1 -1 -1 -1 -1 -1 
96 96 97 97 97 97 97 97 97 97 97 97 97 97 97 97 97 97 97 97 97 97 97 97 97 97 97 97 97 97 109 121 133 145 156 168 180 192 204 216 227 239 241 237 240 244 248 251 236 220 205 189 174 158 143 127 112 96 94 93 91 90 88 87 85 84 82 81 79 78 76 74 73 71 70 68 67 65 64 62 61 59 57 56 54 53 51 50 48 47 45 44 42 41 39 37 36 34 33 31 30 28 27 25 24 22 247 242 238 233 229 224 220 216 211 205 200 194 189 183 179 175 171 168 164 160 156 153 149 145 141 138 134 130 126 123 119 115 112 108 104 100 97 93 95 97 99 100 102 104 106 108 110 112 114 116 117 119 121 123 125 127 129 131 133 132 128 124 120 117 113 109 106 102 98 94 91 87 83 80 76 76 77 78 79 80 81 82 83 84 85 86 87 88 89 90 91 92 93 94 95 96 97 98 99 100 101 102 103 104 105 106 107 108 109 110 111 112 112 113 114 115 116 117 118 119 120 121 122 123 124 145 226 164 122 121 121 120 119 119 118 117 117 116 115 117 122 127 132 136 141 146 150 155 160 165 169 174 179 184 188 193 203 227 251 77 112 241 227 213 198 187 185 184 183 182 181 180 179 178 177 176 174 173 172 171 170 169 168 167 166 164 163 162 161 160 159 158 158 165 172 179 186 193 200 207 214 221 228 235 242 249 215 194 199 204 209 214 218 223 228 -1 -1 -1 -1 -1 -1 -1 -1 -1 -1 -1 -1 -1 -1 -1 -1 -1 -1 -1 -1 -1 -1 -1 -1 -1 -1 -1 -1 -1 -1 -1 -1 -1 -1 -1 -1 -1 -1 -1 -1 -1 -1 -1 -1 -1 -1 -1 -1 -1 -1 -1 -1 -1 -1 -1 -1 -1 -1 -1 -1 -1 -1 -1 -1 -1 -1 -1 -1 -1 -1 -1 -1 -1 -1 -1 -1 -1 -1 -1 -1 -1 -1 -1 -1 -1 -1 -1 -1 -1 -1 -1 -1 -1 -1 -1 -1 -1 -1 -1 -1 -1 -1 -1 -1 -1 -1 -1 -1 -1 -1 -1 -1 -1 -1 -1 -1 -1 -1 -1 -1 -1 -1 -1 -1 -1 -1 -1 -1 -1 -1 -1 -1 -1 -1 -1 -1 -1 -1 -1 -1 -1 -1 -1 -1 -1 -1 -1 -1 -1 -1 -1 -1 -1 -1 -1 -1 -1 -1 -1 -1 
96 96 97 97 97 97 97 97 97 97 97 97 97 97 97 97 97 97 97 97 97 97 97 97 97 97 97 97 97 109 121 133 145 156 168 180 192 204 216 227 239 232 224 222 226 230 233 237 241 244 248 252 236 221 205 190 174 131 93 92 91 89 88 87 85 84 82 81 79 78 76 75 73 71 70 68 67 65 64 62 61 59 58 56 55 53 51 50 48 47 45 44 42 41 39 38 36 34 33 31 30 28 27 25 24 136 246 242 237 233 228 224 219 214 208 202 197 191 186 183 179 175 171 168 164 160 156 153 149 145 141 138 134 130 126 123 119 115 112 108 104 100 97 93 95 97 98 100 102 104 106 108 110 112 114 115 117 119 121 123 125 127 129 131 132 134 136 132 129 125 121 117 114 110 106 102 99 95 91 88 84 80 76 75 76 77 78 79 80 81 82 83 84 85 85 86 87 88 89 90 91 92 93 94 95 96 97 98 99 100 101 102 103 104 105 106 107 108 109 110 111 112 113 114 115 116 117 118 119 120 121 131 230 168 118 118 117 116 116 115 114 114 113 113 112 111 116 121 126 130 135 140 145 149 154 159 164 168 173 178 183 187 211 235 192 22 191 235 221 207 193 192 191 190 189 188 187 186 185 183 182 181 180 179 178 177 176 175 174 172 171 170 169 168 167 166 165 164 163 163 170 177 184 191 198 205 212 219 226 233 240 246 247 195 200 205 210 215 220 224 229 -1 -1 -1 -1 -1 -1 -1 -1 -1 -1 -1 -1 -1 -1 -1 -1 -1 -1 -1 -1 -1 -1 -1 -1 -1 -1 -1 -1 -1 -1 -1 -1 -1 -1 -1 -1 -1 -1 -1 -1 -1 -1 -1 -1 -1 -1 -1 -1 -1 -1 -1 -1 -1 -1 -1 -1 -1 -1 -1 -1 -1 -1 -1 -1 -1 -1 -1 -1 -1 -1 -1 -1 -1 -1 -1 -1 -1 -1 -1 -1 -1 -1 -1 -1 -1 -1 -1 -1 -1 -1 -1 -1 -1 -1 -1 -1 -1 -1 -1 -1 -1 -1 -1 -1 -1 -1 -1 -1 -1 -1 -1 -1 -1 -1 -1 -1 -1 -1 -1 -1 -1 -1 -1 -1 -1 -1 -1 -1 -1 -1 -1 -1 -1 -1 -1 -1 -1 -1 -1 -1 -1 -1 -1 -1 -1 -1 -1 -1 -1 -1 -1 -1 -1 -1 -1 -1 -1 -1 -1 -1 
96 96 97 97 97 97 97 97 97 97 97 97 97 97 97 97 97 97 97 97 97 97 97 97 97 97 97 97 109 121 133 145 157 168 180 192 204 216 228 230 222 214 206 208 212 215 219 223 226 230 234 237 241 245 248 252 209 165 122 89 89 88 87 86 84 83 81 80 79 77 76 75 73 72 70 69 67 65 64 62 61 59 58 56 55 53 52 50 49 47 45 44 42 41 39 38 36 35 33 32 30 28 27 25 24 250 245 241 236 232 227 222 216 211 205 200 194 190 186 183 179 175 171 168 164 160 156 153 149 145 141 138 134 130 126 123 119 115 112 108 104 100 97 93 95 97 98 100 102 104 106 108 110 112 114 115 117 119 121 123 125 127 129 131 132 134 136 138 137 133 129 125 122 118 114 110 107 103 99 96 92 88 84 81 77 73 74 75 76 77 78 79 80 81 82 83 84 85 86 87 88 89 90 91 92 93 94 95 96 97 98 98 99 100 101 102 103 104 105 106 107 108 109 110 111 112 113 114 115 116 117 118 235 173 115 114 113 113 112 112 111 110 110 109 108 108 110 115 120 125 129 134 139 144 148 153 158 163 167 172 177 195 219 242 135 67 244 230 215 201 199 198 197 196 195 194 193 191 190 189 188 187 186 185 184 183 181 180 179 178 177 176 175 174 173 172 170 169 168 167 167 174 181 188 195 202 209 216 223 230 237 244 251 199 201 206 211 216 221 226 230 -1 -1 -1 -1 -1 -1 -1 -1 -1 -1 -1 -1 -1 -1 -1 -1 -1 -1 -1 -1 -1 -1 -1 -1 -1 -1 -1 -1 -1 -1 -1 -1 -1 -1 -1 -1 -1 -1 -1 -1 -1 -1 -1 -1 -1 -1 -1 -1 -1 -1 -1 -1 -1 -1 -1 -1 -1 -1 -1 -1 -1 -1 -1 -1 -1 -1 -1 -1 -1 -1 -1 -1 -1 -1 -1 -1 -1 -1 -1 -1 -1 -1 -1 -1 -1 -1 -1 -1 -1 -1 -1 -1 -1 -1 -1 -1 -1 -1 -1 -1 -1 -1 -1 -1 -1 -1 -1 -1 -1 -1 -1 -1 -1 -1 -1 -1 -1 -1 -1 -1 -1 -1 -1 -1 -1 -1 -1 -1 -1 -1 -1 -1 -1 -1 -1 -1 -1 -1 -1 -1 -1 -1 -1 -1 -1 -1 -1 -1 -1 -1 -1 -1 -1 -1 -1 -1 -1 -1 -1 -1 
96 96 97 97 97 97 97 97 97 97 97 97 97 97 97 97 97 97 97 97 97 97 97 97 97 97 97 109 121 133 145 157 168 180 192 204 216 228 221 213 204 196 190 194 197 201 205 208 212 216 219 223 227 231 238 246 244 200 157 114 86 85 85 85 83 82 80 79 78 76 75 74 72 71 69 68 67 65 64 62 61 59 58 56 55 53 52 50 49 47 46 44 43 41 39 38 36 35 33 32 30 29 27 26 24 249 245 240 236 230 224 219 213 208 202 197 194 190 186 183 179 175 171 168 164 160 156 153 149 145 141 138 134 130 126 123 119 115 111 108 104 100 97 93 95 97 98 100 102 104 106 108 110 112 114 115 117 119 121 123 125 127 129 131 132 134 136 138 140 141 137 133 130 126 122 119 115 111 107 104 100 96 92 89 85 81 78 74 72 73 74 75 76 77 78 79 80 81 82 83 84 85 86 87 88 89 90 91 92 93 94 95 96 97 98 99 100 101 102 103 104 105 106 107 108 109 110 111 111 112 113 114 239 177 115 111 110 109 109 108 107 107 106 105 105 104 104 109 114 119 123 128 133 138 142 147 152 157 161 166 179 203 226 250 79 135 238 224 210 206 205 204 203 202 200 199 198 197 196 195 194 193 192 191 189 188 187 186 185 184 183 182 181 180 178 177 176 175 174 173 172 171 178 185 192 199 206 213 220 227 234 241 248 232 202 207 212 217 222 227 231 -1 -1 -1 -1 -1 -1 -1 -1 -1 -1 -1 -1 -1 -1 -1 -1 -1 -1 -1 -1 -1 -1 -1 -1 -1 -1 -1 -1 -1 -1 -1 -1 -1 -1 -1 -1 -1 -1 -1 -1 -1 -1 -1 -1 -1 -1 -1 -1 -1 -1 -1 -1 -1 -1 -1 -1 -1 -1 -1 -1 -1 -1 -1 -1 -1 -1 -1 -1 -1 -1 -1 -1 -1 -1 -1 -1 -1 -1 -1 -1 -1 -1 -1 -1 -1 -1 -1 -1 -1 -1 -1 -1 -1 -1 -1 -1 -1 -1 -1 -1 -1 -1 -1 -1 -1 -1 -1 -1 -1 -1 -1 -1 -1 -1 -1 -1 -1 -1 -1 -1 -1 -1 -1 -1 -1 -1 -1 -1 -1 -1 -1 -1 -1 -1 -1 -1 -1 -1 -1 -1 -1 -1 -1 -1 -1 -1 -1 -1 -1 -1 -1 -1 -1 -1 -1 -1 -1 -1 -1 -1 
96 97 97 97 97 97 97 97 97 97 97 97 97 97 97 97 97 97 97 97 97 97 97 97 97 97 109 121 133 145 157 168 180 192 204 216 219 211 203 195 186 178 176 179 183 187 190 194 198 201 205 210 217 225 232 239 247 237 192 148 105 82 82 82 81 81 79 78 77 75 74 73 71 70 68 67 66 64 63 61 60 59 57 56 54 53 52 50 49 47 46 44 43 41 40 38 36 35 33 32 30 29 27 26 138 248 244 238 233 227 222 216 211 205 201 197 194 190 186 183 179 175 171 168 164 160 156 153 149 145 141 138 134 130 126 123 119 115 111 108 104 100 97 93 95 97 98 100 102 104 106 108 110 112 114 115 117 119 121 123 125 127 129 131 132 134 136 138 140 142 144 141 138 134 130 127 123 119 115 112 108 104 101 97 93 89 86 82 78 74 71 72 73 74 75 76 77 78 79 80 81 82 83 84 85 85 86 87 88 89 90 91 92 93 94 95 96 97 98 99 100 101 102 103 104 105 106 107 108 109 110 111 244 181 119 107 106 106 105 104 104 103 103 102 101 101 100 103 108 113 118 122 127 132 137 141 146 151 156 163 187 210 234 192 23 247 233 218 213 212 211 209 208 207 206 205 204 203 202 201 200 198 197 196 195 194 193 192 191 190 189 187 186 185 184 183 182 181 180 179 178 176 175 182 189 196 203 210 217 224 231 238 245 252 203 208 213 218 223 228 233 -1 -1 -1 -1 -1 -1 -1 -1 -1 -1 -1 -1 -1 -1 -1 -1 -1 -1 -1 -1 -1 -1 -1 -1 -1 -1 -1 -1 -1 -1 -1 -1 -1 -1 -1 -1 -1 -1 -1 -1 -1 -1 -1 -1 -1 -1 -1 -1 -1 -1 -1 -1 -1 -1 -1 -1 -1 -1 -1 -1 -1 -1 -1 -1 -1 -1 -1 -1 -1 -1 -1 -1 -1 -1 -1 -1 -1 -1 -1 -1 -1 -1 -1 -1 -1 -1 -1 -1 -1 -1 -1 -1 -1 -1 -1 -1 -1 -1 -1 -1 -1 -1 -1 -1 -1 -1 -1 -1 -1 -1 -1 -1 -1 -1 -1 -1 -1 -1 -1 -1 -1 -1 -1 -1 -1 -1 -1 -1 -1 -1 -1 -1 -1 -1 -1 -1 -1 -1 -1 -1 -1 -1 -1 -1 -1 -1 -1 -1 -1 -1 -1 -1 -1 -1 -1 -1 -1 -1 -1 -1 
96 97 97 97 97 97 97 97 97 97 97 97 97 97 97 97 97 97 97 97 97 98 98 98 98 109 121 133 145 157 169 180 192 204 216 210 202 193 185 177 169 160 162 165 169 173 176 180 183 189 196 204 211 218 226 233 241 248 229 183 140 96 79 78 78 78 78 77 76 74 73 72 70 69 67 66 65 63 62 60 59 58 56 55 53 52 51 49 48 46 45 44 42 41 40 38 37 35 34 32 30 29 27 26 252 246 241 235 230 224 219 213 209 205 201 197 194 190 186 183 179 175 171 168 164 160 156 153 149 145 141 138 134 130 126 123 119 115 111 108 104 100 97 93 95 97 98 100 102 104 106 108 110 112 114 115 117 119 121 123 125 127 129 131 132 134 136 138 140 142 144 146 146 142 138 135 131 127 123 120 116 112 109 105 101 97 94 90 86 82 79 75 71 70 71 72 73 74 75 76 77 78 79 80 81 82 83 84 85 86 87 88 89 90 91 92 93 94 95 96 97 98 98 99 100 101 102 103 104 105 106 107 248 186 124 104 103 102 102 101 100 100 99 98 98 97 96 98 102 107 112 117 121 126 131 135 140 145 150 171 194 218 241 136 80 241 227 220 219 217 216 215 214 213 212 211 210 209 208 206 205 204 203 202 201 200 199 198 196 195 194 193 192 191 190 189 188 187 185 184 183 182 181 180 186 193 200 207 214 221 228 235 242 249 216 210 214 219 224 229 234 -1 -1 -1 -1 -1 -1 -1 -1 -1 -1 -1 -1 -1 -1 -1 -1 -1 -1 -1 -1 -1 -1 -1 -1 -1 -1 -1 -1 -1 -1 -1 -1 -1 -1 -1 -1 -1 -1 -1 -1 -1 -1 -1 -1 -1 -1 -1 -1 -1 -1 -1 -1 -1 -1 -1 -1 -1 -1 -1 -1 -1 -1 -1 -1 -1 -1 -1 -1 -1 -1 -1 -1 -1 -1 -1 -1 -1 -1 -1 -1 -1 -1 -1 -1 -1 -1 -1 -1 -1 -1 -1 -1 -1 -1 -1 -1 -1 -1 -1 -1 -1 -1 -1 -1 -1 -1 -1 -1 -1 -1 -1 -1 -1 -1 -1 -1 -1 -1 -1 -1 -1 -1 -1 -1 -1 -1 -1 -1 -1 -1 -1 -1 -1 -1 -1 -1 -1 -1 -1 -1 -1 -1 -1 -1 -1 -1 -1 -1 -1 -1 -1 -1 -1 -1 -1 -1 -1 -1 -1 -1 
96 97 97 97 97 97 97 97 97 97 97 97 97 97 98 98 98 98 98 98 98 98 98 98 109 121 133 145 157 169 180 192 204 209 200 192 184 175 167 159 151 144 147 151 155 158 162 168 175 182 190 197 205 212 220 227 234 242 249 222 174 131 88 75 75 75 74 74 74 73 72 70 69 68 66 65 64 62 61 59 58 57 55 54 52 51 50 48 47 45 44 43 41 40 39 37 36 34 33 32 30 29 27 26 249 244 238 233 227 221 216 212 209 205 201 197 194 190 186 182 179 175 171 168 164 160 156 153 149 145 141 138 134 130 126 123 119 115 111 108 104 100 97 93 95 97 98 100 102 104 106 108 110 112 114 115 117 119 121 123 125 127 129 131 132 134 136 138 140 142 144 146 148 149 146 143 139 135 131 128 124 120 117 113 109 105 102 98 94 91 87 83 79 76 72 69 70 71 72 72 73 74 75 76 77 78 79 80 81 82 83 84 85 86 87 88 89 90 91 92 93 94 95 96 97 98 99 100 101 102 103 104 253 190 128 100 99 99 98 97 97 96 96 95 94 94 93 92 96 101 106 111 115 120 125 130 134 139 155 178 202 225 249 80 191 236 226 225 224 223 222 221 220 219 218 217 215 214 213 212 211 210 209 208 207 206 204 203 202 201 200 199 198 197 196 195 193 192 191 190 189 188 187 186 185 190 197 204 211 218 225 232 239 246 249 211 216 221 226 230 235 -1 -1 -1 -1 -1 -1 -1 -1 -1 -1 -1 -1 -1 -1 -1 -1 -1 -1 -1 -1 -1 -1 -1 -1 -1 -1 -1 -1 -1 -1 -1 -1 -1 -1 -1 -1 -1 -1 -1 -1 -1 -1 -1 -1 -1 -1 -1 -1 -1 -1 -1 -1 -1 -1 -1 -1 -1 -1 -1 -1 -1 -1 -1 -1 -1 -1 -1 -1 -1 -1 -1 -1 -1 -1 -1 -1 -1 -1 -1 -1 -1 -1 -1 -1 -1 -1 -1 -1 -1 -1 -1 -1 -1 -1 -1 -1 -1 -1 -1 -1 -1 -1 -1 -1 -1 -1 -1 -1 -1 -1 -1 -1 -1 -1 -1 -1 -1 -1 -1 -1 -1 -1 -1 -1 -1 -1 -1 -1 -1 -1 -1 -1 -1 -1 -1 -1 -1 -1 -1 -1 -1 -1 -1 -1 -1 -1 -1 -1 -1 -1 -1 -1 -1 -1 -1 -1 -1 -1 -1 -1 
96 97 97 97 97 97 98 98 98 98 98 98 98 98 98 98 98 98 98 98 98 98 98 110 121 133 145 157 169 181 192 204 199 191 182 174 166 158 149 141 133 129 133 137 140 147 154 161 169 176 184 191 198 206 213 221 228 236 243 250 214 166 123 79 72 71 71 71 71 70 70 69 68 67 65 64 63 61 60 58 57 56 54 53 51 50 49 47 46 44 43 42 40 39 38 36 35 33 32 31 29 28 56 137 246 241 235 230 224 220 216 212 209 205 201 197 194 190 186 182 179 175 171 168 164 160 156 153 149 145 141 138 134 130 126 123 119 115 111 108 104 100 97 93 95 97 98 100 102 104 106 108 110 112 114 115 117 119 121 123 125 127 129 131 132 134 136 138 140 142 144 146 148 149 151 151 147 143 140 136 132 128 125 121 117 113 110 106 102 99 95 91 87 84 80 76 73 69 68 69 70 71 72 73 74 75 76 77 78 79 80 81 82 83 84 85 85 86 87 88 89 90 91 92 93 94 95 96 97 98 99 100 239 195 133 96 96 95 95 94 93 93 92 91 91 90 89 89 91 95 100 105 110 114 119 124 129 139 162 186 209 248 192 24 244 233 232 231 230 229 228 227 226 225 223 222 221 220 219 218 217 216 215 213 212 211 210 209 208 207 206 205 204 202 201 200 199 198 197 196 195 194 193 191 190 189 195 202 209 216 223 230 237 244 251 212 217 222 227 232 236 -1 -1 -1 -1 -1 -1 -1 -1 -1 -1 -1 -1 -1 -1 -1 -1 -1 -1 -1 -1 -1 -1 -1 -1 -1 -1 -1 -1 -1 -1 -1 -1 -1 -1 -1 -1 -1 -1 -1 -1 -1 -1 -1 -1 -1 -1 -1 -1 -1 -1 -1 -1 -1 -1 -1 -1 -1 -1 -1 -1 -1 -1 -1 -1 -1 -1 -1 -1 -1 -1 -1 -1 -1 -1 -1 -1 -1 -1 -1 -1 -1 -1 -1 -1 -1 -1 -1 -1 -1 -1 -1 -1 -1 -1 -1 -1 -1 -1 -1 -1 -1 -1 -1 -1 -1 -1 -1 -1 -1 -1 -1 -1 -1 -1 -1 -1 -1 -1 -1 -1 -1 -1 -1 -1 -1 -1 -1 -1 -1 -1 -1 -1 -1 -1 -1 -1 -1 -1 -1 -1 -1 -1 -1 -1 -1 -1 -1 -1 -1 -1 -1 -1 -1 -1 -1 -1 -1 -1 -1 -1 
96 97 97 98 98 98 98 98 98 98 98 98 98 98 98 98 98 98 98 98 98 98 110 121 133 145 157 169 181 192 198 189 181 173 164 156 148 140 131 123 115 115 119 125 133 140 148 155 163 170 177 185 192 200 207 214 222 229 237 244 252 207 157 114 71 68 68 68 67 67 67 67 66 66 64 63 62 60 59 57 56 55 53 52 50 49 48 46 45 43 42 41 39 38 37 35 34 32 31 30 28 86 246 249 243 238 232 227 224 220 216 212 209 205 201 197 194 190 186 182 179 175 171 168 164 160 156 153 149 145 141 138 134 130 126 123 119 115 111 108 104 100 96 93 95 97 98 100 102 104 106 108 110 112 114 115 117 119 121 123 125 127 129 131 132 134 136 138 140 142 144 146 148 149 151 153 155 151 148 144 140 136 133 129 125 121 118 114 110 107 103 99 95 92 88 84 81 77 73 69 66 67 68 69 70 71 72 73 74 75 76 77 78 79 80 81 82 83 84 85 86 87 88 89 90 91 92 93 94 95 96 97 226 199 137 93 92 92 91 90 90 89 88 88 87 87 86 85 85 89 94 99 104 108 113 118 123 146 170 193 247 248 136 136 240 239 238 237 236 235 234 232 231 230 229 228 227 226 225 224 223 221 220 219 218 217 216 215 214 213 211 210 209 208 207 206 205 204 203 202 200 199 198 197 196 195 194 199 206 213 220 227 234 241 248 233 218 223 228 233 237 -1 -1 -1 -1 -1 -1 -1 -1 -1 -1 -1 -1 -1 -1 -1 -1 -1 -1 -1 -1 -1 -1 -1 -1 -1 -1 -1 -1 -1 -1 -1 -1 -1 -1 -1 -1 -1 -1 -1 -1 -1 -1 -1 -1 -1 -1 -1 -1 -1 -1 -1 -1 -1 -1 -1 -1 -1 -1 -1 -1 -1 -1 -1 -1 -1 -1 -1 -1 -1 -1 -1 -1 -1 -1 -1 -1 -1 -1 -1 -1 -1 -1 -1 -1 -1 -1 -1 -1 -1 -1 -1 -1 -1 -1 -1 -1 -1 -1 -1 -1 -1 -1 -1 -1 -1 -1 -1 -1 -1 -1 -1 -1 -1 -1 -1 -1 -1 -1 -1 -1 -1 -1 -1 -1 -1 -1 -1 -1 -1 -1 -1 -1 -1 -1 -1 -1 -1 -1 -1 -1 -1 -1 -1 -1 -1 -1 -1 -1 -1 -1 -1 -1 -1 -1 -1 -1 -1 -1 -1 -1 
96 97 97 98 98 98 98 98 98 98 98 98 98 98 98 98 98 98 98 98 98 110 121 133 145 157 169 181 193 188 180 171 163 155 147 138 130 122 114 105 97 104 112 119 127 134 141 149 156 164 171 179 186 193 201 208 216 223 230 238 245 250 199 149 106 65 65 64 64 64 64 63 63 63 63 62 61 59 58 56 55 54 52 51 49 48 47 45 44 42 41 40 38 37 35 34 33 31 30 29 115 239 22 246 241 235 231 227 224 220 216 212 209 205 201 197 194 190 186 182 179 175 171 168 164 160 156 153 149 145 141 138 134 130 126 123 119 115 111 108 104 100 96 93 95 97 98 100 102 104 106 108 110 112 114 115 117 119 121 123 125 127 129 131 132 134 136 138 140 142 144 146 148 149 151 153 155 157 156 152 148 144 141 137 133 130 126 122 118 115 111 107 103 100 96 92 89 85 81 77 74 70 66 66 67 68 69 70 71 72 72 73 74 75 76 77 78 79 80 81 82 83 84 85 86 87 88 89 90 91 92 93 212 204 141 89 89 88 87 87 86 86 85 84 84 83 82 82 81 84 88 93 98 103 107 112 130 154 177 246 247 248 79 247 246 245 244 243 241 240 239 238 237 236 235 234 233 232 230 229 228 227 226 225 224 223 222 221 219 218 217 216 215 214 213 212 211 210 208 207 206 205 204 203 202 201 200 198 203 210 217 224 231 238 245 252 219 224 229 234 239 -1 -1 -1 -1 -1 -1 -1 -1 -1 -1 -1 -1 -1 -1 -1 -1 -1 -1 -1 -1 -1 -1 -1 -1 -1 -1 -1 -1 -1 -1 -1 -1 -1 -1 -1 -1 -1 -1 -1 -1 -1 -1 -1 -1 -1 -1 -1 -1 -1 -1 -1 -1 -1 -1 -1 -1 -1 -1 -1 -1 -1 -1 -1 -1 -1 -1 -1 -1 -1 -1 -1 -1 -1 -1 -1 -1 -1 -1 -1 -1 -1 -1 -1 -1 -1 -1 -1 -1 -1 -1 -1 -1 -1 -1 -1 -1 -1 -1 -1 -1 -1 -1 -1 -1 -1 -1 -1 -1 -1 -1 -1 -1 -1 -1 -1 -1 -1 -1 -1 -1 -1 -1 -1 -1 -1 -1 -1 -1 -1 -1 -1 -1 -1 -1 -1 -1 -1 -1 -1 -1 -1 -1 -1 -1 -1 -1 -1 -1 -1 -1 -1 -1 -1 -1 -1 -1 -1 -1 -1 -1 
97 97 97 98 98 98 98 98 98 98 98 98 98 98 98 98 98 98 98 98 110 122 133 145 157 169 181 187 178 170 162 154 145 137 129 120 112 104 98 106 101 103 107 113 120 128 135 143 150 157 165 172 180 187 195 202 209 217 224 232 239 246 242 191 141 97 61 61 61 61 60 60 60 60 59 59 59 58 57 55 54 53 51 50 48 47 46 44 43 41 40 39 37 36 34 33 32 30 29 145 233 168 134 243 239 235 231 227 224 220 216 212 209 205 201 197 194 190 186 182 179 175 171 168 164 160 156 153 149 145 141 138 134 130 126 123 119 115 111 108 104 100 96 93 95 97 98 100 102 104 106 108 110 112 114 115 117 119 121 123 125 127 129 131 132 134 136 138 140 142 144 146 148 149 151 153 155 157 159 160 156 152 149 145 141 138 134 130 126 123 119 115 112 108 104 100 97 93 89 85 82 78 74 71 67 64 65 66 67 68 69 70 71 72 73 74 75 76 77 78 79 80 81 82 83 84 85 85 86 87 88 89 199 208 146 86 85 85 84 83 83 82 81 81 80 79 79 78 78 78 83 87 92 97 101 114 138 161 245 246 247 247 22 248 248 248 248 248 247 246 245 244 243 242 241 240 238 237 236 235 234 233 232 231 230 228 227 226 225 224 223 222 221 220 219 217 216 215 214 213 212 211 210 209 208 206 205 204 203 207 214 221 228 235 242 249 220 225 230 235 240 -1 -1 -1 -1 -1 -1 -1 -1 -1 -1 -1 -1 -1 -1 -1 -1 -1 -1 -1 -1 -1 -1 -1 -1 -1 -1 -1 -1 -1 -1 -1 -1 -1 -1 -1 -1 -1 -1 -1 -1 -1 -1 -1 -1 -1 -1 -1 -1 -1 -1 -1 -1 -1 -1 -1 -1 -1 -1 -1 -1 -1 -1 -1 -1 -1 -1 -1 -1 -1 -1 -1 -1 -1 -1 -1 -1 -1 -1 -1 -1 -1 -1 -1 -1 -1 -1 -1 -1 -1 -1 -1 -1 -1 -1 -1 -1 -1 -1 -1 -1 -1 -1 -1 -1 -1 -1 -1 -1 -1 -1 -1 -1 -1 -1 -1 -1 -1 -1 -1 -1 -1 -1 -1 -1 -1 -1 -1 -1 -1 -1 -1 -1 -1 -1 -1 -1 -1 -1 -1 -1 -1 -1 -1 -1 -1 -1 -1 -1 -1 -1 -1 -1 -1 -1 -1 -1 -1 -1 -1 -1 
97 97 97 98 98 98 98 98 98 98 98 98 98 98 98 98 98 98 98 110 122 133 145 157 169 181 177 169 160 152 144 136 127 119 111 103 100 107 115 115 105 95 109 113 117 122 129 136 144 151 159 166 173 181 188 196 203 211 218 225 233 240 248 235 184 133 88 58 58 57 57 57 57 56 56 56 56 56 55 54 53 52 50 49 47 46 45 43 42 40 39 38 36 35 33 32 31 29 175 226 161 96 246 242 239 235 231 227 224 220 216 212 209 205 201 197 194 190 186 182 179 175 171 167 164 160 156 153 149 145 141 138 134 130 126 123 119 115 111 108 104 100 96 93 95 96 98 100 102 104 106 108 110 112 114 115 117 119 121 123 125 127 129 131 132 134 136 138 140 142 144 146 148 149 151 153 155 157 159 161 163 160 157 153 149 146 142 138 134 131 127 123 120 116 112 108 105 101 97 93 90 86 82 79 75 71 67 64 63 64 65 66 67 68 69 70 71 72 73 74 75 76 77 78 79 80 81 82 83 84 85 86 186 213 150 88 82 81 80 80 79 79 78 77 77 76 75 75 74 73 77 81 86 91 98 122 163 244 245 246 247 247 68 249 249 249 249 249 248 248 248 248 248 247 246 245 244 243 242 241 240 239 238 236 235 234 233 232 231 230 229 228 227 225 224 223 222 221 220 219 218 217 215 214 213 212 211 210 209 208 211 218 225 232 239 246 250 226 231 236 241 -1 -1 -1 -1 -1 -1 -1 -1 -1 -1 -1 -1 -1 -1 -1 -1 -1 -1 -1 -1 -1 -1 -1 -1 -1 -1 -1 -1 -1 -1 -1 -1 -1 -1 -1 -1 -1 -1 -1 -1 -1 -1 -1 -1 -1 -1 -1 -1 -1 -1 -1 -1 -1 -1 -1 -1 -1 -1 -1 -1 -1 -1 -1 -1 -1 -1 -1 -1 -1 -1 -1 -1 -1 -1 -1 -1 -1 -1 -1 -1 -1 -1 -1 -1 -1 -1 -1 -1 -1 -1 -1 -1 -1 -1 -1 -1 -1 -1 -1 -1 -1 -1 -1 -1 -1 -1 -1 -1 -1 -1 -1 -1 -1 -1 -1 -1 -1 -1 -1 -1 -1 -1 -1 -1 -1 -1 -1 -1 -1 -1 -1 -1 -1 -1 -1 -1 -1 -1 -1 -1 -1 -1 -1 -1 -1 -1 -1 -1 -1 -1 -1 -1 -1 -1 -1 -1 -1 -1 -1 -1 
97 97 98 98 98 98 98 98 98 98 98 98 98 98 98 98 98 98 110 122 134 145 157 169 176 167 159 151 143 134 126 118 110 101 101 109 116 124 129 119 109 99 98 115 119 123 127 131 138 145 152 160 167 175 182 189 197 204 212 219 227 234 241 249 227 176 126 80 54 54 54 54 53 53 53 53 52 52 52 52 52 51 49 48 46 45 44 42 41 39 38 37 35 34 32 31 44 188 220 154 89 24 226 242 239 235 231 227 224 220 216 212 209 205 201 197 194 190 186 182 179 175 171 167 164 160 156 153 149 145 141 138 134 130 126 123 119 115 111 108 104 100 96 93 95 96 98 100 102 104 106 108 110 112 113 115 117 119 121 123 125 127 129 130 132 134 136 138 140 142 144 146 147 149 151 153 155 157 159 161 163 164 165 161 157 154 150 146 142 139 135 131 128 124 120 116 113 109 105 102 98 94 90 87 83 79 75 72 68 64 62 63 64 65 66 67 68 69 70 71 71 72 73 74 75 76 77 78 79 80 81 82 172 217 155 93 78 78 77 76 76 75 74 74 73 72 72 71 71 70 71 76 80 85 106 182 243 244 245 246 246 247 114 250 250 250 250 250 249 249 249 249 249 249 249 249 249 249 248 247 245 244 243 242 241 240 239 238 237 236 234 233 232 231 230 229 228 227 226 225 223 222 221 220 219 218 217 216 215 213 212 215 222 229 236 243 250 228 233 238 242 -1 -1 -1 -1 -1 -1 -1 -1 -1 -1 -1 -1 -1 -1 -1 -1 -1 -1 -1 -1 -1 -1 -1 -1 -1 -1 -1 -1 -1 -1 -1 -1 -1 -1 -1 -1 -1 -1 -1 -1 -1 -1 -1 -1 -1 -1 -1 -1 -1 -1 -1 -1 -1 -1 -1 -1 -1 -1 -1 -1 -1 -1 -1 -1 -1 -1 -1 -1 -1 -1 -1 -1 -1 -1 -1 -1 -1 -1 -1 -1 -1 -1 -1 -1 -1 -1 -1 -1 -1 -1 -1 -1 -1 -1 -1 -1 -1 -1 -1 -1 -1 -1 -1 -1 -1 -1 -1 -1 -1 -1 -1 -1 -1 -1 -1 -1 -1 -1 -1 -1 -1 -1 -1 -1 -1 -1 -1 -1 -1 -1 -1 -1 -1 -1 -1 -1 -1 -1 -1 -1 -1 -1 -1 -1 -1 -1 -1 -1 -1 -1 -1 -1 -1 -1 -1 -1 -1 -1 -1 -1 
97 97 98 98 98 98 98 98 98 98 98 98 98 98 98 98 98 110 122 134 145 157 169 166 158 150 141 133 125 116 108 100 103 110 118 125 133 140 133 123 113 103 94 107 121 125 129 133 137 142 146 154 161 168 176 183 191 198 205 213 220 228 235 243 250 220 169 118 71 51 51 50 50 50 50 49 49 49 49 49 48 48 48 47 45 44 43 41 40 38 37 36 34 33 31 74 201 213 148 83 67 240 207 235 239 235 231 227 224 220 216 212 209 205 201 197 194 190 186 182 179 175 171 167 164 160 156 153 149 145 141 138 134 130 126 123 119 115 111 108 104 100 96 93 95 96 98 100 102 104 106 108 110 112 113 115 117 119 121 123 125 127 129 130 132 134 136 138 140 142 144 146 147 149 151 153 155 157 159 161 163 164 166 168 165 162 158 154 150 147 143 139 136 132 128 124 121 117 113 110 106 102 98 95 91 87 83 80 76 72 69 65 61 61 62 63 64 65 66 67 68 69 70 71 72 73 74 75 76 77 78 79 159 222 159 97 75 74 73 73 72 71 71 70 70 69 68 68 67 66 66 70 74 90 202 243 243 244 245 246 248 25 161 251 251 251 251 251 250 250 250 250 250 250 250 250 250 250 249 249 249 249 249 248 247 246 245 243 242 241 240 239 238 237 236 235 234 232 231 230 229 228 227 226 225 224 223 221 220 219 218 217 220 227 234 241 248 235 234 239 243 -1 -1 -1 -1 -1 -1 -1 -1 -1 -1 -1 -1 -1 -1 -1 -1 -1 -1 -1 -1 -1 -1 -1 -1 -1 -1 -1 -1 -1 -1 -1 -1 -1 -1 -1 -1 -1 -1 -1 -1 -1 -1 -1 -1 -1 -1 -1 -1 -1 -1 -1 -1 -1 -1 -1 -1 -1 -1 -1 -1 -1 -1 -1 -1 -1 -1 -1 -1 -1 -1 -1 -1 -1 -1 -1 -1 -1 -1 -1 -1 -1 -1 -1 -1 -1 -1 -1 -1 -1 -1 -1 -1 -1 -1 -1 -1 -1 -1 -1 -1 -1 -1 -1 -1 -1 -1 -1 -1 -1 -1 -1 -1 -1 -1 -1 -1 -1 -1 -1 -1 -1 -1 -1 -1 -1 -1 -1 -1 -1 -1 -1 -1 -1 -1 -1 -1 -1 -1 -1 -1 -1 -1 -1 -1 -1 -1 -1 -1 -1 -1 -1 -1 -1 -1 -1 -1 -1 -1 -1 -1 
97 97 98 98 98 98 98 98 98 98 98 98 98 98 98 98 110 122 134 146 157 165 156 148 140 132 123 115 107 99 104 112 119 127 134 142 149 147 137 127 117 107 98 89 116 127 131 135 139 143 148 152 156 162 170 177 184 192 199 207 214 221 229 236 244 251 212 161 110 63 47 47 47 47 46 46 46 46 45 45 45 45 45 44 44 43 42 40 39 37 36 35 33 32 104 214 207 141 113 110 107 159 187 215 238 235 231 227 224 220 216 212 209 205 201 197 194 190 186 182 179 175 171 167 164 160 156 153 149 145 141 138 134 130 126 123 119 115 111 108 104 100 96 93 95 96 98 100 102 104 106 108 110 112 113 115 117 119 121 123 125 127 129 130 132 134 136 138 140 142 144 146 147 149 151 153 155 157 159 161 163 164 166 168 170 170 166 162 159 155 151 147 144 140 136 132 129 125 121 118 114 110 106 103 99 95 92 88 84 80 77 73 69 65 62 59 60 61 62 63 64 65 66 67 68 69 70 71 72 73 74 75 145 226 164 101 71 70 70 69 69 68 67 67 66 65 65 64 63 63 62 64 74 221 242 242 244 246 247 249 250 139 207 252 252 252 252 252 251 251 251 251 251 251 251 251 251 250 250 250 250 250 250 250 250 250 250 249 248 247 246 245 244 243 242 240 239 238 237 236 235 234 233 232 230 229 228 227 226 225 224 223 222 224 231 238 245 252 235 240 245 -1 -1 -1 -1 -1 -1 -1 -1 -1 -1 -1 -1 -1 -1 -1 -1 -1 -1 -1 -1 -1 -1 -1 -1 -1 -1 -1 -1 -1 -1 -1 -1 -1 -1 -1 -1 -1 -1 -1 -1 -1 -1 -1 -1 -1 -1 -1 -1 -1 -1 -1 -1 -1 -1 -1 -1 -1 -1 -1 -1 -1 -1 -1 -1 -1 -1 -1 -1 -1 -1 -1 -1 -1 -1 -1 -1 -1 -1 -1 -1 -1 -1 -1 -1 -1 -1 -1 -1 -1 -1 -1 -1 -1 -1 -1 -1 -1 -1 -1 -1 -1 -1 -1 -1 -1 -1 -1 -1 -1 -1 -1 -1 -1 -1 -1 -1 -1 -1 -1 -1 -1 -1 -1 -1 -1 -1 -1 -1 -1 -1 -1 -1 -1 -1 -1 -1 -1 -1 -1 -1 -1 -1 -1 -1 -1 -1 -1 -1 -1 -1 -1 -1 -1 -1 -1 -1 -1 -1 -1 -1 
97 97 98 98 98 98 98 98 98 98 98 98 98 98 98 110 122 134 146 157 155 147 139 130 122 114 105 98 106 113 121 128 136 143 151 158 161 151 141 131 121 111 102 92 98 126 133 137 141 145 149 154 158 162 166 171 178 186 193 200 208 215 223 230 237 245 252 204 154 103 54 44 44 43 43 43 43 42 42 42 42 42 41 41 41 41 40 39 38 36 35 34 32 117 226 200 159 156 153 150 235 139 168 196 224 235 231 227 224 220 216 212 209 205 201 197 194 190 186 182 179 175 171 167 164 160 156 152 149 145 141 138 134 130 126 123 119 115 111 108 104 100 96 93 95 96 98 100 102 104 106 108 110 112 113 115 117 119 121 123 125 127 129 130 132 134 136 138 140 142 144 146 147 149 151 153 155 157 159 161 163 164 166 168 170 172 174 170 167 163 159 155 152 148 144 141 137 133 129 126 122 118 114 111 107 103 100 96 92 88 85 81 77 74 70 66 62 59 59 60 61 62 63 64 65 66 67 68 69 70 71 71 132 231 168 106 68 67 66 66 65 64 64 63 62 62 61 61 60 59 59 58 240 242 243 245 247 248 250 251 253 253 253 253 253 253 253 252 252 252 252 252 252 252 252 252 252 251 251 251 251 251 251 251 251 251 251 250 250 250 250 250 249 248 247 246 245 244 243 242 241 240 238 237 236 235 234 233 232 231 230 229 227 226 228 235 242 249 236 241 246 -1 -1 -1 -1 -1 -1 -1 -1 -1 -1 -1 -1 -1 -1 -1 -1 -1 -1 -1 -1 -1 -1 -1 -1 -1 -1 -1 -1 -1 -1 -1 -1 -1 -1 -1 -1 -1 -1 -1 -1 -1 -1 -1 -1 -1 -1 -1 -1 -1 -1 -1 -1 -1 -1 -1 -1 -1 -1 -1 -1 -1 -1 -1 -1 -1 -1 -1 -1 -1 -1 -1 -1 -1 -1 -1 -1 -1 -1 -1 -1 -1 -1 -1 -1 -1 -1 -1 -1 -1 -1 -1 -1 -1 -1 -1 -1 -1 -1 -1 -1 -1 -1 -1 -1 -1 -1 -1 -1 -1 -1 -1 -1 -1 -1 -1 -1 -1 -1 -1 -1 -1 -1 -1 -1 -1 -1 -1 -1 -1 -1 -1 -1 -1 -1 -1 -1 -1 -1 -1 -1 -1 -1 -1 -1 -1 -1 -1 -1 -1 -1 -1 -1 -1 -1 -1 -1 -1 -1 -1 -1 
97 97 98 98 98 98 98 98 98 98 98 98 98 98 110 122 134 146 154 145 137 129 121 112 104 100 107 115 122 130 137 145 152 160 167 175 165 155 145 135 125 116 106 96 86 108 135 139 143 147 151 155 160 164 168 172 176 180 187 194 202 209 216 224 231 239 246 248 197 146 95 46 40 40 40 40 39 39 39 39 38 38 38 38 38 37 37 37 37 35 34 33 130 239 206 202 199 196 193 189 91 120 148 176 205 233 231 227 224 220 216 212 209 205 201 197 194 190 186 182 179 175 171 167 164 160 156 152 149 145 141 138 134 130 126 123 119 115 111 108 104 100 96 93 95 96 98 100 102 104 106 108 110 112 113 115 117 119 121 123 125 127 129 130 132 134 136 138 140 142 144 146 147 149 151 153 155 157 159 161 163 164 166 168 170 172 174 176 175 171 167 163 160 156 152 149 145 141 137 134 130 126 122 119 115 111 108 104 100 96 93 89 85 82 78 74 70 67 63 59 57 58 59 60 61 62 63 64 65 66 67 68 118 235 173 110 64 63 63 62 62 61 60 60 59 58 58 74 91 58 69 69 159 224 195 167 138 110 81 53 24 194 252 249 247 244 242 239 237 234 231 242 253 253 253 253 253 252 252 252 252 252 252 252 252 252 252 251 251 251 251 251 251 251 251 251 251 250 249 247 246 245 244 243 242 241 240 239 238 236 235 234 233 232 231 232 239 246 252 242 247 -1 -1 -1 -1 -1 -1 -1 -1 -1 -1 -1 -1 -1 -1 -1 -1 -1 -1 -1 -1 -1 -1 -1 -1 -1 -1 -1 -1 -1 -1 -1 -1 -1 -1 -1 -1 -1 -1 -1 -1 -1 -1 -1 -1 -1 -1 -1 -1 -1 -1 -1 -1 -1 -1 -1 -1 -1 -1 -1 -1 -1 -1 -1 -1 -1 -1 -1 -1 -1 -1 -1 -1 -1 -1 -1 -1 -1 -1 -1 -1 -1 -1 -1 -1 -1 -1 -1 -1 -1 -1 -1 -1 -1 -1 -1 -1 -1 -1 -1 -1 -1 -1 -1 -1 -1 -1 -1 -1 -1 -1 -1 -1 -1 -1 -1 -1 -1 -1 -1 -1 -1 -1 -1 -1 -1 -1 -1 -1 -1 -1 -1 -1 -1 -1 -1 -1 -1 -1 -1 -1 -1 -1 -1 -1 -1 -1 -1 -1 -1 -1 -1 -1 -1 -1 -1 -1 -1 -1 -1 -1 
97 97 98 98 98 98 98 98 98 98 98 98 98 110 122 134 146 144 136 128 119 111 103 101 109 116 124 131 138 146 153 161 168 176 183 179 169 159 149 139 129 120 110 100 90 90 117 141 145 149 153 157 161 166 170 174 178 182 186 190 195 203 210 218 225 232 240 247 240 189 139 88 37 37 37 36 36 36 36 35 35 35 35 35 34 34 34 34 33 33 33 143 252 249 245 242 239 236 232 229 72 100 128 157 185 213 231 227 224 220 216 212 209 205 201 197 194 190 186 182 179 175 171 167 164 160 156 152 149 145 141 138 134 130 126 123 119 115 111 108 104 100 96 93 95 96 98 100 102 104 106 108 110 112 113 115 117 119 121 123 125 127 129 130 132 134 136 138 140 142 144 146 147 149 151 153 155 157 159 161 163 164 166 168 170 172 174 176 178 179 175 171 168 164 160 157 153 149 145 142 138 134 131 127 123 119 116 112 108 104 101 97 93 90 86 82 78 75 71 67 64 60 56 57 58 58 59 60 61 62 63 64 105 240 177 115 61 60 59 59 58 57 74 90 107 123 79 58 69 80 64 80 96 236 208 179 151 122 93 65 136 223 251 248 246 243 240 238 235 233 230 228 225 223 220 218 215 212 210 215 231 248 253 253 253 253 253 252 252 252 252 252 252 252 252 252 252 251 251 251 251 251 250 249 248 247 245 244 243 242 241 240 239 238 237 236 236 243 250 243 248 -1 -1 -1 -1 -1 -1 -1 -1 -1 -1 -1 -1 -1 -1 -1 -1 -1 -1 -1 -1 -1 -1 -1 -1 -1 -1 -1 -1 -1 -1 -1 -1 -1 -1 -1 -1 -1 -1 -1 -1 -1 -1 -1 -1 -1 -1 -1 -1 -1 -1 -1 -1 -1 -1 -1 -1 -1 -1 -1 -1 -1 -1 -1 -1 -1 -1 -1 -1 -1 -1 -1 -1 -1 -1 -1 -1 -1 -1 -1 -1 -1 -1 -1 -1 -1 -1 -1 -1 -1 -1 -1 -1 -1 -1 -1 -1 -1 -1 -1 -1 -1 -1 -1 -1 -1 -1 -1 -1 -1 -1 -1 -1 -1 -1 -1 -1 -1 -1 -1 -1 -1 -1 -1 -1 -1 -1 -1 -1 -1 -1 -1 -1 -1 -1 -1 -1 -1 -1 -1 -1 -1 -1 -1 -1 -1 -1 -1 -1 -1 -1 -1 -1 -1 -1 -1 -1 -1 -1 -1 -1 
97 98 98 98 98 98 98 98 98 98 98 98 110 122 134 143 135 126 118 110 101 102 110 117 125 132 140 147 155 162 170 177 185 192 192 183 173 163 153 143 133 124 114 104 94 84 99 126 147 151 155 159 163 168 172 176 180 184 188 192 196 200 204 211 219 226 234 241 248 232 182 131 80 138 138 137 137 137 137 137 136 136 120 87 55 42 39 37 34 40 37 106 216 237 202 166 131 95 60 24 52 81 109 137 165 194 222 227 223 220 216 212 209 205 201 197 194 190 186 182 179 175 171 167 164 160 156 152 149 145 141 138 134 130 126 123 119 115 111 108 104 100 96 93 95 96 98 100 102 104 106 108 110 112 113 115 117 119 121 123 125 127 129 130 132 134 136 138 140 142 144 146 147 149 151 153 155 157 159 161 163 164 166 168 170 172 174 176 178 180 181 180 176 172 168 165 161 157 153 150 146 142 139 135 131 127 124 120 116 113 109 105 101 98 94 90 86 83 79 75 72 68 64 60 57 55 56 57 58 59 60 61 91 244 182 119 57 73 90 106 123 139 156 132 48 58 69 80 91 58 75 91 107 178 220 191 163 134 106 77 248 252 250 247 244 242 239 237 234 232 229 227 224 221 219 216 214 211 209 206 204 201 199 196 193 191 188 188 205 221 237 253 253 253 253 253 252 252 252 252 252 252 252 252 252 252 251 250 249 248 247 246 245 244 242 241 240 240 247 245 249 -1 -1 -1 -1 -1 -1 -1 -1 -1 -1 -1 -1 -1 -1 -1 -1 -1 -1 -1 -1 -1 -1 -1 -1 -1 -1 -1 -1 -1 -1 -1 -1 -1 -1 -1 -1 -1 -1 -1 -1 -1 -1 -1 -1 -1 -1 -1 -1 -1 -1 -1 -1 -1 -1 -1 -1 -1 -1 -1 -1 -1 -1 -1 -1 -1 -1 -1 -1 -1 -1 -1 -1 -1 -1 -1 -1 -1 -1 -1 -1 -1 -1 -1 -1 -1 -1 -1 -1 -1 -1 -1 -1 -1 -1 -1 -1 -1 -1 -1 -1 -1 -1 -1 -1 -1 -1 -1 -1 -1 -1 -1 -1 -1 -1 -1 -1 -1 -1 -1 -1 -1 -1 -1 -1 -1 -1 -1 -1 -1 -1 -1 -1 -1 -1 -1 -1 -1 -1 -1 -1 -1 -1 -1 -1 -1 -1 -1 -1 -1 -1 -1 -1 -1 -1 -1 -1 -1 -1 -1 -1 
97 98 98 98 98 98 98 98 98 99 99 110 122 134 133 125 117 108 100 104 111 119 126 134 141 149 156 164 171 179 186 194 201 206 196 187 177 167 157 147 138 128 118 108 98 88 81 108 136 153 157 161 165 169 174 178 182 186 190 194 198 202 206 210 214 220 227 235 242 250 225 174 123 239 207 174 142 109 77 54 51 49 46 43 40 38 35 32 48 51 41 78 179 246 223 187 152 116 81 45 33 61 89 117 146 174 202 227 223 220 216 212 209 205 201 197 194 190 186 182 179 175 171 167 164 160 156 152 149 145 141 137 134 130 126 123 119 115 111 108 104 100 96 93 95 96 98 100 102 104 106 108 110 112 113 115 117 119 121 123 125 127 129 130 132 134 136 138 140 142 144 146 147 149 151 153 155 157 159 161 163 164 166 168 170 172 174 176 178 180 181 183 184 180 176 173 169 165 161 158 154 150 147 143 139 135 132 128 124 121 117 113 109 106 102 98 94 91 87 83 80 76 72 68 65 61 57 54 54 55 56 57 78 249 186 153 149 155 172 188 184 100 48 58 69 80 91 101 95 69 85 102 118 134 232 204 175 147 118 189 193 251 248 246 243 241 238 236 233 231 228 225 223 220 218 215 213 210 208 205 202 200 197 195 192 190 187 185 182 180 177 174 172 169 167 164 178 194 210 226 242 253 253 253 253 253 252 252 252 252 252 251 250 249 248 247 246 245 245 252 251 -1 -1 -1 -1 -1 -1 -1 -1 -1 -1 -1 -1 -1 -1 -1 -1 -1 -1 -1 -1 -1 -1 -1 -1 -1 -1 -1 -1 -1 -1 -1 -1 -1 -1 -1 -1 -1 -1 -1 -1 -1 -1 -1 -1 -1 -1 -1 -1 -1 -1 -1 -1 -1 -1 -1 -1 -1 -1 -1 -1 -1 -1 -1 -1 -1 -1 -1 -1 -1 -1 -1 -1 -1 -1 -1 -1 -1 -1 -1 -1 -1 -1 -1 -1 -1 -1 -1 -1 -1 -1 -1 -1 -1 -1 -1 -1 -1 -1 -1 -1 -1 -1 -1 -1 -1 -1 -1 -1 -1 -1 -1 -1 -1 -1 -1 -1 -1 -1 -1 -1 -1 -1 -1 -1 -1 -1 -1 -1 -1 -1 -1 -1 -1 -1 -1 -1 -1 -1 -1 -1 -1 -1 -1 -1 -1 -1 -1 -1 -1 -1 -1 -1 -1 -1 -1 -1 -1 -1 -1 -1 
97 98 98 99 99 99 99 99 99 99 110 122 132 124 115 107 99 105 113 120 128 135 143 150 158 165 173 180 188 195 203 210 218 210 201 191 181 171 161 151 142 132 122 112 102 92 83 90 118 145 159 163 167 171 175 180 184 188 192 196 200 204 208 212 216 220 225 229 236 243 251 217 167 66 63 61 58 55 52 50 47 44 42 39 36 33 31 55 68 51 45 82 143 252 235 208 173 137 102 67 39 41 70 98 126 154 183 211 223 220 216 212 209 205 201 197 194 190 186 182 179 175 171 167 164 160 156 152 149 145 141 137 134 130 126 123 119 115 111 108 104 100 96 93 95 96 98 100 102 104 106 108 110 112 113 115 117 119 121 123 125 127 129 130 132 134 136 138 140 142 144 146 147 149 151 153 155 157 159 161 163 164 166 168 170 172 174 176 178 180 181 183 185 187 184 181 177 173 170 166 162 158 155 151 147 143 140 136 132 129 125 121 117 114 110 106 103 99 95 91 88 84 80 76 73 69 65 62 58 54 53 54 64 253 249 245 241 237 153 69 48 58 69 80 91 101 112 123 64 80 96 113 129 145 198 216 188 159 131 218 252 250 247 245 242 240 237 234 232 229 227 224 222 219 217 214 212 209 206 204 201 199 196 194 191 189 186 183 181 178 176 173 171 168 166 163 161 158 155 153 150 148 145 143 151 167 183 199 215 231 248 253 253 253 253 253 252 251 249 249 252 -1 -1 -1 -1 -1 -1 -1 -1 -1 -1 -1 -1 -1 -1 -1 -1 -1 -1 -1 -1 -1 -1 -1 -1 -1 -1 -1 -1 -1 -1 -1 -1 -1 -1 -1 -1 -1 -1 -1 -1 -1 -1 -1 -1 -1 -1 -1 -1 -1 -1 -1 -1 -1 -1 -1 -1 -1 -1 -1 -1 -1 -1 -1 -1 -1 -1 -1 -1 -1 -1 -1 -1 -1 -1 -1 -1 -1 -1 -1 -1 -1 -1 -1 -1 -1 -1 -1 -1 -1 -1 -1 -1 -1 -1 -1 -1 -1 -1 -1 -1 -1 -1 -1 -1 -1 -1 -1 -1 -1 -1 -1 -1 -1 -1 -1 -1 -1 -1 -1 -1 -1 -1 -1 -1 -1 -1 -1 -1 -1 -1 -1 -1 -1 -1 -1 -1 -1 -1 -1 -1 -1 -1 -1 -1 -1 -1 -1 -1 -1 -1 -1 -1 -1 -1 -1 -1 -1 -1 -1 -1 
97 98 98 99 99 99 99 99 99 110 122 122 114 106 99 107 114 122 129 137 144 152 159 167 174 182 189 197 204 212 219 227 224 214 205 195 185 175 165 155 146 136 126 116 106 97 87 77 100 127 154 165 169 173 177 181 186 190 194 198 202 206 210 214 218 222 227 231 235 239 244 252 210 72 59 56 53 51 48 45 43 40 37 34 32 29 62 85 68 52 49 86 122 216 240 223 194 158 21 88 60 33 50 78 107 135 163 191 220 220 216 212 209 205 201 197 194 190 186 182 179 175 171 167 164 160 156 152 149 145 141 137 134 130 126 123 119 115 111 108 104 100 96 93 95 96 98 100 102 104 106 108 110 112 113 115 117 119 121 123 125 127 129 130 132 134 136 138 140 142 144 146 147 149 151 153 155 157 159 161 163 164 166 168 170 172 174 176 178 180 181 183 185 187 189 189 185 181 178 174 170 166 163 159 155 152 148 144 140 137 133 129 125 122 118 114 111 107 103 99 96 92 88 85 81 77 73 70 66 62 58 55 51 48 45 43 40 37 48 59 69 80 91 102 112 123 134 59 75 91 107 123 140 156 172 228 200 171 242 163 251 249 246 244 241 238 236 233 231 228 226 223 221 218 215 213 210 208 205 203 200 198 195 193 190 187 185 182 180 177 175 172 170 167 164 162 159 157 154 152 149 147 144 142 139 136 134 131 129 126 124 121 124 140 156 172 188 205 221 237 253 -1 -1 -1 -1 -1 -1 -1 -1 -1 -1 -1 -1 -1 -1 -1 -1 -1 -1 -1 -1 -1 -1 -1 -1 -1 -1 -1 -1 -1 -1 -1 -1 -1 -1 -1 -1 -1 -1 -1 -1 -1 -1 -1 -1 -1 -1 -1 -1 -1 -1 -1 -1 -1 -1 -1 -1 -1 -1 -1 -1 -1 -1 -1 -1 -1 -1 -1 -1 -1 -1 -1 -1 -1 -1 -1 -1 -1 -1 -1 -1 -1 -1 -1 -1 -1 -1 -1 -1 -1 -1 -1 -1 -1 -1 -1 -1 -1 -1 -1 -1 -1 -1 -1 -1 -1 -1 -1 -1 -1 -1 -1 -1 -1 -1 -1 -1 -1 -1 -1 -1 -1 -1 -1 -1 -1 -1 -1 -1 -1 -1 -1 -1 -1 -1 -1 -1 -1 -1 -1 -1 -1 -1 -1 -1 -1 -1 -1 -1 -1 -1 -1 -1 -1 -1 -1 -1 -1 -1 -1 -1 
97 98 98 99 99 99 99 99 111 121 113 104 101 108 116 123 131 138 146 153 161 168 176 183 191 198 206 213 221 228 236 238 228 218 209 199 189 179 169 160 150 140 130 120 110 101 91 81 82 109 136 164 171 175 179 183 187 192 196 200 204 208 212 216 220 224 228 233 237 241 245 249 253 78 54 52 49 46 44 41 38 35 33 30 27 70 102 85 69 52 53 90 126 179 246 229 212 179 137 109 82 54 30 59 87 115 144 172 200 220 216 212 208 205 201 197 194 190 186 182 179 175 171 167 164 160 156 152 149 145 141 137 134 130 126 123 119 115 111 108 104 100 96 93 94 96 98 100 102 104 106 108 110 111 113 115 117 119 121 123 125 127 128 130 132 134 136 138 140 142 144 145 147 149 151 153 155 157 159 161 162 164 166 168 170 172 174 176 178 179 181 183 185 187 189 191 193 189 186 182 178 174 171 167 163 160 156 152 148 145 141 137 133 130 126 122 119 115 111 107 104 100 96 93 89 85 81 78 74 70 66 63 82 82 80 77 74 69 69 80 91 102 112 123 134 145 95 70 86 102 118 134 151 167 183 217 212 184 188 194 250 247 245 242 240 237 235 232 230 227 225 222 219 217 214 212 209 207 204 202 199 196 194 191 189 186 184 181 179 176 174 171 168 166 163 161 158 156 153 151 148 145 143 140 138 135 133 130 128 125 123 120 117 115 112 110 107 105 102 100 97 -1 -1 -1 -1 -1 -1 -1 -1 -1 -1 -1 -1 -1 -1 -1 -1 -1 -1 -1 -1 -1 -1 -1 -1 -1 -1 -1 -1 -1 -1 -1 -1 -1 -1 -1 -1 -1 -1 -1 -1 -1 -1 -1 -1 -1 -1 -1 -1 -1 -1 -1 -1 -1 -1 -1 -1 -1 -1 -1 -1 -1 -1 -1 -1 -1 -1 -1 -1 -1 -1 -1 -1 -1 -1 -1 -1 -1 -1 -1 -1 -1 -1 -1 -1 -1 -1 -1 -1 -1 -1 -1 -1 -1 -1 -1 -1 -1 -1 -1 -1 -1 -1 -1 -1 -1 -1 -1 -1 -1 -1 -1 -1 -1 -1 -1 -1 -1 -1 -1 -1 -1 -1 -1 -1 -1 -1 -1 -1 -1 -1 -1 -1 -1 -1 -1 -1 -1 -1 -1 -1 -1 -1 -1 -1 -1 -1 -1 -1 -1 -1 -1 -1 -1 -1 -1 -1 -1 -1 -1 -1 
97 98 98 99 99 99 99 111 111 103 102 110 117 125 132 140 147 155 162 170 177 185 192 200 207 215 222 230 237 245 252 242 232 223 213 203 193 183 173 164 154 144 134 124 114 105 95 85 75 91 118 146 173 177 181 185 189 193 198 202 206 210 214 218 222 226 230 234 239 243 247 251 36 84 50 47 45 42 39 36 34 31 28 26 77 119 102 86 69 53 57 94 130 167 252 235 217 200 158 131 103 76 48 39 67 96 124 152 180 209 216 212 208 205 201 197 194 190 186 182 179 175 171 167 164 160 156 152 149 145 141 137 134 130 126 122 119 115 111 108 104 100 96 93 94 96 98 100 102 104 106 108 110 111 113 115 117 119 121 123 125 127 128 130 132 134 136 138 140 142 144 145 147 149 151 153 155 157 159 161 162 164 166 168 170 172 174 176 178 179 181 183 185 187 189 191 193 195 194 190 186 182 179 175 171 168 164 160 156 153 149 145 142 138 134 130 127 123 119 115 112 108 104 101 97 93 89 86 82 78 75 84 113 121 114 111 108 100 91 102 112 123 134 145 155 132 64 81 97 113 129 145 161 178 194 210 225 212 133 251 249 246 244 241 239 236 234 231 228 226 223 221 218 216 213 211 208 206 203 200 198 195 193 190 188 185 183 180 177 175 172 170 167 165 162 160 157 155 152 149 147 144 142 139 137 134 132 129 126 124 121 119 116 114 111 109 106 104 102 101 100 -1 -1 -1 -1 -1 -1 -1 -1 -1 -1 -1 -1 -1 -1 -1 -1 -1 -1 -1 -1 -1 -1 -1 -1 -1 -1 -1 -1 -1 -1 -1 -1 -1 -1 -1 -1 -1 -1 -1 -1 -1 -1 -1 -1 -1 -1 -1 -1 -1 -1 -1 -1 -1 -1 -1 -1 -1 -1 -1 -1 -1 -1 -1 -1 -1 -1 -1 -1 -1 -1 -1 -1 -1 -1 -1 -1 -1 -1 -1 -1 -1 -1 -1 -1 -1 -1 -1 -1 -1 -1 -1 -1 -1 -1 -1 -1 -1 -1 -1 -1 -1 -1 -1 -1 -1 -1 -1 -1 -1 -1 -1 -1 -1 -1 -1 -1 -1 -1 -1 -1 -1 -1 -1 -1 -1 -1 -1 -1 -1 -1 -1 -1 -1 -1 -1 -1 -1 -1 -1 -1 -1 -1 -1 -1 -1 -1 -1 -1 -1 -1 -1 -1 -1 -1 -1 -1 -1 -1 -1 -1 
98 98 98 99 99 99 110 102 104 111 119 126 134 141 149 156 164 171 179 186 194 201 206 212 217 222 227 233 238 243 246 243 236 227 217 207 197 187 177 168 158 148 138 128 118 109 99 89 79 73 100 128 155 179 183 187 191 195 199 204 208 212 216 220 224 228 232 236 240 245 249 225 40 90 138 43 40 37 35 32 29 27 33 84 136 119 103 86 70 53 61 98 134 171 216 240 223 18 180 152 125 97 69 42 48 76 104 133 161 189 216 212 208 205 201 197 194 190 186 182 179 175 171 167 164 160 156 152 149 145 141 137 134 130 126 122 119 115 111 108 104 100 96 93 94 96 98 100 102 104 106 108 110 111 113 115 117 119 121 123 125 127 128 130 132 134 136 138 140 142 144 145 147 149 151 153 155 157 159 161 162 164 166 168 170 172 174 176 178 179 181 183 185 187 189 191 193 195 196 198 194 191 187 183 179 176 172 168 164 161 157 153 150 146 142 138 135 131 127 123 120 116 112 109 105 101 97 94 90 86 90 112 143 160 151 145 143 132 116 123 134 145 156 166 168 59 75 92 108 124 140 156 172 189 205 221 237 158 135 250 248 245 243 240 238 235 232 230 227 225 222 220 217 215 212 209 207 204 202 199 197 194 192 189 187 184 181 179 176 174 171 169 166 164 161 158 156 153 151 148 146 143 141 138 136 133 130 128 125 123 120 118 115 113 110 109 108 106 105 104 102 -1 -1 -1 -1 -1 -1 -1 -1 -1 -1 -1 -1 -1 -1 -1 -1 -1 -1 -1 -1 -1 -1 -1 -1 -1 -1 -1 -1 -1 -1 -1 -1 -1 -1 -1 -1 -1 -1 -1 -1 -1 -1 -1 -1 -1 -1 -1 -1 -1 -1 -1 -1 -1 -1 -1 -1 -1 -1 -1 -1 -1 -1 -1 -1 -1 -1 -1 -1 -1 -1 -1 -1 -1 -1 -1 -1 -1 -1 -1 -1 -1 -1 -1 -1 -1 -1 -1 -1 -1 -1 -1 -1 -1 -1 -1 -1 -1 -1 -1 -1 -1 -1 -1 -1 -1 -1 -1 -1 -1 -1 -1 -1 -1 -1 -1 -1 -1 -1 -1 -1 -1 -1 -1 -1 -1 -1 -1 -1 -1 -1 -1 -1 -1 -1 -1 -1 -1 -1 -1 -1 -1 -1 -1 -1 -1 -1 -1 -1 -1 -1 -1 -1 -1 -1 -1 -1 -1 -1 -1 -1 
98 98 98 99 99 100 105 113 120 128 135 143 150 155 161 166 171 176 182 187 192 198 203 208 214 219 224 229 234 239 241 237 233 229 221 211 201 191 181 172 162 152 142 132 123 113 103 93 83 73 82 110 137 164 185 189 193 197 201 206 210 214 218 222 226 230 234 238 242 246 251 64 44 92 143 38 36 33 30 28 25 40 92 143 136 120 103 87 70 54 65 102 138 175 211 246 135 134 201 173 146 118 91 63 36 56 85 113 141 170 198 212 208 205 201 197 194 190 186 182 179 175 171 167 164 160 156 152 149 145 141 137 134 130 126 122 119 115 111 108 104 100 96 93 94 96 98 100 102 104 106 108 110 111 113 115 117 119 121 123 125 127 128 130 132 134 136 138 140 142 144 145 147 149 151 153 155 157 159 161 162 164 166 168 170 172 174 176 178 179 181 183 185 187 189 191 193 195 196 198 200 199 195 191 187 184 180 176 172 169 165 161 158 154 150 146 143 139 135 132 128 124 120 117 113 109 105 102 98 96 118 140 174 200 190 181 177 163 147 145 156 166 177 188 96 70 86 102 119 135 151 167 183 199 215 230 182 103 252 249 247 244 241 239 236 234 231 229 226 224 221 219 216 213 211 208 206 203 201 198 196 193 190 188 185 183 180 178 175 173 170 168 165 162 160 157 155 152 150 147 145 142 140 137 135 132 130 127 125 122 120 117 116 115 113 112 111 109 108 106 105 -1 -1 -1 -1 -1 -1 -1 -1 -1 -1 -1 -1 -1 -1 -1 -1 -1 -1 -1 -1 -1 -1 -1 -1 -1 -1 -1 -1 -1 -1 -1 -1 -1 -1 -1 -1 -1 -1 -1 -1 -1 -1 -1 -1 -1 -1 -1 -1 -1 -1 -1 -1 -1 -1 -1 -1 -1 -1 -1 -1 -1 -1 -1 -1 -1 -1 -1 -1 -1 -1 -1 -1 -1 -1 -1 -1 -1 -1 -1 -1 -1 -1 -1 -1 -1 -1 -1 -1 -1 -1 -1 -1 -1 -1 -1 -1 -1 -1 -1 -1 -1 -1 -1 -1 -1 -1 -1 -1 -1 -1 -1 -1 -1 -1 -1 -1 -1 -1 -1 -1 -1 -1 -1 -1 -1 -1 -1 -1 -1 -1 -1 -1 -1 -1 -1 -1 -1 -1 -1 -1 -1 -1 -1 -1 -1 -1 -1 -1 -1 -1 -1 -1 -1 -1 -1 -1 -1 -1 -1 -1 
98 98 99 99 104 110 115 120 125 131 136 141 147 152 157 163 168 173 178 184 189 194 199 205 210 215 220 225 230 233 235 232 228 224 220 215 205 195 186 176 166 156 146 136 127 117 107 97 87 77 68 92 119 146 174 191 195 199 203 207 212 216 220 224 228 232 236 240 244 248 198 68 49 87 149 34 31 29 26 23 48 99 151 154 137 120 104 87 71 54 69 106 142 179 215 252 251 250 222 195 167 140 112 85 57 37 65 93 122 150 178 206 208 205 201 197 193 190 186 182 179 175 171 167 164 160 156 152 149 145 141 137 134 130 126 122 119 115 111 108 104 100 96 93 94 96 98 100 102 104 106 108 110 111 113 115 117 119 121 123 125 127 128 130 132 134 136 138 140 142 144 145 147 149 151 153 155 157 159 161 162 164 166 168 170 172 174 176 178 179 181 183 185 187 189 191 193 195 196 198 200 202 203 199 195 192 188 184 181 177 173 169 166 162 158 154 151 147 143 140 136 132 128 125 121 117 114 110 106 124 146 171 205 239 230 220 211 195 179 166 177 188 199 132 65 81 97 113 130 146 162 178 193 208 222 237 128 77 251 248 245 243 240 238 235 233 230 228 225 222 220 217 215 212 210 207 205 202 200 197 194 192 189 187 184 182 179 177 174 171 169 166 164 161 159 156 154 151 149 146 144 141 139 136 134 131 129 126 124 123 121 120 119 117 116 115 113 112 111 109 108 -1 -1 -1 -1 -1 -1 -1 -1 -1 -1 -1 -1 -1 -1 -1 -1 -1 -1 -1 -1 -1 -1 -1 -1 -1 -1 -1 -1 -1 -1 -1 -1 -1 -1 -1 -1 -1 -1 -1 -1 -1 -1 -1 -1 -1 -1 -1 -1 -1 -1 -1 -1 -1 -1 -1 -1 -1 -1 -1 -1 -1 -1 -1 -1 -1 -1 -1 -1 -1 -1 -1 -1 -1 -1 -1 -1 -1 -1 -1 -1 -1 -1 -1 -1 -1 -1 -1 -1 -1 -1 -1 -1 -1 -1 -1 -1 -1 -1 -1 -1 -1 -1 -1 -1 -1 -1 -1 -1 -1 -1 -1 -1 -1 -1 -1 -1 -1 -1 -1 -1 -1 -1 -1 -1 -1 -1 -1 -1 -1 -1 -1 -1 -1 -1 -1 -1 -1 -1 -1 -1 -1 -1 -1 -1 -1 -1 -1 -1 -1 -1 -1 -1 -1 -1 -1 -1 -1 -1 -1 -1 
98 98 99 177 101 106 112 117 122 127 133 138 143 149 154 159 165 170 175 180 185 190 196 201 206 211 216 221 225 228 230 227 223 219 215 211 207 199 190 180 170 160 150 140 131 121 111 101 91 82 72 73 101 128 156 183 197 201 205 209 213 218 222 226 230 234 238 242 246 250 91 72 53 81 148 122 27 24 21 55 106 158 171 154 137 121 104 88 71 55 73 110 146 183 220 218 20 249 244 216 189 161 133 106 78 51 46 74 102 130 159 187 208 205 201 197 193 190 186 182 179 175 171 167 164 160 156 152 149 145 141 137 134 130 126 122 119 115 111 108 104 100 96 93 94 96 98 100 102 104 106 108 110 111 113 115 117 119 121 123 125 127 128 130 132 134 136 138 140 142 144 145 147 149 151 153 155 157 159 161 162 164 166 168 170 172 174 176 178 179 181 183 185 187 189 191 193 195 196 198 200 202 204 206 203 200 196 192 189 185 181 177 174 170 166 162 159 155 151 148 144 140 136 133 129 125 122 118 129 151 173 202 236 73 60 48 35 175 211 195 199 210 169 60 76 92 108 124 140 156 171 185 200 215 230 245 73 193 249 247 244 242 239 237 234 232 229 226 224 221 219 216 214 211 209 206 203 201 198 196 193 191 188 186 183 181 178 176 173 171 168 166 163 161 158 156 153 151 148 146 143 141 138 136 133 131 129 128 127 125 124 123 121 120 119 117 116 115 113 112 111 -1 -1 -1 -1 -1 -1 -1 -1 -1 -1 -1 -1 -1 -1 -1 -1 -1 -1 -1 -1 -1 -1 -1 -1 -1 -1 -1 -1 -1 -1 -1 -1 -1 -1 -1 -1 -1 -1 -1 -1 -1 -1 -1 -1 -1 -1 -1 -1 -1 -1 -1 -1 -1 -1 -1 -1 -1 -1 -1 -1 -1 -1 -1 -1 -1 -1 -1 -1 -1 -1 -1 -1 -1 -1 -1 -1 -1 -1 -1 -1 -1 -1 -1 -1 -1 -1 -1 -1 -1 -1 -1 -1 -1 -1 -1 -1 -1 -1 -1 -1 -1 -1 -1 -1 -1 -1 -1 -1 -1 -1 -1 -1 -1 -1 -1 -1 -1 -1 -1 -1 -1 -1 -1 -1 -1 -1 -1 -1 -1 -1 -1 -1 -1 -1 -1 -1 -1 -1 -1 -1 -1 -1 -1 -1 -1 -1 -1 -1 -1 -1 -1 -1 -1 -1 -1 -1 -1 -1 -1 -1 
98 98 150 254 98 103 108 114 119 124 129 135 140 145 151 156 161 166 171 176 181 187 192 197 202 207 212 217 220 222 224 221 217 213 209 205 201 197 193 184 174 164 154 145 135 125 115 105 95 86 76 66 83 110 138 165 192 203 207 211 215 219 224 228 232 236 240 244 248 170 96 76 57 76 143 209 22 20 62 114 165 188 171 155 138 121 105 88 72 55 77 114 150 187 251 183 248 248 246 238 210 182 155 127 100 72 45 54 82 111 139 167 196 205 201 197 193 190 186 182 179 175 171 167 164 160 156 152 149 145 141 137 134 130 126 122 119 115 111 107 104 100 96 93 94 96 98 100 102 104 106 108 110 111 113 115 117 119 121 123 125 127 128 130 132 134 136 138 140 142 144 145 147 149 151 153 155 157 159 161 162 164 166 168 170 172 174 176 178 179 181 183 185 187 189 191 193 195 196 198 200 202 204 206 208 208 204 200 197 193 189 185 182 178 174 171 167 163 159 156 152 148 144 141 137 133 130 135 157 179 201 232 65 95 59 142 129 134 139 226 220 205 96 71 87 103 119 134 149 163 178 193 208 222 237 190 18 251 248 246 243 241 238 235 233 230 228 225 223 220 218 215 213 210 207 205 202 200 197 195 192 190 187 185 182 180 177 175 172 170 167 165 162 160 157 155 152 150 147 145 142 140 137 136 135 133 132 131 129 128 127 125 124 123 121 120 119 117 116 115 113 -1 -1 -1 -1 -1 -1 -1 -1 -1 -1 -1 -1 -1 -1 -1 -1 -1 -1 -1 -1 -1 -1 -1 -1 -1 -1 -1 -1 -1 -1 -1 -1 -1 -1 -1 -1 -1 -1 -1 -1 -1 -1 -1 -1 -1 -1 -1 -1 -1 -1 -1 -1 -1 -1 -1 -1 -1 -1 -1 -1 -1 -1 -1 -1 -1 -1 -1 -1 -1 -1 -1 -1 -1 -1 -1 -1 -1 -1 -1 -1 -1 -1 -1 -1 -1 -1 -1 -1 -1 -1 -1 -1 -1 -1 -1 -1 -1 -1 -1 -1 -1 -1 -1 -1 -1 -1 -1 -1 -1 -1 -1 -1 -1 -1 -1 -1 -1 -1 -1 -1 -1 -1 -1 -1 -1 -1 -1 -1 -1 -1 -1 -1 -1 -1 -1 -1 -1 -1 -1 -1 -1 -1 -1 -1 -1 -1 -1 -1 -1 -1 -1 -1 -1 -1 -1 -1 -1 -1 -1 -1 
98 124 182 193 135 100 105 110 116 121 126 131 137 142 147 152 157 162 167 172 178 183 188 193 198 203 208 212 214 216 219 216 212 208 204 200 196 192 188 184 178 168 158 149 139 129 119 109 99 90 80 70 65 92 120 147 174 202 209 213 217 221 225 230 234 238 242 246 250 119 100 81 61 71 137 120 18 70 121 173 205 188 172 155 138 122 105 89 72 56 81 118 155 251 249 149 250 248 245 243 231 204 176 149 121 93 66 38 63 91 119 148 176 204 201 197 193 190 186 182 179 175 171 167 164 160 156 152 149 145 141 137 134 130 126 122 119 115 111 107 104 100 96 93 94 96 98 100 102 104 106 108 110 111 113 115 117 119 121 123 125 127 128 130 132 134 136 138 140 142 144 145 147 149 151 153 155 157 159 161 162 164 166 168 170 172 174 176 178 179 181 183 185 187 189 191 193 195 196 198 200 202 204 206 208 210 212 208 205 201 197 193 190 186 182 179 175 171 167 164 160 156 153 149 145 141 141 163 185 207 229 58 88 118 126 45 223 228 233 237 242 133 65 81 97 112 126 141 156 171 186 200 215 230 245 135 135 250 247 245 242 239 237 234 232 229 227 224 222 219 217 214 212 209 207 204 202 199 197 194 192 189 187 184 182 179 177 174 172 169 167 164 162 159 157 154 152 149 147 144 143 141 140 139 137 136 135 133 132 131 129 128 127 125 124 123 121 120 119 117 116 -1 -1 -1 -1 -1 -1 -1 -1 -1 -1 -1 -1 -1 -1 -1 -1 -1 -1 -1 -1 -1 -1 -1 -1 -1 -1 -1 -1 -1 -1 -1 -1 -1 -1 -1 -1 -1 -1 -1 -1 -1 -1 -1 -1 -1 -1 -1 -1 -1 -1 -1 -1 -1 -1 -1 -1 -1 -1 -1 -1 -1 -1 -1 -1 -1 -1 -1 -1 -1 -1 -1 -1 -1 -1 -1 -1 -1 -1 -1 -1 -1 -1 -1 -1 -1 -1 -1 -1 -1 -1 -1 -1 -1 -1 -1 -1 -1 -1 -1 -1 -1 -1 -1 -1 -1 -1 -1 -1 -1 -1 -1 -1 -1 -1 -1 -1 -1 -1 -1 -1 -1 -1 -1 -1 -1 -1 -1 -1 -1 -1 -1 -1 -1 -1 -1 -1 -1 -1 -1 -1 -1 -1 -1 -1 -1 -1 -1 -1 -1 -1 -1 -1 -1 -1 -1 -1 -1 -1 -1 -1 
98 109 120 132 143 96 102 107 112 117 122 128 133 138 143 148 153 158 163 169 174 179 184 189 194 199 204 206 209 211 213 211 207 203 199 195 191 187 183 179 175 171 162 153 143 133 123 113 104 94 84 74 64 74 102 129 156 184 211 215 219 223 227 231 236 240 244 248 143 123 104 85 66 66 132 30 79 129 180 222 205 189 172 156 139 122 106 89 73 56 85 122 251 249 247 245 250 247 244 242 239 225 198 170 142 115 87 60 43 72 100 128 156 185 201 197 193 190 186 182 179 175 171 167 164 160 156 152 149 145 141 137 134 130 126 122 119 115 111 107 104 100 96 93 94 96 98 100 102 104 106 108 110 111 113 115 117 119 121 123 125 127 128 130 132 134 136 138 140 142 144 145 147 149 151 153 155 157 159 161 162 164 166 168 170 172 174 176 178 179 181 183 185 187 189 191 193 195 196 198 200 202 204 206 208 210 212 213 213 209 205 201 198 194 190 187 183 179 175 172 168 164 161 157 153 149 168 191 213 220 50 80 110 140 170 112 31 37 43 48 54 60 75 90 104 119 134 149 163 178 193 208 222 237 252 252 251 248 246 243 241 238 236 233 231 228 226 223 221 218 216 213 211 208 206 203 201 198 196 193 191 188 186 183 181 178 176 173 171 168 166 163 161 158 156 153 151 150 148 147 146 144 143 142 140 139 138 136 135 133 132 131 129 128 127 125 124 123 121 120 119 -1 -1 -1 -1 -1 -1 -1 -1 -1 -1 -1 -1 -1 -1 -1 -1 -1 -1 -1 -1 -1 -1 -1 -1 -1 -1 -1 -1 -1 -1 -1 -1 -1 -1 -1 -1 -1 -1 -1 -1 -1 -1 -1 -1 -1 -1 -1 -1 -1 -1 -1 -1 -1 -1 -1 -1 -1 -1 -1 -1 -1 -1 -1 -1 -1 -1 -1 -1 -1 -1 -1 -1 -1 -1 -1 -1 -1 -1 -1 -1 -1 -1 -1 -1 -1 -1 -1 -1 -1 -1 -1 -1 -1 -1 -1 -1 -1 -1 -1 -1 -1 -1 -1 -1 -1 -1 -1 -1 -1 -1 -1 -1 -1 -1 -1 -1 -1 -1 -1 -1 -1 -1 -1 -1 -1 -1 -1 -1 -1 -1 -1 -1 -1 -1 -1 -1 -1 -1 -1 -1 -1 -1 -1 -1 -1 -1 -1 -1 -1 -1 -1 -1 -1 -1 -1 -1 -1 -1 -1 -1 
252 220 188 157 125 93 98 103 108 113 119 124 129 134 139 144 149 154 160 165 170 175 180 185 190 195 198 201 203 205 208 205 201 197 193 189 185 181 177 173 169 165 161 157 147 137 127 117 108 98 88 78 68 58 83 111 138 166 193 217 221 225 229 233 237 242 246 250 147 128 108 89 70 60 43 92 141 190 239 222 206 189 173 156 139 123 106 90 73 57 90 252 249 247 245 138 249 246 244 241 238 236 219 191 164 136 109 81 53 52 80 108 137 165 193 197 193 190 186 182 178 175 171 167 164 160 156 152 149 145 141 137 134 130 126 122 119 115 111 107 104 100 96 93 94 96 98 100 102 104 106 108 110 111 113 115 117 119 121 123 125 127 128 130 132 134 136 138 140 142 144 145 147 149 151 153 155 157 159 161 162 164 166 168 170 172 174 176 178 179 181 183 185 187 189 191 193 195 196 198 200 202 204 206 208 210 212 213 215 217 213 210 206 202 198 195 191 187 183 180 176 172 169 165 161 174 196 218 210 134 86 95 130 163 193 178 141 147 153 151 149 147 126 86 64 78 93 108 123 137 152 167 182 252 250 25 250 248 245 243 240 238 235 233 230 228 225 223 220 218 215 213 210 208 205 203 200 198 195 193 190 188 185 183 180 178 175 173 170 168 165 163 160 158 156 155 154 152 151 150 148 147 146 144 143 142 140 139 138 136 135 134 132 131 130 128 127 125 124 123 121 -1 -1 -1 -1 -1 -1 -1 -1 -1 -1 -1 -1 -1 -1 -1 -1 -1 -1 -1 -1 -1 -1 -1 -1 -1 -1 -1 -1 -1 -1 -1 -1 -1 -1 -1 -1 -1 -1 -1 -1 -1 -1 -1 -1 -1 -1 -1 -1 -1 -1 -1 -1 -1 -1 -1 -1 -1 -1 -1 -1 -1 -1 -1 -1 -1 -1 -1 -1 -1 -1 -1 -1 -1 -1 -1 -1 -1 -1 -1 -1 -1 -1 -1 -1 -1 -1 -1 -1 -1 -1 -1 -1 -1 -1 -1 -1 -1 -1 -1 -1 -1 -1 -1 -1 -1 -1 -1 -1 -1 -1 -1 -1 -1 -1 -1 -1 -1 -1 -1 -1 -1 -1 -1 -1 -1 -1 -1 -1 -1 -1 -1 -1 -1 -1 -1 -1 -1 -1 -1 -1 -1 -1 -1 -1 -1 -1 -1 -1 -1 -1 -1 -1 -1 -1 -1 -1 -1 -1 -1 -1 
99 98 97 95 94 106 94 99 104 110 115 120 125 130 135 140 145 151 156 161 166 171 176 181 186 191 193 195 197 200 202 200 196 192 188 184 180 176 172 168 164 160 156 152 148 141 131 121 112 102 92 82 72 62 65 93 120 148 175 202 223 227 231 235 239 244 248 170 151 132 113 93 74 55 47 39 30 22 14 18 22 26 30 34 37 41 45 49 53 57 252 250 248 245 243 251 248 245 243 240 238 235 233 213 185 158 130 102 75 47 61 89 117 145 174 197 193 190 186 182 178 175 171 167 164 160 156 152 149 145 141 137 134 130 126 122 119 115 111 107 104 100 96 92 94 96 98 100 102 104 106 108 109 111 113 115 117 119 121 123 125 126 128 130 132 134 136 138 140 142 143 145 147 149 151 153 155 157 159 161 162 164 166 168 170 172 174 176 178 179 181 183 185 187 189 191 193 195 196 198 200 202 204 206 208 210 212 213 215 217 219 218 214 210 206 203 199 195 192 188 184 180 177 173 180 202 224 201 155 62 122 113 139 175 210 245 243 242 240 238 236 235 233 192 152 111 71 67 82 97 111 187 252 250 248 139 249 247 244 242 239 237 234 232 229 227 224 222 219 217 214 212 209 207 204 202 199 197 194 192 189 187 184 182 179 177 174 172 169 167 164 163 162 160 159 158 156 155 154 152 151 150 148 147 146 144 143 142 140 139 138 136 135 134 132 131 130 128 127 126 124 -1 -1 -1 -1 -1 -1 -1 -1 -1 -1 -1 -1 -1 -1 -1 -1 -1 -1 -1 -1 -1 -1 -1 -1 -1 -1 -1 -1 -1 -1 -1 -1 -1 -1 -1 -1 -1 -1 -1 -1 -1 -1 -1 -1 -1 -1 -1 -1 -1 -1 -1 -1 -1 -1 -1 -1 -1 -1 -1 -1 -1 -1 -1 -1 -1 -1 -1 -1 -1 -1 -1 -1 -1 -1 -1 -1 -1 -1 -1 -1 -1 -1 -1 -1 -1 -1 -1 -1 -1 -1 -1 -1 -1 -1 -1 -1 -1 -1 -1 -1 -1 -1 -1 -1 -1 -1 -1 -1 -1 -1 -1 -1 -1 -1 -1 -1 -1 -1 -1 -1 -1 -1 -1 -1 -1 -1 -1 -1 -1 -1 -1 -1 -1 -1 -1 -1 -1 -1 -1 -1 -1 -1 -1 -1 -1 -1 -1 -1 -1 -1 -1 -1 -1 -1 -1 -1 -1 -1 -1 -1 
99 98 96 95 94 119 104 95 101 106 111 116 121 126 131 136 142 147 152 157 162 167 172 177 182 185 187 190 192 194 197 195 191 187 183 179 175 171 167 163 159 155 151 147 143 139 135 125 116 106 96 86 76 67 57 75 102 130 157 184 212 229 233 237 241 245 250 174 155 136 117 98 66 151 142 134 15 21 26 34 38 41 45 49 53 57 61 65 69 73 50 183 130 78 25 250 247 245 242 240 237 234 232 229 206 179 151 124 96 69 41 69 98 126 154 182 193 190 186 182 178 175 171 167 164 160 156 152 149 145 141 137 134 130 126 122 119 115 111 107 104 100 96 92 94 96 98 100 102 104 106 108 109 111 113 115 117 119 121 123 125 126 128 130 132 134 136 138 140 142 143 145 147 149 151 153 155 157 159 160 162 164 166 168 170 172 174 176 177 179 181 183 185 187 189 191 193 194 196 198 200 202 204 206 208 210 211 213 215 217 219 221 222 218 214 211 207 203 200 196 192 188 185 185 208 230 191 146 38 98 159 149 149 184 219 13 14 14 15 16 16 17 17 18 24 31 37 43 50 56 253 251 250 248 246 251 249 246 244 241 239 236 234 231 229 226 224 221 219 216 214 211 209 206 204 201 199 196 194 191 189 186 184 181 179 176 174 171 170 168 167 166 164 163 162 160 159 158 156 155 154 152 151 150 148 147 146 144 143 142 140 139 138 136 135 134 132 131 130 128 127 -1 -1 -1 -1 -1 -1 -1 -1 -1 -1 -1 -1 -1 -1 -1 -1 -1 -1 -1 -1 -1 -1 -1 -1 -1 -1 -1 -1 -1 -1 -1 -1 -1 -1 -1 -1 -1 -1 -1 -1 -1 -1 -1 -1 -1 -1 -1 -1 -1 -1 -1 -1 -1 -1 -1 -1 -1 -1 -1 -1 -1 -1 -1 -1 -1 -1 -1 -1 -1 -1 -1 -1 -1 -1 -1 -1 -1 -1 -1 -1 -1 -1 -1 -1 -1 -1 -1 -1 -1 -1 -1 -1 -1 -1 -1 -1 -1 -1 -1 -1 -1 -1 -1 -1 -1 -1 -1 -1 -1 -1 -1 -1 -1 -1 -1 -1 -1 -1 -1 -1 -1 -1 -1 -1 -1 -1 -1 -1 -1 -1 -1 -1 -1 -1 -1 -1 -1 -1 -1 -1 -1 -1 -1 -1 -1 -1 -1 -1 -1 -1 -1 -1 -1 -1 -1 -1 -1 -1 -1 -1 
100 97 96 95 115 132 118 103 97 102 107 112 117 122 127 133 138 143 148 153 158 163 168 173 177 179 182 184 186 189 191 189 185 181 177 173 169 165 161 157 153 149 145 141 137 133 129 125 120 110 100 90 80 71 61 57 84 111 139 166 194 221 235 239 243 247 198 179 159 140 112 76 41 246 16 22 27 33 38 44 53 57 61 65 69 73 77 81 85 89 68 43 114 61 138 249 247 244 241 239 236 234 231 228 226 200 173 145 118 90 62 50 78 106 134 163 191 190 186 182 178 175 171 167 164 160 156 152 149 145 141 137 134 130 126 122 119 115 111 107 104 100 96 92 94 96 98 100 102 104 106 108 109 111 113 115 117 119 121 123 125 126 128 130 132 134 136 138 140 142 143 145 147 149 151 153 155 157 159 160 162 164 166 168 170 172 174 176 177 179 181 183 185 187 189 191 193 194 196 198 200 202 204 206 208 210 211 213 215 217 219 221 223 225 222 219 215 211 208 204 200 196 193 213 228 182 136 91 74 135 195 185 176 194 108 109 109 110 111 83 56 29 33 36 41 47 53 60 66 72 253 200 142 85 27 250 248 245 243 240 238 235 233 230 228 225 223 220 218 215 213 210 208 205 203 200 198 195 193 190 188 185 183 180 178 177 175 174 173 171 170 168 167 166 164 163 162 160 159 158 156 155 154 152 151 150 148 147 146 144 143 142 140 139 138 136 135 134 132 131 130 -1 -1 -1 -1 -1 -1 -1 -1 -1 -1 -1 -1 -1 -1 -1 -1 -1 -1 -1 -1 -1 -1 -1 -1 -1 -1 -1 -1 -1 -1 -1 -1 -1 -1 -1 -1 -1 -1 -1 -1 -1 -1 -1 -1 -1 -1 -1 -1 -1 -1 -1 -1 -1 -1 -1 -1 -1 -1 -1 -1 -1 -1 -1 -1 -1 -1 -1 -1 -1 -1 -1 -1 -1 -1 -1 -1 -1 -1 -1 -1 -1 -1 -1 -1 -1 -1 -1 -1 -1 -1 -1 -1 -1 -1 -1 -1 -1 -1 -1 -1 -1 -1 -1 -1 -1 -1 -1 -1 -1 -1 -1 -1 -1 -1 -1 -1 -1 -1 -1 -1 -1 -1 -1 -1 -1 -1 -1 -1 -1 -1 -1 -1 -1 -1 -1 -1 -1 -1 -1 -1 -1 -1 -1 -1 -1 -1 -1 -1 -1 -1 -1 -1 -1 -1 -1 -1 -1 -1 -1 -1 
100 97 96 95 144 145 131 116 101 98 103 108 113 118 124 129 134 139 144 149 154 159 164 169 172 174 176 179 181 183 185 184 180 176 172 168 164 160 156 152 148 144 140 136 132 128 124 120 116 112 104 94 84 75 65 55 66 93 121 148 176 203 230 241 245 249 202 183 157 122 87 52 17 23 28 34 39 45 50 56 61 73 77 81 85 89 93 96 100 104 86 61 35 45 251 248 246 243 241 238 235 233 230 228 225 222 194 166 139 111 84 56 58 87 115 143 171 190 186 182 178 175 171 167 163 160 156 152 149 145 141 137 134 130 126 122 119 115 111 107 104 100 96 92 94 96 98 100 102 104 106 108 109 111 113 115 117 119 121 123 125 126 128 130 132 134 136 138 140 142 143 145 147 149 151 153 155 157 159 160 162 164 166 168 170 172 174 176 177 179 181 183 185 187 189 191 193 194 196 198 200 202 204 206 208 210 211 213 215 217 219 221 223 225 227 227 223 219 216 212 208 204 219 218 173 127 81 50 110 171 231 222 212 203 176 149 122 95 67 40 44 47 50 54 57 63 70 76 82 89 253 205 147 89 139 250 247 245 242 240 237 235 232 230 227 225 222 220 217 215 212 210 207 205 202 200 197 195 192 190 187 185 183 182 181 179 178 177 175 174 173 171 170 169 167 166 165 163 162 160 159 158 156 155 154 152 151 150 148 147 146 144 143 142 140 139 138 136 135 134 132 -1 -1 -1 -1 -1 -1 -1 -1 -1 -1 -1 -1 -1 -1 -1 -1 -1 -1 -1 -1 -1 -1 -1 -1 -1 -1 -1 -1 -1 -1 -1 -1 -1 -1 -1 -1 -1 -1 -1 -1 -1 -1 -1 -1 -1 -1 -1 -1 -1 -1 -1 -1 -1 -1 -1 -1 -1 -1 -1 -1 -1 -1 -1 -1 -1 -1 -1 -1 -1 -1 -1 -1 -1 -1 -1 -1 -1 -1 -1 -1 -1 -1 -1 -1 -1 -1 -1 -1 -1 -1 -1 -1 -1 -1 -1 -1 -1 -1 -1 -1 -1 -1 -1 -1 -1 -1 -1 -1 -1 -1 -1 -1 -1 -1 -1 -1 -1 -1 -1 -1 -1 -1 -1 -1 -1 -1 -1 -1 -1 -1 -1 -1 -1 -1 -1 -1 -1 -1 -1 -1 -1 -1 -1 -1 -1 -1 -1 -1 -1 -1 -1 -1 -1 -1 -1 -1 -1 -1 -1 -1 
100 97 96 109 173 158 144 129 114 100 99 104 109 115 120 125 130 135 140 145 150 155 161 164 166 168 171 173 175 178 180 179 175 171 167 163 159 155 151 147 143 139 135 131 127 123 119 115 111 107 103 98 89 79 69 59 49 75 103 130 158 185 212 240 247 226 203 168 133 67 28 41 42 38 40 46 51 57 62 68 73 81 93 97 100 104 108 112 116 120 104 79 53 28 250 248 245 242 240 237 235 232 230 227 224 222 215 188 160 133 105 77 50 67 95 124 152 180 186 182 178 175 171 167 163 160 156 152 149 145 141 137 134 130 126 122 119 115 111 107 104 100 96 92 94 96 98 100 102 104 106 108 109 111 113 115 117 119 121 123 125 126 128 130 132 134 136 138 140 142 143 145 147 149 151 153 155 157 159 160 162 164 166 168 170 172 174 176 177 179 181 183 185 187 189 191 193 194 196 198 200 202 204 206 208 210 211 213 215 217 219 221 223 225 227 228 230 227 224 220 216 225 209 163 118 72 26 23 20 16 13 77 141 160 133 106 79 52 55 58 62 65 68 72 75 80 86 92 99 105 253 209 152 94 251 249 246 244 241 239 236 234 231 229 226 224 221 219 216 214 211 209 206 204 201 199 196 194 191 190 189 187 186 185 183 182 181 179 178 177 175 174 173 171 170 169 167 166 165 163 162 161 159 158 157 155 154 152 151 150 148 147 146 144 143 142 140 139 138 136 135 -1 -1 -1 -1 -1 -1 -1 -1 -1 -1 -1 -1 -1 -1 -1 -1 -1 -1 -1 -1 -1 -1 -1 -1 -1 -1 -1 -1 -1 -1 -1 -1 -1 -1 -1 -1 -1 -1 -1 -1 -1 -1 -1 -1 -1 -1 -1 -1 -1 -1 -1 -1 -1 -1 -1 -1 -1 -1 -1 -1 -1 -1 -1 -1 -1 -1 -1 -1 -1 -1 -1 -1 -1 -1 -1 -1 -1 -1 -1 -1 -1 -1 -1 -1 -1 -1 -1 -1 -1 -1 -1 -1 -1 -1 -1 -1 -1 -1 -1 -1 -1 -1 -1 -1 -1 -1 -1 -1 -1 -1 -1 -1 -1 -1 -1 -1 -1 -1 -1 -1 -1 -1 -1 -1 -1 -1 -1 -1 -1 -1 -1 -1 -1 -1 -1 -1 -1 -1 -1 -1 -1 -1 -1 -1 -1 -1 -1 -1 -1 -1 -1 -1 -1 -1 -1 -1 -1 -1 -1 -1 
100 97 95 138 186 171 157 142 127 113 98 100 106 111 116 121 126 131 136 141 146 152 156 158 161 163 165 167 170 172 174 173 169 165 161 157 153 149 145 141 137 133 129 125 121 117 113 109 105 101 97 93 89 83 73 63 53 57 85 112 140 167 194 222 249 183 117 52 39 52 66 70 66 62 58 58 63 69 74 80 85 91 101 112 116 120 124 128 132 136 123 97 72 206 249 247 244 242 239 237 234 231 229 226 224 221 218 209 182 154 126 99 71 47 76 104 132 161 186 182 178 175 171 167 163 160 156 152 149 145 141 137 134 130 126 122 119 115 111 107 104 100 96 92 94 96 98 100 102 104 106 108 109 111 113 115 117 119 121 123 125 126 128 130 132 134 136 138 140 142 143 145 147 149 151 153 155 157 159 160 162 164 166 168 170 172 174 176 177 179 181 183 185 187 189 191 193 194 196 198 200 202 204 206 208 210 211 213 215 217 219 221 223 225 227 228 230 232 232 228 230 200 154 87 31 37 48 93 137 134 131 80 144 117 90 63 66 69 73 76 79 83 86 89 93 96 102 109 115 121 253 214 157 99 251 248 246 243 241 238 236 233 231 228 226 223 221 218 216 213 211 208 206 203 201 198 197 195 194 193 191 190 189 187 186 185 183 182 181 179 178 177 175 174 173 171 170 169 167 166 165 163 162 161 159 158 157 155 154 153 151 150 149 147 146 144 143 142 140 139 138 -1 -1 -1 -1 -1 -1 -1 -1 -1 -1 -1 -1 -1 -1 -1 -1 -1 -1 -1 -1 -1 -1 -1 -1 -1 -1 -1 -1 -1 -1 -1 -1 -1 -1 -1 -1 -1 -1 -1 -1 -1 -1 -1 -1 -1 -1 -1 -1 -1 -1 -1 -1 -1 -1 -1 -1 -1 -1 -1 -1 -1 -1 -1 -1 -1 -1 -1 -1 -1 -1 -1 -1 -1 -1 -1 -1 -1 -1 -1 -1 -1 -1 -1 -1 -1 -1 -1 -1 -1 -1 -1 -1 -1 -1 -1 -1 -1 -1 -1 -1 -1 -1 -1 -1 -1 -1 -1 -1 -1 -1 -1 -1 -1 -1 -1 -1 -1 -1 -1 -1 -1 -1 -1 -1 -1 -1 -1 -1 -1 -1 -1 -1 -1 -1 -1 -1 -1 -1 -1 -1 -1 -1 -1 -1 -1 -1 -1 -1 -1 -1 -1 -1 -1 -1 -1 -1 -1 -1 -1 -1 
101 96 102 167 199 184 170 155 140 126 111 97 102 107 112 117 122 127 132 137 143 148 150 153 155 157 160 162 164 166 169 168 164 160 156 152 148 144 140 136 132 128 124 120 116 112 108 104 100 96 92 88 84 80 76 67 57 47 67 94 121 149 176 179 107 36 49 63 76 90 99 95 91 87 83 79 75 81 86 92 97 103 108 120 132 136 140 144 148 152 141 115 90 251 249 246 244 241 238 236 233 231 228 225 223 220 218 215 203 175 148 120 93 65 56 84 113 141 169 182 178 175 171 167 163 160 156 152 149 145 141 137 134 130 126 122 119 115 111 107 104 100 96 92 94 96 98 100 102 104 106 108 109 111 113 115 117 119 121 123 125 126 128 130 132 134 136 138 140 142 143 145 147 149 151 153 155 157 159 160 162 164 166 168 170 172 174 176 177 179 181 183 185 187 189 191 193 194 196 198 200 202 204 206 208 210 211 213 215 217 219 221 223 225 227 228 230 232 234 236 149 62 36 42 48 53 70 115 159 204 248 82 101 74 77 81 84 87 91 94 97 101 104 107 111 114 119 125 131 138 253 219 161 139 250 247 245 242 240 237 235 232 230 227 225 222 220 217 215 212 210 207 205 203 202 201 199 198 197 195 194 193 191 190 189 187 186 185 183 182 181 179 178 177 175 174 173 171 170 169 167 166 165 163 162 161 159 158 157 155 154 153 151 150 149 147 146 145 143 142 141 -1 -1 -1 -1 -1 -1 -1 -1 -1 -1 -1 -1 -1 -1 -1 -1 -1 -1 -1 -1 -1 -1 -1 -1 -1 -1 -1 -1 -1 -1 -1 -1 -1 -1 -1 -1 -1 -1 -1 -1 -1 -1 -1 -1 -1 -1 -1 -1 -1 -1 -1 -1 -1 -1 -1 -1 -1 -1 -1 -1 -1 -1 -1 -1 -1 -1 -1 -1 -1 -1 -1 -1 -1 -1 -1 -1 -1 -1 -1 -1 -1 -1 -1 -1 -1 -1 -1 -1 -1 -1 -1 -1 -1 -1 -1 -1 -1 -1 -1 -1 -1 -1 -1 -1 -1 -1 -1 -1 -1 -1 -1 -1 -1 -1 -1 -1 -1 -1 -1 -1 -1 -1 -1 -1 -1 -1 -1 -1 -1 -1 -1 -1 -1 -1 -1 -1 -1 -1 -1 -1 -1 -1 -1 -1 -1 -1 -1 -1 -1 -1 -1 -1 -1 -1 -1 -1 -1 -1 -1 -1 
101 96 131 195 212 198 183 168 154 139 124 110 98 103 108 113 118 123 128 134 139 143 145 147 149 152 154 156 159 161 163 163 159 155 151 147 143 139 135 131 127 123 119 115 111 107 103 99 95 91 87 83 79 75 71 67 61 52 49 76 103 131 109 37 55 73 87 101 114 128 124 120 116 112 108 104 100 96 98 104 109 115 120 128 140 152 156 159 163 167 159 134 161 250 248 245 243 240 238 235 232 230 227 225 222 220 217 214 212 197 169 142 114 86 59 65 93 121 150 178 178 175 171 167 163 160 156 152 148 145 141 137 134 130 126 122 119 115 111 107 104 100 96 92 94 96 98 100 102 104 106 108 109 111 113 115 117 119 121 123 125 126 128 130 132 134 136 138 140 142 143 145 147 149 151 153 155 157 159 160 162 164 166 168 170 172 174 176 177 179 181 183 185 187 189 191 193 194 196 198 200 202 204 206 208 210 211 213 215 217 219 221 223 225 227 228 230 232 139 36 42 47 53 58 64 70 92 137 181 226 194 85 88 92 95 98 102 105 108 112 115 118 122 125 128 132 135 141 148 154 253 224 166 252 249 247 244 242 239 237 234 232 229 227 224 222 219 217 214 212 210 209 208 206 205 204 202 201 200 198 197 195 194 193 191 190 189 187 186 185 183 182 181 179 178 177 175 174 173 171 170 169 167 166 165 163 162 161 159 158 157 155 154 153 151 150 149 147 146 145 143 -1 -1 -1 -1 -1 -1 -1 -1 -1 -1 -1 -1 -1 -1 -1 -1 -1 -1 -1 -1 -1 -1 -1 -1 -1 -1 -1 -1 -1 -1 -1 -1 -1 -1 -1 -1 -1 -1 -1 -1 -1 -1 -1 -1 -1 -1 -1 -1 -1 -1 -1 -1 -1 -1 -1 -1 -1 -1 -1 -1 -1 -1 -1 -1 -1 -1 -1 -1 -1 -1 -1 -1 -1 -1 -1 -1 -1 -1 -1 -1 -1 -1 -1 -1 -1 -1 -1 -1 -1 -1 -1 -1 -1 -1 -1 -1 -1 -1 -1 -1 -1 -1 -1 -1 -1 -1 -1 -1 -1 -1 -1 -1 -1 -1 -1 -1 -1 -1 -1 -1 -1 -1 -1 -1 -1 -1 -1 -1 -1 -1 -1 -1 -1 -1 -1 -1 -1 -1 -1 -1 -1 -1 -1 -1 -1 -1 -1 -1 -1 -1 -1 -1 -1 -1 -1 -1 -1 -1 -1 -1 
101 96 160 224 225 211 196 181 167 152 137 123 108 99 104 109 114 119 125 130 135 137 139 142 144 146 148 151 153 155 158 158 154 150 146 142 137 133 129 125 121 117 113 109 105 101 97 93 89 85 81 77 73 69 65 61 57 53 46 58 85 39 56 74 92 110 125 138 152 152 148 144 140 136 132 129 125 121 117 116 121 127 133 138 148 160 171 175 179 183 177 152 138 250 247 245 242 239 237 234 232 229 227 224 221 219 216 214 211 208 190 163 135 108 80 53 73 102 130 158 178 175 171 167 163 160 156 152 148 145 141 137 134 130 126 122 119 115 111 107 104 100 96 92 94 96 98 100 102 104 106 108 109 111 113 115 117 119 121 123 125 126 128 130 132 134 136 138 140 142 143 145 147 149 151 153 155 157 159 160 162 164 166 168 170 172 174 176 177 179 181 183 185 187 189 191 193 194 196 198 200 202 204 206 208 210 211 213 215 217 219 221 223 225 227 228 146 43 40 49 58 64 69 75 81 86 114 159 203 248 139 91 89 101 113 116 120 123 126 130 133 136 140 143 146 150 153 158 164 170 252 228 171 251 248 246 243 241 238 236 233 231 228 226 223 221 218 217 216 214 213 212 210 209 208 206 205 204 202 201 200 198 197 196 194 193 192 190 189 187 186 185 183 182 181 179 178 177 175 174 173 171 170 169 167 166 165 163 162 161 159 158 157 155 154 153 151 150 149 147 146 -1 -1 -1 -1 -1 -1 -1 -1 -1 -1 -1 -1 -1 -1 -1 -1 -1 -1 -1 -1 -1 -1 -1 -1 -1 -1 -1 -1 -1 -1 -1 -1 -1 -1 -1 -1 -1 -1 -1 -1 -1 -1 -1 -1 -1 -1 -1 -1 -1 -1 -1 -1 -1 -1 -1 -1 -1 -1 -1 -1 -1 -1 -1 -1 -1 -1 -1 -1 -1 -1 -1 -1 -1 -1 -1 -1 -1 -1 -1 -1 -1 -1 -1 -1 -1 -1 -1 -1 -1 -1 -1 -1 -1 -1 -1 -1 -1 -1 -1 -1 -1 -1 -1 -1 -1 -1 -1 -1 -1 -1 -1 -1 -1 -1 -1 -1 -1 -1 -1 -1 -1 -1 -1 -1 -1 -1 -1 -1 -1 -1 -1 -1 -1 -1 -1 -1 -1 -1 -1 -1 -1 -1 -1 -1 -1 -1 -1 -1 -1 -1 -1 -1 -1 -1 -1 -1 -1 -1 -1 -1 
101 237 245 253 238 224 209 194 180 165 150 136 121 106 100 105 110 116 121 126 129 131 134 136 138 141 143 145 148 150 152 152 148 144 140 136 132 128 124 120 116 112 108 104 100 96 92 88 84 80 76 72 68 64 60 56 52 48 44 40 58 76 93 111 129 147 163 176 181 177 173 169 165 161 157 153 149 145 141 137 134 139 145 150 156 167 179 191 195 199 195 170 252 249 246 244 241 239 236 234 231 228 226 223 221 218 215 213 210 208 205 184 157 129 102 74 54 82 110 139 167 175 171 167 163 160 156 152 148 145 141 137 134 130 126 122 119 115 111 107 104 100 96 92 94 96 98 100 102 104 106 108 109 111 113 115 117 119 121 123 125 126 128 130 132 134 136 138 140 142 143 145 147 149 151 153 155 157 159 160 162 164 166 168 170 172 174 176 177 179 181 183 185 187 189 191 193 194 196 198 200 202 204 206 208 210 211 213 215 217 219 221 223 225 153 49 41 44 47 61 75 80 86 91 97 103 136 181 225 193 110 97 84 93 105 117 129 141 144 147 151 154 157 161 164 167 171 174 180 187 252 233 175 250 248 245 243 240 238 235 233 230 228 225 224 222 221 220 218 217 216 214 213 212 210 209 208 206 205 204 202 201 200 198 197 196 194 193 192 190 189 188 186 185 184 182 181 179 178 177 175 174 173 171 170 169 167 166 165 163 162 161 159 158 157 155 154 153 151 150 149 -1 -1 -1 -1 -1 -1 -1 -1 -1 -1 -1 -1 -1 -1 -1 -1 -1 -1 -1 -1 -1 -1 -1 -1 -1 -1 -1 -1 -1 -1 -1 -1 -1 -1 -1 -1 -1 -1 -1 -1 -1 -1 -1 -1 -1 -1 -1 -1 -1 -1 -1 -1 -1 -1 -1 -1 -1 -1 -1 -1 -1 -1 -1 -1 -1 -1 -1 -1 -1 -1 -1 -1 -1 -1 -1 -1 -1 -1 -1 -1 -1 -1 -1 -1 -1 -1 -1 -1 -1 -1 -1 -1 -1 -1 -1 -1 -1 -1 -1 -1 -1 -1 -1 -1 -1 -1 -1 -1 -1 -1 -1 -1 -1 -1 -1 -1 -1 -1 -1 -1 -1 -1 -1 -1 -1 -1 -1 -1 -1 -1 -1 -1 -1 -1 -1 -1 -1 -1 -1 -1 -1 -1 -1 -1 -1 -1 -1 -1 -1 -1 -1 -1 -1 -1 -1 -1 -1 -1 -1 -1 
102 156 128 100 133 166 198 207 193 178 163 149 134 119 105 101 107 112 117 121 124 126 128 130 133 135 137 140 142 144 147 147 143 139 135 131 127 123 119 115 111 107 103 99 95 91 87 83 79 75 71 67 63 59 55 51 47 44 42 40 53 87 122 148 166 183 200 209 205 202 198 194 190 186 182 178 174 170 166 162 158 154 157 162 168 175 187 199 211 215 214 194 251 248 246 243 240 238 235 233 230 228 225 222 220 217 215 212 210 207 204 202 178 150 123 95 68 63 91 119 147 175 171 167 163 160 156 152 148 145 141 137 134 130 126 122 119 115 111 107 104 100 96 92 94 96 98 100 102 104 106 107 109 111 113 115 117 119 121 123 125 126 128 130 132 134 136 138 140 142 143 145 147 149 151 153 155 157 159 160 162 164 166 168 170 172 174 176 177 179 181 183 185 187 189 191 193 194 196 198 200 202 204 206 208 210 211 213 215 217 219 221 160 56 43 45 48 50 60 74 88 97 102 108 113 119 158 203 247 139 117 103 90 85 97 109 121 133 145 157 169 172 175 179 182 185 189 192 197 203 252 238 252 249 247 244 242 239 237 234 232 230 229 228 226 225 224 222 221 220 218 217 216 214 213 212 210 209 208 206 205 204 202 201 200 198 197 196 194 193 192 190 189 188 186 185 184 182 181 180 178 177 176 174 173 171 170 169 167 166 165 163 162 161 159 158 157 155 154 153 151 -1 -1 -1 -1 -1 -1 -1 -1 -1 -1 -1 -1 -1 -1 -1 -1 -1 -1 -1 -1 -1 -1 -1 -1 -1 -1 -1 -1 -1 -1 -1 -1 -1 -1 -1 -1 -1 -1 -1 -1 -1 -1 -1 -1 -1 -1 -1 -1 -1 -1 -1 -1 -1 -1 -1 -1 -1 -1 -1 -1 -1 -1 -1 -1 -1 -1 -1 -1 -1 -1 -1 -1 -1 -1 -1 -1 -1 -1 -1 -1 -1 -1 -1 -1 -1 -1 -1 -1 -1 -1 -1 -1 -1 -1 -1 -1 -1 -1 -1 -1 -1 -1 -1 -1 -1 -1 -1 -1 -1 -1 -1 -1 -1 -1 -1 -1 -1 -1 -1 -1 -1 -1 -1 -1 -1 -1 -1 -1 -1 -1 -1 -1 -1 -1 -1 -1 -1 -1 -1 -1 -1 -1 -1 -1 -1 -1 -1 -1 -1 -1 -1 -1 -1 -1 -1 -1 -1 -1 -1 -1 
102 126 150 174 158 142 126 111 111 144 177 162 147 133 118 103 103 108 113 116 118 120 123 125 127 130 132 134 136 139 141 142 138 134 130 126 122 118 114 110 106 101 97 93 89 85 81 77 73 69 65 61 57 53 50 48 46 44 42 40 39 65 100 134 169 203 238 234 230 226 222 218 214 210 206 203 199 195 191 187 183 179 175 174 180 185 195 207 219 230 232 138 250 247 245 242 240 237 235 232 229 227 224 222 219 217 214 211 209 206 204 201 198 172 144 117 89 62 71 99 128 156 171 167 163 160 156 152 148 145 141 137 134 130 126 122 119 115 111 107 104 100 96 92 94 96 98 100 102 104 106 107 109 111 113 115 117 119 121 123 124 126 128 130 132 134 136 138 140 141 143 145 147 149 151 153 155 157 158 160 162 164 166 168 170 172 174 175 177 179 181 183 185 187 189 191 192 194 196 198 200 202 204 206 208 209 211 213 215 217 166 63 44 46 49 52 54 58 72 86 100 113 119 124 130 136 180 225 193 136 123 110 96 83 89 101 113 125 137 149 161 173 184 196 200 203 206 210 213 219 252 243 251 249 246 244 241 239 237 236 235 233 232 230 229 228 226 225 224 222 221 220 218 217 216 214 213 212 210 209 208 206 205 204 202 201 200 198 197 196 194 193 192 190 189 188 186 185 184 182 181 180 178 177 176 174 173 172 170 169 168 166 165 163 162 161 159 158 157 155 154 -1 -1 -1 -1 -1 -1 -1 -1 -1 -1 -1 -1 -1 -1 -1 -1 -1 -1 -1 -1 -1 -1 -1 -1 -1 -1 -1 -1 -1 -1 -1 -1 -1 -1 -1 -1 -1 -1 -1 -1 -1 -1 -1 -1 -1 -1 -1 -1 -1 -1 -1 -1 -1 -1 -1 -1 -1 -1 -1 -1 -1 -1 -1 -1 -1 -1 -1 -1 -1 -1 -1 -1 -1 -1 -1 -1 -1 -1 -1 -1 -1 -1 -1 -1 -1 -1 -1 -1 -1 -1 -1 -1 -1 -1 -1 -1 -1 -1 -1 -1 -1 -1 -1 -1 -1 -1 -1 -1 -1 -1 -1 -1 -1 -1 -1 -1 -1 -1 -1 -1 -1 -1 -1 -1 -1 -1 -1 -1 -1 -1 -1 -1 -1 -1 -1 -1 -1 -1 -1 -1 -1 -1 -1 -1 -1 -1 -1 -1 -1 -1 -1 -1 -1 -1 -1 -1 -1 -1 -1 -1 
102 150 199 247 231 216 200 184 168 153 137 121 105 122 131 116 102 104 108 110 112 115 117 119 122 124 126 129 131 133 136 136 132 128 124 120 116 112 108 104 100 96 92 88 84 80 76 72 68 64 60 57 55 52 50 48 46 44 42 39 39 43 78 112 147 181 216 235 239 239 240 241 239 235 231 227 223 219 215 211 208 204 200 196 192 197 203 215 226 238 250 252 249 247 244 241 239 236 234 231 229 226 224 221 218 216 213 211 208 205 203 200 198 193 166 138 110 83 55 80 108 136 165 167 163 160 156 152 148 145 141 137 133 130 126 122 119 115 111 107 104 100 96 92 94 96 98 100 102 104 106 107 109 111 113 115 117 119 121 123 124 126 128 130 132 134 136 138 140 141 143 145 147 149 151 153 155 157 158 160 162 164 166 168 170 172 174 175 177 179 181 183 185 187 189 191 192 194 196 198 200 202 204 206 208 209 211 213 173 70 45 48 50 53 56 58 61 70 85 99 113 127 135 141 146 158 202 247 155 142 129 116 102 89 82 93 105 117 129 141 153 165 177 189 200 212 224 228 231 236 252 247 250 248 245 244 243 241 240 239 237 236 235 233 232 231 229 228 227 225 224 222 221 220 218 217 216 214 213 212 210 209 208 206 205 204 202 201 200 198 197 196 194 193 192 190 189 188 186 185 184 182 181 180 178 177 176 174 173 172 170 169 168 166 165 164 162 161 160 158 157 -1 -1 -1 -1 -1 -1 -1 -1 -1 -1 -1 -1 -1 -1 -1 -1 -1 -1 -1 -1 -1 -1 -1 -1 -1 -1 -1 -1 -1 -1 -1 -1 -1 -1 -1 -1 -1 -1 -1 -1 -1 -1 -1 -1 -1 -1 -1 -1 -1 -1 -1 -1 -1 -1 -1 -1 -1 -1 -1 -1 -1 -1 -1 -1 -1 -1 -1 -1 -1 -1 -1 -1 -1 -1 -1 -1 -1 -1 -1 -1 -1 -1 -1 -1 -1 -1 -1 -1 -1 -1 -1 -1 -1 -1 -1 -1 -1 -1 -1 -1 -1 -1 -1 -1 -1 -1 -1 -1 -1 -1 -1 -1 -1 -1 -1 -1 -1 -1 -1 -1 -1 -1 -1 -1 -1 -1 -1 -1 -1 -1 -1 -1 -1 -1 -1 -1 -1 -1 -1 -1 -1 -1 -1 -1 -1 -1 -1 -1 -1 -1 -1 -1 -1 -1 -1 -1 -1 -1 -1 -1 
102 151 199 234 225 216 206 196 187 177 167 158 148 139 129 119 110 100 102 105 107 109 112 114 116 118 121 123 125 128 130 131 127 123 119 115 111 107 103 99 95 91 87 83 79 75 71 67 63 61 59 57 54 52 50 48 46 44 41 39 39 39 56 90 125 159 194 223 231 239 240 240 241 241 242 243 243 244 240 236 232 228 224 220 216 212 215 222 234 246 24 251 248 246 243 241 238 236 233 230 228 225 223 220 218 215 212 210 207 205 202 200 197 194 187 159 132 104 77 60 89 117 145 167 163 160 156 152 148 145 141 137 133 130 126 122 119 115 111 107 104 100 96 92 94 96 98 100 102 104 106 107 109 111 113 115 117 119 121 123 124 126 128 130 132 134 136 138 140 141 143 145 147 149 151 153 155 157 158 160 162 164 166 168 170 172 174 175 177 179 181 183 185 187 189 191 192 194 196 198 200 202 204 206 208 209 180 76 46 49 52 54 57 59 62 65 69 83 97 111 126 140 152 157 163 180 224 192 161 148 135 122 109 95 82 86 97 109 121 133 145 157 169 181 193 204 216 228 240 252 252 252 251 249 248 247 245 244 243 241 240 239 237 236 235 233 232 231 229 228 227 225 224 223 221 220 219 217 216 214 213 212 210 209 208 206 205 204 202 201 200 198 197 196 194 193 192 190 189 188 186 185 184 182 181 180 178 177 176 174 173 172 170 169 168 166 165 164 162 161 160 -1 -1 -1 -1 -1 -1 -1 -1 -1 -1 -1 -1 -1 -1 -1 -1 -1 -1 -1 -1 -1 -1 -1 -1 -1 -1 -1 -1 -1 -1 -1 -1 -1 -1 -1 -1 -1 -1 -1 -1 -1 -1 -1 -1 -1 -1 -1 -1 -1 -1 -1 -1 -1 -1 -1 -1 -1 -1 -1 -1 -1 -1 -1 -1 -1 -1 -1 -1 -1 -1 -1 -1 -1 -1 -1 -1 -1 -1 -1 -1 -1 -1 -1 -1 -1 -1 -1 -1 -1 -1 -1 -1 -1 -1 -1 -1 -1 -1 -1 -1 -1 -1 -1 -1 -1 -1 -1 -1 -1 -1 -1 -1 -1 -1 -1 -1 -1 -1 -1 -1 -1 -1 -1 -1 -1 -1 -1 -1 -1 -1 -1 -1 -1 -1 -1 -1 -1 -1 -1 -1 -1 -1 -1 -1 -1 -1 -1 -1 -1 -1 -1 -1 -1 -1 -1 -1 -1 -1 -1 -1 
103 151 199 221 213 203 194 184 174 165 155 146 136 126 117 107 106 123 121 105 101 104 106 108 111 113 115 118 120 122 124 126 122 118 114 110 106 102 98 94 90 86 82 78 74 70 67 65 63 61 59 56 54 52 50 48 46 43 41 39 38 39 39 68 103 137 172 207 220 228 236 240 240 241 242 242 243 244 244 245 245 246 247 245 241 237 233 232 242 137 138 250 248 245 243 240 237 235 232 230 227 225 222 219 217 214 212 209 207 204 201 199 196 194 191 181 153 126 98 70 69 97 125 154 163 160 156 152 148 145 141 137 133 130 126 122 119 115 111 107 104 100 96 92 94 96 98 100 102 104 106 107 109 111 113 115 117 119 121 123 124 126 128 130 132 134 136 138 140 141 143 145 147 149 151 153 155 157 158 160 162 164 166 168 170 172 174 175 177 179 181 183 185 187 189 191 192 194 196 198 200 202 204 206 187 83 48 50 53 56 58 61 63 66 69 71 81 96 110 124 138 152 166 174 179 202 246 181 168 154 141 128 115 101 88 78 90 102 113 125 137 149 161 173 185 197 209 220 232 210 23 233 242 252 251 249 248 247 245 244 243 241 240 239 237 236 235 233 232 231 229 228 227 225 224 223 221 220 219 217 216 215 213 212 211 209 208 206 205 204 202 201 200 198 197 196 194 193 192 190 189 188 186 185 184 182 181 180 178 177 176 174 173 172 170 169 168 166 165 164 162 -1 -1 -1 -1 -1 -1 -1 -1 -1 -1 -1 -1 -1 -1 -1 -1 -1 -1 -1 -1 -1 -1 -1 -1 -1 -1 -1 -1 -1 -1 -1 -1 -1 -1 -1 -1 -1 -1 -1 -1 -1 -1 -1 -1 -1 -1 -1 -1 -1 -1 -1 -1 -1 -1 -1 -1 -1 -1 -1 -1 -1 -1 -1 -1 -1 -1 -1 -1 -1 -1 -1 -1 -1 -1 -1 -1 -1 -1 -1 -1 -1 -1 -1 -1 -1 -1 -1 -1 -1 -1 -1 -1 -1 -1 -1 -1 -1 -1 -1 -1 -1 -1 -1 -1 -1 -1 -1 -1 -1 -1 -1 -1 -1 -1 -1 -1 -1 -1 -1 -1 -1 -1 -1 -1 -1 -1 -1 -1 -1 -1 -1 -1 -1 -1 -1 -1 -1 -1 -1 -1 -1 -1 -1 -1 -1 -1 -1 -1 -1 -1 -1 -1 -1 -1 -1 -1 -1 -1 -1 -1 
103 151 199 208 201 191 181 172 162 153 143 133 124 114 104 111 129 146 157 141 126 110 100 103 105 107 110 112 114 117 119 120 116 112 108 104 100 96 92 88 84 80 76 74 71 69 67 65 63 61 58 56 54 52 50 48 45 43 41 39 38 38 38 46 81 115 150 185 209 217 225 233 240 241 241 242 242 243 244 244 245 246 246 247 247 248 249 249 250 251 252 249 247 244 242 239 237 234 231 229 226 224 221 219 216 213 211 208 206 203 201 198 195 193 190 188 175 147 119 92 64 78 106 134 162 160 156 152 148 145 141 137 133 130 126 122 119 115 111 107 104 100 96 92 94 96 98 100 102 104 106 107 109 111 113 115 117 119 121 123 124 126 128 130 132 134 136 138 140 141 143 145 147 149 151 153 155 157 158 160 162 164 166 168 170 172 174 175 177 179 181 183 185 187 189 191 192 194 196 198 200 202 193 90 49 52 54 57 59 62 65 67 70 72 75 80 94 108 122 136 151 165 179 190 196 224 200 187 174 160 147 134 121 108 94 81 82 94 106 117 129 141 153 165 177 189 201 213 232 169 206 214 223 233 242 251 251 249 248 247 245 244 243 241 240 239 237 236 235 233 232 231 229 228 227 225 224 223 221 220 219 217 216 215 213 212 211 209 208 207 205 204 203 201 200 198 197 196 194 193 192 190 189 188 186 185 184 182 181 180 178 177 176 174 173 172 170 169 168 166 165 -1 -1 -1 -1 -1 -1 -1 -1 -1 -1 -1 -1 -1 -1 -1 -1 -1 -1 -1 -1 -1 -1 -1 -1 -1 -1 -1 -1 -1 -1 -1 -1 -1 -1 -1 -1 -1 -1 -1 -1 -1 -1 -1 -1 -1 -1 -1 -1 -1 -1 -1 -1 -1 -1 -1 -1 -1 -1 -1 -1 -1 -1 -1 -1 -1 -1 -1 -1 -1 -1 -1 -1 -1 -1 -1 -1 -1 -1 -1 -1 -1 -1 -1 -1 -1 -1 -1 -1 -1 -1 -1 -1 -1 -1 -1 -1 -1 -1 -1 -1 -1 -1 -1 -1 -1 -1 -1 -1 -1 -1 -1 -1 -1 -1 -1 -1 -1 -1 -1 -1 -1 -1 -1 -1 -1 -1 -1 -1 -1 -1 -1 -1 -1 -1 -1 -1 -1 -1 -1 -1 -1 -1 -1 -1 -1 -1 -1 -1 -1 -1 -1 -1 -1 -1 -1 -1 -1 -1 -1 -1 
103 151 195 195 189 179 169 160 150 140 131 121 111 102 117 134 152 169 187 178 162 146 131 115 100 102 104 106 109 111 113 115 111 107 103 99 95 91 87 83 80 78 76 73 71 69 67 65 63 60 58 56 54 52 49 47 45 43 41 39 38 38 38 38 59 93 128 163 197 205 213 222 230 238 241 241 242 243 243 244 245 245 246 246 247 248 248 249 217 23 251 249 246 244 241 238 236 233 231 228 226 223 220 218 215 213 210 208 205 202 200 197 195 192 190 187 184 168 141 113 86 58 86 115 143 160 156 152 148 145 141 137 133 130 126 122 118 115 111 107 104 100 96 92 94 96 98 100 102 104 106 107 109 111 113 115 117 119 121 123 124 126 128 130 132 134 136 138 140 141 143 145 147 149 151 153 155 157 158 160 162 164 166 168 170 172 174 175 177 179 181 183 185 187 189 191 192 194 196 198 200 97 50 53 56 58 61 63 66 69 71 74 76 79 82 92 107 121 135 149 163 177 192 206 212 246 206 193 180 167 153 140 127 114 100 87 74 86 98 110 122 133 145 157 169 181 193 205 240 127 186 195 204 214 223 232 242 251 251 249 248 247 245 244 243 241 240 239 237 236 235 233 232 231 229 228 227 225 224 223 221 220 219 217 216 215 213 212 211 209 208 207 205 204 203 201 200 199 197 196 195 193 192 190 189 188 186 185 184 182 181 180 178 177 176 174 173 172 170 169 168 -1 -1 -1 -1 -1 -1 -1 -1 -1 -1 -1 -1 -1 -1 -1 -1 -1 -1 -1 -1 -1 -1 -1 -1 -1 -1 -1 -1 -1 -1 -1 -1 -1 -1 -1 -1 -1 -1 -1 -1 -1 -1 -1 -1 -1 -1 -1 -1 -1 -1 -1 -1 -1 -1 -1 -1 -1 -1 -1 -1 -1 -1 -1 -1 -1 -1 -1 -1 -1 -1 -1 -1 -1 -1 -1 -1 -1 -1 -1 -1 -1 -1 -1 -1 -1 -1 -1 -1 -1 -1 -1 -1 -1 -1 -1 -1 -1 -1 -1 -1 -1 -1 -1 -1 -1 -1 -1 -1 -1 -1 -1 -1 -1 -1 -1 -1 -1 -1 -1 -1 -1 -1 -1 -1 -1 -1 -1 -1 -1 -1 -1 -1 -1 -1 -1 -1 -1 -1 -1 -1 -1 -1 -1 -1 -1 -1 -1 -1 -1 -1 -1 -1 -1 -1 -1 -1 -1 -1 -1 -1 
103 151 182 182 176 167 157 147 138 128 119 109 105 122 140 157 175 192 210 214 198 183 167 151 136 120 105 101 103 105 108 110 106 102 98 94 90 86 84 82 80 78 75 73 71 69 67 65 62 60 58 56 54 51 49 47 45 43 41 38 37 37 38 38 38 72 106 141 175 194 202 210 218 226 235 241 242 242 243 243 244 245 245 246 247 247 248 248 185 251 250 248 245 243 240 238 235 232 230 227 225 222 220 217 215 212 209 207 204 202 199 197 194 191 189 186 184 181 162 135 107 79 67 95 123 151 156 152 148 145 141 137 133 130 126 122 118 115 111 107 104 100 96 92 94 96 98 100 102 104 106 107 109 111 113 115 117 119 121 123 124 126 128 130 132 134 136 138 140 141 143 145 147 149 151 153 155 157 158 160 162 164 166 168 170 172 174 175 177 179 181 183 185 187 189 191 192 194 196 103 52 54 57 59 62 65 67 70 72 75 78 80 83 85 91 105 119 133 147 162 176 190 204 218 229 226 212 199 186 173 160 146 133 120 107 93 80 78 90 102 114 126 137 149 161 173 185 212 248 160 167 176 185 195 204 214 223 232 242 251 251 249 248 247 245 244 243 241 240 239 237 236 235 233 232 231 229 228 227 225 224 223 221 220 219 217 216 215 213 212 211 209 208 207 205 204 203 201 200 199 197 196 195 193 192 191 189 188 187 185 184 182 181 180 178 177 176 174 173 172 170 -1 -1 -1 -1 -1 -1 -1 -1 -1 -1 -1 -1 -1 -1 -1 -1 -1 -1 -1 -1 -1 -1 -1 -1 -1 -1 -1 -1 -1 -1 -1 -1 -1 -1 -1 -1 -1 -1 -1 -1 -1 -1 -1 -1 -1 -1 -1 -1 -1 -1 -1 -1 -1 -1 -1 -1 -1 -1 -1 -1 -1 -1 -1 -1 -1 -1 -1 -1 -1 -1 -1 -1 -1 -1 -1 -1 -1 -1 -1 -1 -1 -1 -1 -1 -1 -1 -1 -1 -1 -1 -1 -1 -1 -1 -1 -1 -1 -1 -1 -1 -1 -1 -1 -1 -1 -1 -1 -1 -1 -1 -1 -1 -1 -1 -1 -1 -1 -1 -1 -1 -1 -1 -1 -1 -1 -1 -1 -1 -1 -1 -1 -1 -1 -1 -1 -1 -1 -1 -1 -1 -1 -1 -1 -1 -1 -1 -1 -1 -1 -1 -1 -1 -1 -1 -1 -1 -1 -1 -1 -1 
103 151 169 169 164 154 145 135 126 116 106 110 128 145 163 180 198 215 233 250 234 219 203 188 172 156 141 125 110 100 102 104 100 96 93 90 88 86 84 82 80 77 75 73 71 69 67 64 62 60 58 56 53 51 49 47 45 43 40 38 37 37 37 38 38 50 84 119 153 183 191 199 207 215 223 231 239 242 242 243 244 244 245 245 246 247 247 248 152 252 249 247 244 242 239 237 234 232 229 227 224 221 219 216 214 211 209 206 203 201 198 196 193 191 188 185 183 180 178 156 128 101 73 75 104 132 156 152 148 145 141 137 133 130 126 122 118 115 111 107 104 100 96 92 94 96 98 100 102 104 106 107 109 111 113 115 117 119 121 123 124 126 128 130 132 134 136 138 140 141 143 145 147 149 151 153 155 157 158 160 162 164 166 168 170 172 174 175 177 179 181 183 185 187 189 191 192 110 53 56 58 61 63 66 69 71 74 76 79 82 84 87 89 92 103 118 132 146 160 174 188 203 217 231 245 232 219 205 192 179 166 152 139 126 113 99 86 73 82 94 106 118 130 142 153 165 185 220 231 139 148 157 167 176 185 195 204 213 223 232 241 251 251 250 248 247 245 244 243 241 240 239 237 236 235 233 232 231 229 228 227 225 224 223 221 220 219 217 216 215 213 212 211 209 208 207 205 204 203 201 200 199 197 196 195 193 192 191 189 188 187 185 184 183 181 180 179 177 176 174 173 -1 -1 -1 -1 -1 -1 -1 -1 -1 -1 -1 -1 -1 -1 -1 -1 -1 -1 -1 -1 -1 -1 -1 -1 -1 -1 -1 -1 -1 -1 -1 -1 -1 -1 -1 -1 -1 -1 -1 -1 -1 -1 -1 -1 -1 -1 -1 -1 -1 -1 -1 -1 -1 -1 -1 -1 -1 -1 -1 -1 -1 -1 -1 -1 -1 -1 -1 -1 -1 -1 -1 -1 -1 -1 -1 -1 -1 -1 -1 -1 -1 -1 -1 -1 -1 -1 -1 -1 -1 -1 -1 -1 -1 -1 -1 -1 -1 -1 -1 -1 -1 -1 -1 -1 -1 -1 -1 -1 -1 -1 -1 -1 -1 -1 -1 -1 -1 -1 -1 -1 -1 -1 -1 -1 -1 -1 -1 -1 -1 -1 -1 -1 -1 -1 -1 -1 -1 -1 -1 -1 -1 -1 -1 -1 -1 -1 -1 -1 -1 -1 -1 -1 -1 -1 -1 -1 -1 -1 -1 -1 
103 152 156 156 152 142 133 123 113 104 116 133 151 168 186 203 221 227 234 238 227 215 204 192 180 169 157 145 134 122 111 99 97 95 92 90 88 86 84 82 79 77 75 73 71 68 66 64 62 60 58 55 53 51 49 47 45 42 40 38 36 37 37 37 37 38 62 97 131 166 179 187 195 204 212 220 228 236 242 243 243 244 244 245 246 246 247 248 249 251 248 246 243 241 238 236 233 231 228 226 223 221 218 216 213 210 208 205 203 200 198 195 192 190 187 185 182 180 177 174 150 122 94 67 84 112 141 152 148 145 141 137 133 130 126 122 118 115 111 107 104 100 96 92 94 96 98 100 102 104 106 107 109 111 113 115 117 119 121 123 124 126 128 130 132 134 136 138 140 141 143 145 147 149 151 153 155 157 158 160 162 164 166 168 170 172 174 175 177 179 181 183 185 187 189 117 54 57 59 62 65 67 70 72 75 78 80 83 85 88 91 93 96 102 116 130 144 158 173 187 201 215 229 243 240 232 223 211 198 185 172 159 145 132 119 106 92 79 74 86 98 110 122 134 146 158 193 228 189 120 129 138 148 157 166 176 185 194 204 213 222 232 241 250 251 250 248 247 246 244 243 242 240 239 237 236 235 233 232 231 229 228 227 225 224 223 221 220 219 217 216 215 213 212 211 209 208 207 205 204 203 201 200 199 197 196 195 193 192 191 189 188 187 185 184 183 181 180 179 177 176 -1 -1 -1 -1 -1 -1 -1 -1 -1 -1 -1 -1 -1 -1 -1 -1 -1 -1 -1 -1 -1 -1 -1 -1 -1 -1 -1 -1 -1 -1 -1 -1 -1 -1 -1 -1 -1 -1 -1 -1 -1 -1 -1 -1 -1 -1 -1 -1 -1 -1 -1 -1 -1 -1 -1 -1 -1 -1 -1 -1 -1 -1 -1 -1 -1 -1 -1 -1 -1 -1 -1 -1 -1 -1 -1 -1 -1 -1 -1 -1 -1 -1 -1 -1 -1 -1 -1 -1 -1 -1 -1 -1 -1 -1 -1 -1 -1 -1 -1 -1 -1 -1 -1 -1 -1 -1 -1 -1 -1 -1 -1 -1 -1 -1 -1 -1 -1 -1 -1 -1 -1 -1 -1 -1 -1 -1 -1 -1 -1 -1 -1 -1 -1 -1 -1 -1 -1 -1 -1 -1 -1 -1 -1 -1 -1 -1 -1 -1 -1 -1 -1 -1 -1 -1 -1 -1 -1 -1 -1 -1 
104 143 143 142 140 130 120 111 104 121 139 156 174 191 198 205 212 219 223 227 215 204 192 180 169 157 146 134 122 111 99 104 97 94 92 90 88 86 84 81 79 77 75 73 70 68 66 64 62 60 57 55 53 51 49 47 44 42 40 38 36 36 37 37 37 37 40 75 109 144 168 176 184 192 200 208 217 225 233 241 243 243 244 245 245 246 246 248 137 250 247 245 242 240 237 235 232 230 228 225 222 220 217 215 212 210 207 204 202 199 197 194 192 189 187 184 181 179 176 174 171 143 116 88 64 93 121 149 148 145 141 137 133 130 126 122 118 115 111 107 103 100 96 92 94 96 98 100 102 104 106 107 109 111 113 115 117 119 121 123 124 126 128 130 132 134 136 138 140 141 143 145 147 149 151 153 155 157 158 160 162 164 166 168 170 172 174 175 177 179 181 183 185 124 56 58 61 63 66 69 71 74 76 79 82 84 87 89 92 95 97 100 102 114 128 143 157 171 185 199 213 228 242 241 234 227 218 210 201 191 178 165 151 138 125 112 99 85 72 78 90 102 114 126 138 165 200 236 195 101 110 119 129 138 147 157 166 175 185 194 203 213 222 231 241 250 251 250 248 247 246 244 243 242 240 239 238 236 235 234 232 231 229 228 227 225 224 223 221 220 219 217 216 215 213 212 211 209 208 207 205 204 203 201 200 199 197 196 195 193 192 191 189 188 187 185 184 183 181 180 179 -1 -1 -1 -1 -1 -1 -1 -1 -1 -1 -1 -1 -1 -1 -1 -1 -1 -1 -1 -1 -1 -1 -1 -1 -1 -1 -1 -1 -1 -1 -1 -1 -1 -1 -1 -1 -1 -1 -1 -1 -1 -1 -1 -1 -1 -1 -1 -1 -1 -1 -1 -1 -1 -1 -1 -1 -1 -1 -1 -1 -1 -1 -1 -1 -1 -1 -1 -1 -1 -1 -1 -1 -1 -1 -1 -1 -1 -1 -1 -1 -1 -1 -1 -1 -1 -1 -1 -1 -1 -1 -1 -1 -1 -1 -1 -1 -1 -1 -1 -1 -1 -1 -1 -1 -1 -1 -1 -1 -1 -1 -1 -1 -1 -1 -1 -1 -1 -1 -1 -1 -1 -1 -1 -1 -1 -1 -1 -1 -1 -1 -1 -1 -1 -1 -1 -1 -1 -1 -1 -1 -1 -1 -1 -1 -1 -1 -1 -1 -1 -1 -1 -1 -1 -1 -1 -1 -1 -1 -1 -1 
104 130 130 129 127 118 108 109 127 144 162 169 176 182 189 196 203 208 212 215 204 192 181 169 157 146 134 122 111 99 108 109 101 94 92 90 88 86 83 81 79 77 75 72 70 68 66 64 62 59 57 55 53 51 48 46 44 42 40 38 36 36 36 36 37 37 37 53 87 122 156 165 173 181 189 197 205 213 221 229 238 243 243 244 245 245 246 248 251 249 246 244 241 239 237 234 232 229 227 224 222 219 217 214 211 209 206 204 201 199 196 193 191 188 186 183 181 178 175 173 170 165 137 110 82 73 101 130 148 145 141 137 133 130 126 122 118 115 111 107 103 100 96 92 94 96 98 100 102 104 105 107 109 111 113 115 117 119 121 122 124 126 128 130 132 134 136 138 139 141 143 145 147 149 151 153 155 156 158 160 162 164 166 168 170 172 173 175 177 179 181 130 57 59 62 65 67 70 72 75 78 80 83 85 88 91 93 96 98 101 104 106 113 127 141 155 169 184 198 212 226 240 242 235 229 222 214 205 196 187 178 170 158 144 131 118 105 91 78 71 82 94 106 118 138 173 208 243 72 82 91 100 110 119 128 138 147 156 166 175 184 194 203 212 222 231 240 250 251 250 248 247 246 244 243 242 240 239 238 236 235 234 232 231 230 228 227 226 224 223 221 220 219 217 216 215 213 212 211 209 208 207 205 204 203 201 200 199 197 196 195 193 192 191 189 188 187 185 184 183 181 -1 -1 -1 -1 -1 -1 -1 -1 -1 -1 -1 -1 -1 -1 -1 -1 -1 -1 -1 -1 -1 -1 -1 -1 -1 -1 -1 -1 -1 -1 -1 -1 -1 -1 -1 -1 -1 -1 -1 -1 -1 -1 -1 -1 -1 -1 -1 -1 -1 -1 -1 -1 -1 -1 -1 -1 -1 -1 -1 -1 -1 -1 -1 -1 -1 -1 -1 -1 -1 -1 -1 -1 -1 -1 -1 -1 -1 -1 -1 -1 -1 -1 -1 -1 -1 -1 -1 -1 -1 -1 -1 -1 -1 -1 -1 -1 -1 -1 -1 -1 -1 -1 -1 -1 -1 -1 -1 -1 -1 -1 -1 -1 -1 -1 -1 -1 -1 -1 -1 -1 -1 -1 -1 -1 -1 -1 -1 -1 -1 -1 -1 -1 -1 -1 -1 -1 -1 -1 -1 -1 -1 -1 -1 -1 -1 -1 -1 -1 -1 -1 -1 -1 -1 -1 -1 -1 -1 -1 -1 -1 
104 117 117 116 115 106 115 132 139 146 153 160 167 174 180 187 192 196 200 204 192 181 169 157 146 134 122 111 99 108 117 113 106 99 92 90 88 85 83 81 79 77 74 72 70 68 66 64 61 59 57 55 53 50 48 46 44 42 40 37 35 36 36 36 36 37 37 37 65 100 134 153 161 169 177 186 194 202 210 218 226 234 242 244 244 245 246 23 250 248 245 243 241 238 236 233 231 228 226 223 221 218 216 213 211 208 206 203 200 198 195 193 190 188 185 182 180 177 175 172 169 167 159 131 103 76 82 110 138 145 141 137 133 130 126 122 118 115 111 107 103 100 96 92 94 96 98 100 102 104 105 107 109 111 113 115 117 119 121 122 124 126 128 130 132 134 136 138 139 141 143 145 147 149 151 153 155 156 158 160 162 164 166 168 170 172 173 175 177 137 58 61 63 66 69 71 74 76 79 82 84 87 89 92 95 97 100 102 105 108 110 113 125 139 154 168 182 196 210 224 239 243 236 230 223 217 210 201 192 183 174 165 156 147 137 124 111 98 84 71 75 86 98 110 145 181 216 251 53 63 72 81 91 100 109 119 128 137 147 156 165 175 184 193 203 212 221 231 240 250 251 250 248 247 246 244 243 242 240 239 238 236 235 234 232 231 230 228 227 226 224 223 222 220 219 218 216 215 213 212 211 209 208 207 205 204 203 201 200 199 197 196 195 193 192 191 189 188 187 185 184 -1 -1 -1 -1 -1 -1 -1 -1 -1 -1 -1 -1 -1 -1 -1 -1 -1 -1 -1 -1 -1 -1 -1 -1 -1 -1 -1 -1 -1 -1 -1 -1 -1 -1 -1 -1 -1 -1 -1 -1 -1 -1 -1 -1 -1 -1 -1 -1 -1 -1 -1 -1 -1 -1 -1 -1 -1 -1 -1 -1 -1 -1 -1 -1 -1 -1 -1 -1 -1 -1 -1 -1 -1 -1 -1 -1 -1 -1 -1 -1 -1 -1 -1 -1 -1 -1 -1 -1 -1 -1 -1 -1 -1 -1 -1 -1 -1 -1 -1 -1 -1 -1 -1 -1 -1 -1 -1 -1 -1 -1 -1 -1 -1 -1 -1 -1 -1 -1 -1 -1 -1 -1 -1 -1 -1 -1 -1 -1 -1 -1 -1 -1 -1 -1 -1 -1 -1 -1 -1 -1 -1 -1 -1 -1 -1 -1 -1 -1 -1 -1 -1 -1 -1 -1 -1 -1 -1 -1 -1 -1 
104 104 104 103 103 110 117 124 130 137 144 151 158 165 172 177 181 185 188 192 181 169 157 146 134 123 111 99 108 117 125 118 111 103 96 89 87 85 83 81 79 76 74 72 70 68 66 63 61 59 57 55 52 50 48 46 44 42 39 37 35 35 35 36 36 36 36 37 43 78 112 142 150 158 166 174 182 190 199 207 215 223 231 239 244 244 134 137 249 247 245 242 240 237 235 232 230 227 225 222 220 217 215 212 210 207 205 202 200 197 194 192 189 187 184 182 179 177 174 171 169 166 164 152 125 97 70 90 119 145 141 137 133 130 126 122 118 115 111 107 103 100 96 92 94 96 98 100 102 104 105 107 109 111 113 115 117 119 121 122 124 126 128 130 132 134 136 138 139 141 143 145 147 149 151 153 155 156 158 160 162 164 166 168 170 172 173 144 59 62 65 67 70 72 75 78 80 83 85 88 91 93 96 98 101 104 106 109 111 114 117 124 138 152 166 180 195 209 223 237 244 237 231 225 218 212 205 196 187 179 170 161 152 143 134 125 116 104 90 77 67 79 91 118 153 188 234 25 34 44 53 62 72 81 90 100 109 118 128 137 146 156 165 175 184 193 203 212 221 231 240 249 251 250 248 247 246 244 243 242 240 239 238 236 235 234 232 231 230 228 227 226 224 223 222 220 219 218 216 215 214 212 211 210 208 207 205 204 203 201 200 199 197 196 195 193 192 191 189 188 187 -1 -1 -1 -1 -1 -1 -1 -1 -1 -1 -1 -1 -1 -1 -1 -1 -1 -1 -1 -1 -1 -1 -1 -1 -1 -1 -1 -1 -1 -1 -1 -1 -1 -1 -1 -1 -1 -1 -1 -1 -1 -1 -1 -1 -1 -1 -1 -1 -1 -1 -1 -1 -1 -1 -1 -1 -1 -1 -1 -1 -1 -1 -1 -1 -1 -1 -1 -1 -1 -1 -1 -1 -1 -1 -1 -1 -1 -1 -1 -1 -1 -1 -1 -1 -1 -1 -1 -1 -1 -1 -1 -1 -1 -1 -1 -1 -1 -1 -1 -1 -1 -1 -1 -1 -1 -1 -1 -1 -1 -1 -1 -1 -1 -1 -1 -1 -1 -1 -1 -1 -1 -1 -1 -1 -1 -1 -1 -1 -1 -1 -1 -1 -1 -1 -1 -1 -1 -1 -1 -1 -1 -1 -1 -1 -1 -1 -1 -1 -1 -1 -1 -1 -1 -1 -1 -1 -1 -1 -1 -1 
141 104 154 203 253 102 108 115 122 128 135 142 149 156 162 165 169 173 177 181 169 158 146 134 123 111 99 108 117 126 130 123 115 108 101 94 87 85 83 81 78 76 74 72 70 67 65 63 61 59 57 54 52 50 48 46 44 41 39 37 35 35 35 35 36 36 36 36 37 56 90 125 138 147 155 163 171 179 187 195 203 212 220 228 236 244 248 251 249 246 244 241 239 236 234 231 229 226 224 221 219 216 214 211 209 207 204 201 199 196 194 191 189 186 183 181 178 176 173 171 168 165 163 160 146 119 91 71 99 127 141 137 133 130 126 122 118 115 111 107 103 100 96 92 94 96 98 100 102 104 105 107 109 111 113 115 117 119 121 122 124 126 128 130 132 134 136 138 139 141 143 145 147 149 151 153 155 156 158 160 162 164 166 168 170 151 61 63 66 69 71 74 76 79 82 84 87 89 92 95 97 100 102 105 108 110 113 115 118 121 123 136 150 165 179 193 207 221 235 245 238 232 226 219 213 206 200 192 183 174 165 156 147 139 130 121 112 103 94 83 70 71 90 126 171 217 136 34 30 32 34 43 53 62 71 81 90 99 109 118 128 137 146 156 165 174 184 193 202 212 221 230 240 249 251 250 248 247 246 244 243 242 240 239 238 236 235 234 232 231 230 228 227 226 224 223 222 220 219 218 216 215 214 212 211 210 208 207 206 204 203 202 200 199 197 196 195 193 192 191 189 -1 -1 -1 -1 -1 -1 -1 -1 -1 -1 -1 -1 -1 -1 -1 -1 -1 -1 -1 -1 -1 -1 -1 -1 -1 -1 -1 -1 -1 -1 -1 -1 -1 -1 -1 -1 -1 -1 -1 -1 -1 -1 -1 -1 -1 -1 -1 -1 -1 -1 -1 -1 -1 -1 -1 -1 -1 -1 -1 -1 -1 -1 -1 -1 -1 -1 -1 -1 -1 -1 -1 -1 -1 -1 -1 -1 -1 -1 -1 -1 -1 -1 -1 -1 -1 -1 -1 -1 -1 -1 -1 -1 -1 -1 -1 -1 -1 -1 -1 -1 -1 -1 -1 -1 -1 -1 -1 -1 -1 -1 -1 -1 -1 -1 -1 -1 -1 -1 -1 -1 -1 -1 -1 -1 -1 -1 -1 -1 -1 -1 -1 -1 -1 -1 -1 -1 -1 -1 -1 -1 -1 -1 -1 -1 -1 -1 -1 -1 -1 -1 -1 -1 -1 -1 -1 -1 -1 -1 -1 -1 
177 141 104 154 153 101 102 106 113 120 126 133 140 146 150 154 158 162 165 169 158 146 134 123 111 100 108 117 126 135 135 128 120 113 106 98 91 85 83 80 78 76 74 72 69 67 65 63 61 59 56 54 52 50 48 45 43 41 39 37 35 34 35 35 35 35 36 36 36 36 68 103 127 135 143 151 159 168 176 184 192 200 208 216 224 190 26 250 248 245 243 240 238 235 233 230 228 225 223 220 218 215 213 211 208 206 203 201 198 196 193 190 188 185 183 180 178 175 172 170 167 165 162 159 157 140 112 85 80 108 136 137 133 130 126 122 118 115 111 107 103 100 96 92 94 96 98 100 102 104 105 107 109 111 113 115 117 119 121 122 124 126 128 130 132 134 136 138 139 141 143 145 147 149 151 153 155 156 158 160 162 164 166 157 62 65 67 70 72 75 78 80 83 85 88 91 93 96 98 101 104 106 109 111 114 117 119 122 124 127 135 149 163 177 191 205 220 234 246 240 233 227 220 214 207 201 194 188 179 170 161 152 143 134 125 116 107 99 90 81 72 63 109 155 200 246 99 43 39 35 37 39 41 44 52 62 71 81 90 99 109 118 127 137 146 155 165 174 183 193 202 211 221 230 239 249 251 250 248 247 246 244 243 242 240 239 238 236 235 234 232 231 230 228 227 226 224 223 222 220 219 218 216 215 214 212 211 210 208 207 206 204 203 202 200 199 198 196 195 194 192 -1 -1 -1 -1 -1 -1 -1 -1 -1 -1 -1 -1 -1 -1 -1 -1 -1 -1 -1 -1 -1 -1 -1 -1 -1 -1 -1 -1 -1 -1 -1 -1 -1 -1 -1 -1 -1 -1 -1 -1 -1 -1 -1 -1 -1 -1 -1 -1 -1 -1 -1 -1 -1 -1 -1 -1 -1 -1 -1 -1 -1 -1 -1 -1 -1 -1 -1 -1 -1 -1 -1 -1 -1 -1 -1 -1 -1 -1 -1 -1 -1 -1 -1 -1 -1 -1 -1 -1 -1 -1 -1 -1 -1 -1 -1 -1 -1 -1 -1 -1 -1 -1 -1 -1 -1 -1 -1 -1 -1 -1 -1 -1 -1 -1 -1 -1 -1 -1 -1 -1 -1 -1 -1 -1 -1 -1 -1 -1 -1 -1 -1 -1 -1 -1 -1 -1 -1 -1 -1 -1 -1 -1 -1 -1 -1 -1 -1 -1 -1 -1 -1 -1 -1 -1 -1 -1 -1 -1 -1 -1 
214 177 141 104 140 177 131 101 104 111 118 125 131 135 138 142 146 150 154 158 146 134 123 111 100 108 117 126 135 144 140 132 125 118 110 103 96 89 82 80 78 76 74 71 69 67 65 63 61 58 56 54 52 50 47 45 43 41 39 37 34 34 34 35 35 35 35 36 36 36 46 81 116 124 132 140 148 156 164 172 181 189 197 205 184 135 139 249 247 244 242 239 237 234 232 229 227 224 222 219 217 215 212 210 207 205 202 200 197 195 192 190 187 184 182 179 177 174 172 169 166 164 161 159 156 154 134 106 79 88 116 137 133 130 126 122 118 115 111 107 103 100 96 92 94 96 98 100 102 104 105 107 109 111 113 115 117 119 121 122 124 126 128 130 132 134 136 138 139 141 143 145 147 149 151 153 155 156 158 160 162 164 63 66 69 71 74 76 79 82 84 87 89 92 95 97 100 102 105 108 110 113 115 118 121 123 126 128 131 134 147 161 176 190 204 218 232 246 241 234 228 221 215 208 202 195 189 183 174 165 156 148 139 130 121 112 103 94 85 76 67 76 121 166 212 210 72 51 47 43 40 42 44 46 49 51 53 62 71 80 90 99 108 118 127 136 146 155 164 174 183 192 202 211 220 230 239 248 251 250 248 247 246 244 243 242 240 239 238 236 235 234 232 231 230 228 227 226 224 223 222 220 219 218 216 215 214 212 211 210 208 207 206 204 203 202 200 199 198 196 195 -1 -1 -1 -1 -1 -1 -1 -1 -1 -1 -1 -1 -1 -1 -1 -1 -1 -1 -1 -1 -1 -1 -1 -1 -1 -1 -1 -1 -1 -1 -1 -1 -1 -1 -1 -1 -1 -1 -1 -1 -1 -1 -1 -1 -1 -1 -1 -1 -1 -1 -1 -1 -1 -1 -1 -1 -1 -1 -1 -1 -1 -1 -1 -1 -1 -1 -1 -1 -1 -1 -1 -1 -1 -1 -1 -1 -1 -1 -1 -1 -1 -1 -1 -1 -1 -1 -1 -1 -1 -1 -1 -1 -1 -1 -1 -1 -1 -1 -1 -1 -1 -1 -1 -1 -1 -1 -1 -1 -1 -1 -1 -1 -1 -1 -1 -1 -1 -1 -1 -1 -1 -1 -1 -1 -1 -1 -1 -1 -1 -1 -1 -1 -1 -1 -1 -1 -1 -1 -1 -1 -1 -1 -1 -1 -1 -1 -1 -1 -1 -1 -1 -1 -1 -1 -1 -1 -1 -1 -1 -1 
250 251 251 252 252 252 207 161 116 102 109 115 119 123 127 131 135 138 142 146 135 123 111 100 109 117 126 135 144 152 144 137 130 122 115 108 101 93 86 80 78 76 73 71 69 67 65 63 60 58 56 54 52 49 47 45 43 41 39 36 34 34 34 34 34 35 35 35 35 36 36 59 94 112 120 129 137 145 153 161 169 177 185 179 130 81 251 248 246 243 241 238 236 233 231 228 226 223 221 219 216 214 211 209 206 204 201 199 196 194 191 189 186 184 181 179 176 173 171 168 166 163 161 158 155 153 150 127 100 72 97 125 133 130 126 122 118 115 111 107 103 100 96 92 94 96 98 100 102 104 105 107 109 111 113 115 117 119 121 122 124 126 128 130 132 134 136 138 139 141 143 145 147 149 151 153 155 156 158 160 67 67 70 72 75 78 80 83 85 88 91 93 96 98 101 104 106 109 111 114 117 119 122 124 127 130 132 135 137 146 160 174 188 202 216 231 245 242 235 229 222 216 209 203 197 190 184 177 170 161 152 143 134 125 116 108 99 90 81 72 63 89 133 178 224 174 81 60 56 52 48 45 47 49 51 53 56 58 60 62 71 80 89 99 108 117 127 136 145 155 164 173 183 192 201 211 220 229 239 248 251 250 249 247 246 245 243 242 240 239 238 236 235 234 232 231 230 228 227 226 224 223 222 220 219 218 216 215 214 212 211 210 208 207 206 204 203 202 200 199 198 -1 -1 -1 -1 -1 -1 -1 -1 -1 -1 -1 -1 -1 -1 -1 -1 -1 -1 -1 -1 -1 -1 -1 -1 -1 -1 -1 -1 -1 -1 -1 -1 -1 -1 -1 -1 -1 -1 -1 -1 -1 -1 -1 -1 -1 -1 -1 -1 -1 -1 -1 -1 -1 -1 -1 -1 -1 -1 -1 -1 -1 -1 -1 -1 -1 -1 -1 -1 -1 -1 -1 -1 -1 -1 -1 -1 -1 -1 -1 -1 -1 -1 -1 -1 -1 -1 -1 -1 -1 -1 -1 -1 -1 -1 -1 -1 -1 -1 -1 -1 -1 -1 -1 -1 -1 -1 -1 -1 -1 -1 -1 -1 -1 -1 -1 -1 -1 -1 -1 -1 -1 -1 -1 -1 -1 -1 -1 -1 -1 -1 -1 -1 -1 -1 -1 -1 -1 -1 -1 -1 -1 -1 -1 -1 -1 -1 -1 -1 -1 -1 -1 -1 -1 -1 -1 -1 -1 -1 -1 -1 
235 213 191 101 101 100 100 100 100 100 100 104 108 112 115 119 123 127 131 135 123 111 100 109 118 126 135 144 153 156 149 142 134 127 120 113 105 98 91 83 78 75 73 71 69 67 65 62 60 58 56 54 51 49 47 45 43 41 38 36 34 33 34 34 34 34 35 35 35 35 36 37 72 101 109 117 125 133 142 150 158 166 174 125 75 26 250 248 245 243 240 238 235 233 230 228 225 223 220 218 215 213 210 208 205 203 200 198 195 193 190 188 185 183 180 178 175 173 170 168 165 162 160 157 155 152 149 147 121 94 77 106 133 130 126 122 118 115 111 107 103 100 96 92 94 96 98 100 102 104 105 107 109 111 113 115 117 119 121 122 124 126 128 130 132 134 136 138 139 141 143 145 147 149 151 153 155 156 74 69 71 74 76 79 82 84 87 89 92 95 97 100 102 105 108 110 113 115 118 121 123 126 128 131 134 136 139 141 144 158 172 186 201 215 229 243 243 236 230 223 217 210 204 198 191 185 178 172 165 157 148 139 130 121 112 103 94 85 76 68 66 101 145 190 236 138 90 69 65 61 57 53 49 52 54 56 58 61 63 65 67 70 72 80 89 98 108 117 126 136 145 154 164 173 182 192 201 211 220 229 239 248 251 250 249 247 246 245 243 242 241 239 238 237 235 234 232 231 230 228 227 226 224 223 222 220 219 218 216 215 214 212 211 210 208 207 206 204 203 202 200 -1 -1 -1 -1 -1 -1 -1 -1 -1 -1 -1 -1 -1 -1 -1 -1 -1 -1 -1 -1 -1 -1 -1 -1 -1 -1 -1 -1 -1 -1 -1 -1 -1 -1 -1 -1 -1 -1 -1 -1 -1 -1 -1 -1 -1 -1 -1 -1 -1 -1 -1 -1 -1 -1 -1 -1 -1 -1 -1 -1 -1 -1 -1 -1 -1 -1 -1 -1 -1 -1 -1 -1 -1 -1 -1 -1 -1 -1 -1 -1 -1 -1 -1 -1 -1 -1 -1 -1 -1 -1 -1 -1 -1 -1 -1 -1 -1 -1 -1 -1 -1 -1 -1 -1 -1 -1 -1 -1 -1 -1 -1 -1 -1 -1 -1 -1 -1 -1 -1 -1 -1 -1 -1 -1 -1 -1 -1 -1 -1 -1 -1 -1 -1 -1 -1 -1 -1 -1 -1 -1 -1 -1 -1 -1 -1 -1 -1 -1 -1 -1 -1 -1 -1 -1 -1 -1 -1 -1 -1 -1 
220 198 175 221 176 176 176 176 176 176 176 151 125 100 104 108 112 115 119 123 111 100 109 118 126 135 144 153 162 161 154 147 139 132 125 117 110 103 95 88 81 75 73 71 69 66 64 62 60 58 56 53 51 49 47 45 43 40 38 36 34 33 33 33 34 34 34 34 35 35 35 35 50 84 98 106 114 122 130 138 146 154 120 70 39 139 249 247 244 242 239 237 234 232 229 227 224 222 219 217 214 212 209 207 204 202 199 197 194 192 189 187 185 182 180 177 174 172 169 167 164 162 159 156 154 151 149 146 143 115 87 86 114 130 126 122 118 115 111 107 103 100 96 92 94 96 98 100 102 104 105 107 109 111 113 115 117 119 121 122 124 126 128 130 132 134 136 138 139 141 143 145 147 149 151 153 81 70 72 75 78 80 83 85 88 91 93 96 98 101 104 106 109 111 114 117 119 122 124 127 130 132 135 137 140 143 145 148 157 171 185 199 213 227 242 244 237 231 224 218 212 205 199 192 186 179 173 166 160 152 143 134 125 117 108 99 90 81 72 63 79 114 157 202 248 119 98 78 74 70 66 62 57 54 57 59 61 63 65 68 70 72 74 77 79 81 89 98 107 117 126 135 145 154 164 173 182 192 201 210 220 229 238 248 251 250 249 247 246 245 243 242 241 239 238 237 235 234 233 231 230 229 227 226 224 223 222 220 219 218 216 215 214 212 211 210 208 207 206 204 203 -1 -1 -1 -1 -1 -1 -1 -1 -1 -1 -1 -1 -1 -1 -1 -1 -1 -1 -1 -1 -1 -1 -1 -1 -1 -1 -1 -1 -1 -1 -1 -1 -1 -1 -1 -1 -1 -1 -1 -1 -1 -1 -1 -1 -1 -1 -1 -1 -1 -1 -1 -1 -1 -1 -1 -1 -1 -1 -1 -1 -1 -1 -1 -1 -1 -1 -1 -1 -1 -1 -1 -1 -1 -1 -1 -1 -1 -1 -1 -1 -1 -1 -1 -1 -1 -1 -1 -1 -1 -1 -1 -1 -1 -1 -1 -1 -1 -1 -1 -1 -1 -1 -1 -1 -1 -1 -1 -1 -1 -1 -1 -1 -1 -1 -1 -1 -1 -1 -1 -1 -1 -1 -1 -1 -1 -1 -1 -1 -1 -1 -1 -1 -1 -1 -1 -1 -1 -1 -1 -1 -1 -1 -1 -1 -1 -1 -1 -1 -1 -1 -1 -1 -1 -1 -1 -1 -1 -1 -1 -1 
205 183 160 138 252 252 252 252 252 252 252 227 201 176 151 125 100 104 108 112 100 109 118 127 135 144 153 162 171 166 159 151 144 137 129 122 115 108 100 93 86 78 73 71 68 66 64 62 60 58 55 53 51 49 47 44 42 40 38 36 34 33 33 33 33 34 34 34 34 35 35 35 35 62 86 94 102 111 119 127 135 114 65 53 152 251 248 246 243 241 238 236 233 231 228 226 223 221 218 216 213 211 208 206 203 201 198 196 193 191 189 186 184 181 179 176 174 171 169 166 163 161 158 156 153 151 148 145 143 136 109 81 95 123 126 122 118 115 111 107 103 100 96 92 94 96 98 100 102 104 105 107 109 111 113 115 117 119 121 122 124 126 128 130 132 134 136 138 139 141 143 145 147 149 88 71 74 76 79 82 84 87 89 92 95 97 100 102 105 108 110 113 115 118 121 123 126 128 131 134 136 139 141 144 147 149 152 155 169 183 197 212 226 240 245 238 232 225 219 213 206 200 193 187 180 174 168 161 155 148 139 130 121 112 103 94 85 77 68 59 92 127 168 214 212 128 107 86 82 78 74 70 66 62 59 61 64 66 68 70 73 75 77 79 82 84 86 88 91 98 107 117 126 135 145 154 163 173 182 191 201 210 219 229 238 247 251 250 249 247 246 245 243 242 241 239 238 237 235 234 233 231 230 229 227 226 225 223 222 221 219 218 216 215 214 212 211 210 208 207 206 -1 -1 -1 -1 -1 -1 -1 -1 -1 -1 -1 -1 -1 -1 -1 -1 -1 -1 -1 -1 -1 -1 -1 -1 -1 -1 -1 -1 -1 -1 -1 -1 -1 -1 -1 -1 -1 -1 -1 -1 -1 -1 -1 -1 -1 -1 -1 -1 -1 -1 -1 -1 -1 -1 -1 -1 -1 -1 -1 -1 -1 -1 -1 -1 -1 -1 -1 -1 -1 -1 -1 -1 -1 -1 -1 -1 -1 -1 -1 -1 -1 -1 -1 -1 -1 -1 -1 -1 -1 -1 -1 -1 -1 -1 -1 -1 -1 -1 -1 -1 -1 -1 -1 -1 -1 -1 -1 -1 -1 -1 -1 -1 -1 -1 -1 -1 -1 -1 -1 -1 -1 -1 -1 -1 -1 -1 -1 -1 -1 -1 -1 -1 -1 -1 -1 -1 -1 -1 -1 -1 -1 -1 -1 -1 -1 -1 -1 -1 -1 -1 -1 -1 -1 -1 -1 -1 -1 -1 -1 -1 
190 168 145 123 100 135 170 205 240 243 230 216 201 187 172 158 143 129 114 100 109 118 127 136 144 153 162 171 178 171 163 156 149 141 134 127 120 112 105 98 90 83 76 70 68 66 64 62 60 57 55 53 51 49 46 44 42 40 38 36 33 32 32 33 33 33 33 34 34 34 34 35 35 40 75 83 91 99 107 115 109 60 66 165 233 250 248 245 243 240 238 235 233 230 228 225 223 220 218 215 213 210 207 205 202 200 197 195 193 190 188 185 183 180 178 175 173 170 168 165 163 160 157 155 152 150 147 145 142 139 130 103 75 103 126 122 118 115 111 107 103 100 96 92 94 96 98 100 102 103 105 107 109 111 113 115 117 119 120 122 124 126 128 130 132 134 136 137 139 141 143 145 94 72 75 78 80 83 85 88 91 93 96 98 101 104 106 109 111 114 117 119 122 124 127 130 132 135 138 140 143 145 148 151 153 156 158 168 182 196 210 224 238 246 239 233 227 220 214 207 201 194 188 181 175 169 162 156 149 143 134 126 117 108 99 90 81 72 63 69 104 140 180 226 176 137 116 95 91 87 83 79 75 71 67 64 66 69 71 73 75 77 80 82 84 86 89 91 93 95 98 100 107 116 126 135 144 154 163 172 182 191 200 210 219 228 238 247 251 250 249 247 246 245 243 242 241 239 238 237 235 234 233 231 230 229 227 226 225 223 222 221 219 218 217 215 214 213 211 210 208 -1 -1 -1 -1 -1 -1 -1 -1 -1 -1 -1 -1 -1 -1 -1 -1 -1 -1 -1 -1 -1 -1 -1 -1 -1 -1 -1 -1 -1 -1 -1 -1 -1 -1 -1 -1 -1 -1 -1 -1 -1 -1 -1 -1 -1 -1 -1 -1 -1 -1 -1 -1 -1 -1 -1 -1 -1 -1 -1 -1 -1 -1 -1 -1 -1 -1 -1 -1 -1 -1 -1 -1 -1 -1 -1 -1 -1 -1 -1 -1 -1 -1 -1 -1 -1 -1 -1 -1 -1 -1 -1 -1 -1 -1 -1 -1 -1 -1 -1 -1 -1 -1 -1 -1 -1 -1 -1 -1 -1 -1 -1 -1 -1 -1 -1 -1 -1 -1 -1 -1 -1 -1 -1 -1 -1 -1 -1 -1 -1 -1 -1 -1 -1 -1 -1 -1 -1 -1 -1 -1 -1 -1 -1 -1 -1 -1 -1 -1 -1 -1 -1 -1 -1 -1 -1 -1 -1 -1 -1 -1 
175 153 130 108 100 194 229 248 235 222 209 194 180 165 151 136 122 107 105 114 118 127 136 145 153 162 171 180 183 175 168 161 153 146 139 132 124 117 110 102 95 88 81 73 68 66 64 62 59 57 55 53 51 48 46 44 42 40 38 35 33 32 32 32 33 33 33 33 34 34 34 34 35 35 53 72 80 88 96 104 55 80 179 215 251 249 247 244 242 239 237 234 232 229 227 224 222 219 217 214 212 209 207 204 202 199 197 194 192 189 187 184 182 179 177 174 172 169 167 164 162 159 157 154 152 149 146 144 141 139 136 124 96 84 112 122 118 115 111 107 103 100 96 92 94 96 98 100 102 103 105 107 109 111 113 115 117 119 120 122 124 126 128 130 132 134 136 137 139 141 101 74 76 79 82 84 87 89 92 95 97 100 102 105 108 110 113 115 118 121 123 126 128 131 134 136 139 141 144 147 149 152 154 157 160 162 166 180 194 208 223 237 247 240 234 228 221 215 208 202 195 189 183 176 170 163 157 150 144 137 130 121 112 103 94 86 77 68 59 82 117 153 192 238 166 146 125 104 100 96 92 88 84 80 76 72 69 71 73 76 78 80 82 85 87 89 91 94 96 98 100 103 105 107 109 116 125 135 144 153 163 172 181 191 200 209 219 228 237 247 251 250 249 247 246 245 243 242 241 239 238 237 235 234 233 231 230 229 227 226 225 223 222 221 219 218 217 215 214 213 211 -1 -1 -1 -1 -1 -1 -1 -1 -1 -1 -1 -1 -1 -1 -1 -1 -1 -1 -1 -1 -1 -1 -1 -1 -1 -1 -1 -1 -1 -1 -1 -1 -1 -1 -1 -1 -1 -1 -1 -1 -1 -1 -1 -1 -1 -1 -1 -1 -1 -1 -1 -1 -1 -1 -1 -1 -1 -1 -1 -1 -1 -1 -1 -1 -1 -1 -1 -1 -1 -1 -1 -1 -1 -1 -1 -1 -1 -1 -1 -1 -1 -1 -1 -1 -1 -1 -1 -1 -1 -1 -1 -1 -1 -1 -1 -1 -1 -1 -1 -1 -1 -1 -1 -1 -1 -1 -1 -1 -1 -1 -1 -1 -1 -1 -1 -1 -1 -1 -1 -1 -1 -1 -1 -1 -1 -1 -1 -1 -1 -1 -1 -1 -1 -1 -1 -1 -1 -1 -1 -1 -1 -1 -1 -1 -1 -1 -1 -1 -1 -1 -1 -1 -1 -1 -1 -1 -1 -1 -1 -1 
160 138 115 100 100 252 239 226 213 200 187 173 158 144 129 115 100 110 120 127 128 136 145 153 162 171 180 189 187 180 173 166 158 151 144 136 129 122 114 107 100 93 85 78 71 66 63 61 59 57 55 53 50 48 46 44 42 40 37 35 33 31 32 32 32 32 33 33 33 33 34 34 34 34 35 60 68 76 84 50 93 161 197 233 251 249 246 244 241 239 236 234 231 228 226 223 221 218 216 213 211 208 206 203 201 198 196 193 191 188 186 183 181 178 176 173 171 168 166 163 161 159 156 153 151 148 146 143 141 138 135 133 118 90 92 121 118 115 111 107 103 100 96 92 94 96 98 100 102 103 105 107 109 111 113 115 117 119 120 122 124 126 128 130 132 134 136 137 108 75 78 80 83 85 88 91 93 96 98 101 104 106 109 111 114 117 119 122 124 127 130 132 135 138 140 143 145 148 151 153 156 158 161 164 166 169 178 193 207 221 235 248 242 235 229 222 216 209 203 196 190 184 177 171 164 158 151 145 138 132 126 117 108 99 90 81 72 63 59 95 130 165 204 250 175 154 134 113 109 105 101 97 93 89 85 80 76 74 76 78 81 83 85 87 89 92 94 96 98 101 103 105 107 110 112 114 116 119 125 134 144 153 162 172 181 190 200 209 218 228 237 247 251 250 249 247 246 245 243 242 241 239 238 237 235 234 233 231 230 229 227 226 225 223 222 221 219 218 217 215 214 -1 -1 -1 -1 -1 -1 -1 -1 -1 -1 -1 -1 -1 -1 -1 -1 -1 -1 -1 -1 -1 -1 -1 -1 -1 -1 -1 -1 -1 -1 -1 -1 -1 -1 -1 -1 -1 -1 -1 -1 -1 -1 -1 -1 -1 -1 -1 -1 -1 -1 -1 -1 -1 -1 -1 -1 -1 -1 -1 -1 -1 -1 -1 -1 -1 -1 -1 -1 -1 -1 -1 -1 -1 -1 -1 -1 -1 -1 -1 -1 -1 -1 -1 -1 -1 -1 -1 -1 -1 -1 -1 -1 -1 -1 -1 -1 -1 -1 -1 -1 -1 -1 -1 -1 -1 -1 -1 -1 -1 -1 -1 -1 -1 -1 -1 -1 -1 -1 -1 -1 -1 -1 -1 -1 -1 -1 -1 -1 -1 -1 -1 -1 -1 -1 -1 -1 -1 -1 -1 -1 -1 -1 -1 -1 -1 -1 -1 -1 -1 -1 -1 -1 -1 -1 -1 -1 -1 -1 -1 -1 
145 123 100 100 100 100 191 205 192 179 166 151 137 122 108 105 115 125 134 141 141 145 154 162 171 180 189 198 192 185 178 170 163 156 148 141 134 127 119 112 105 97 90 83 75 68 63 61 59 57 55 52 50 48 46 44 42 39 37 35 33 31 31 32 32 32 32 33 33 33 33 34 34 34 34 43 57 65 44 106 143 179 215 251 250 248 245 243 240 238 235 233 230 228 225 223 220 218 215 213 210 207 205 202 200 197 195 192 190 187 185 182 180 177 175 172 170 167 165 163 160 158 155 153 150 147 145 142 140 137 135 132 129 111 84 101 118 115 111 107 103 100 96 92 94 96 98 100 102 103 105 107 109 111 113 115 117 119 120 122 124 126 128 130 132 134 115 76 79 82 84 87 89 92 95 97 100 102 105 108 110 113 115 118 121 123 126 128 131 134 136 139 141 144 147 149 152 154 157 160 162 165 167 170 173 177 191 205 219 234 248 243 236 230 223 217 210 204 198 191 185 178 172 165 159 152 146 140 133 127 120 112 103 95 86 77 68 59 72 108 143 178 216 214 184 163 142 121 117 113 109 105 101 97 93 89 85 81 79 81 83 85 88 90 92 94 97 99 101 103 106 108 110 112 115 117 119 121 124 126 128 134 143 153 162 171 181 190 200 209 218 228 237 246 251 250 249 247 246 245 243 242 241 239 238 237 235 234 233 231 230 229 227 226 225 223 222 221 219 218 217 -1 -1 -1 -1 -1 -1 -1 -1 -1 -1 -1 -1 -1 -1 -1 -1 -1 -1 -1 -1 -1 -1 -1 -1 -1 -1 -1 -1 -1 -1 -1 -1 -1 -1 -1 -1 -1 -1 -1 -1 -1 -1 -1 -1 -1 -1 -1 -1 -1 -1 -1 -1 -1 -1 -1 -1 -1 -1 -1 -1 -1 -1 -1 -1 -1 -1 -1 -1 -1 -1 -1 -1 -1 -1 -1 -1 -1 -1 -1 -1 -1 -1 -1 -1 -1 -1 -1 -1 -1 -1 -1 -1 -1 -1 -1 -1 -1 -1 -1 -1 -1 -1 -1 -1 -1 -1 -1 -1 -1 -1 -1 -1 -1 -1 -1 -1 -1 -1 -1 -1 -1 -1 -1 -1 -1 -1 -1 -1 -1 -1 -1 -1 -1 -1 -1 -1 -1 -1 -1 -1 -1 -1 -1 -1 -1 -1 -1 -1 -1 -1 -1 -1 -1 -1 -1 -1 -1 -1 -1 -1 
130 108 100 100 130 176 131 131 170 157 144 130 115 101 110 120 130 139 149 155 155 155 163 171 180 189 198 204 197 190 182 175 168 160 153 146 139 131 124 117 109 102 95 88 80 73 66 61 59 57 54 52 50 48 46 43 41 39 37 35 33 31 31 31 31 32 32 32 32 33 33 33 33 34 34 34 45 39 88 124 161 197 233 136 250 247 245 242 240 237 235 232 229 227 224 222 219 217 214 212 209 207 204 202 199 197 194 192 189 187 184 182 179 177 174 172 169 167 164 162 159 157 154 152 149 147 144 142 139 136 134 131 129 126 105 81 110 115 111 107 103 100 96 92 94 96 98 100 102 103 105 107 109 111 113 115 117 119 120 122 124 126 128 130 121 78 80 83 85 88 91 93 96 98 101 104 106 109 111 114 117 119 122 125 127 130 132 135 138 140 143 145 148 151 153 156 158 161 164 166 169 171 174 177 179 189 204 218 232 246 244 237 231 224 218 211 205 199 192 186 179 173 166 160 153 147 141 134 128 121 115 108 99 90 81 72 63 55 85 120 156 191 228 214 193 172 151 130 126 122 118 114 110 106 102 98 94 90 86 84 86 88 90 93 95 97 99 101 104 106 108 110 113 115 117 119 122 124 126 128 131 133 135 137 143 153 162 171 181 190 199 209 218 227 237 246 252 250 249 248 246 245 243 242 241 239 238 237 235 234 233 231 230 229 227 226 225 223 222 221 219 -1 -1 -1 -1 -1 -1 -1 -1 -1 -1 -1 -1 -1 -1 -1 -1 -1 -1 -1 -1 -1 -1 -1 -1 -1 -1 -1 -1 -1 -1 -1 -1 -1 -1 -1 -1 -1 -1 -1 -1 -1 -1 -1 -1 -1 -1 -1 -1 -1 -1 -1 -1 -1 -1 -1 -1 -1 -1 -1 -1 -1 -1 -1 -1 -1 -1 -1 -1 -1 -1 -1 -1 -1 -1 -1 -1 -1 -1 -1 -1 -1 -1 -1 -1 -1 -1 -1 -1 -1 -1 -1 -1 -1 -1 -1 -1 -1 -1 -1 -1 -1 -1 -1 -1 -1 -1 -1 -1 -1 -1 -1 -1 -1 -1 -1 -1 -1 -1 -1 -1 -1 -1 -1 -1 -1 -1 -1 -1 -1 -1 -1 -1 -1 -1 -1 -1 -1 -1 -1 -1 -1 -1 -1 -1 -1 -1 -1 -1 -1 -1 -1 -1 -1 -1 -1 -1 -1 -1 -1 -1 
115 100 115 161 206 252 207 161 116 136 123 108 106 115 125 135 144 154 163 169 169 169 172 180 189 198 207 209 202 194 187 180 172 165 158 151 143 136 129 121 114 107 100 92 85 78 70 63 59 56 54 52 50 48 45 43 41 39 37 35 32 30 31 31 31 31 32 32 32 32 33 33 33 33 34 34 34 70 106 143 179 215 251 252 249 246 244 241 239 236 234 231 229 226 224 221 219 216 214 211 208 206 203 201 198 196 193 191 188 186 183 181 178 176 173 171 168 166 163 161 158 156 153 151 148 146 143 141 138 136 133 131 128 125 123 99 90 115 111 107 103 100 96 92 94 96 98 100 102 103 105 107 109 111 113 115 117 119 120 122 124 126 128 79 82 84 87 89 92 95 97 100 102 105 108 110 113 115 118 121 123 126 128 131 134 136 139 141 144 147 149 152 154 157 160 162 165 167 170 173 175 178 180 183 188 202 216 230 244 245 238 232 225 219 212 206 200 193 187 180 174 167 161 155 148 142 135 129 122 116 109 103 95 86 77 68 59 62 98 133 168 204 240 222 202 181 160 139 135 131 127 123 119 115 111 107 103 99 95 91 88 91 93 95 97 100 102 104 106 109 111 113 115 118 120 122 124 127 129 131 133 136 138 140 142 144 147 152 162 171 180 190 199 208 218 227 236 246 252 250 249 248 246 245 244 242 241 240 238 237 235 234 233 231 230 229 227 226 225 223 222 -1 -1 -1 -1 -1 -1 -1 -1 -1 -1 -1 -1 -1 -1 -1 -1 -1 -1 -1 -1 -1 -1 -1 -1 -1 -1 -1 -1 -1 -1 -1 -1 -1 -1 -1 -1 -1 -1 -1 -1 -1 -1 -1 -1 -1 -1 -1 -1 -1 -1 -1 -1 -1 -1 -1 -1 -1 -1 -1 -1 -1 -1 -1 -1 -1 -1 -1 -1 -1 -1 -1 -1 -1 -1 -1 -1 -1 -1 -1 -1 -1 -1 -1 -1 -1 -1 -1 -1 -1 -1 -1 -1 -1 -1 -1 -1 -1 -1 -1 -1 -1 -1 -1 -1 -1 -1 -1 -1 -1 -1 -1 -1 -1 -1 -1 -1 -1 -1 -1 -1 -1 -1 -1 -1 -1 -1 -1 -1 -1 -1 -1 -1 -1 -1 -1 -1 -1 -1 -1 -1 -1 -1 -1 -1 -1 -1 -1 -1 -1 -1 -1 -1 -1 -1 -1 -1 -1 -1 -1 -1 
100 120 140 159 179 179 163 148 132 117 101 111 120 130 139 149 159 168 178 182 183 183 183 189 198 207 216 214 206 199 192 185 177 170 163 155 148 141 133 126 119 112 104 97 90 82 75 68 61 56 54 52 50 47 45 43 41 39 37 34 32 30 30 30 31 31 31 31 32 32 32 32 33 33 33 33 50 65 56 47 38 29 20 251 248 246 243 241 238 236 233 230 228 225 223 220 218 215 213 210 208 205 203 200 198 195 193 190 187 185 182 180 177 175 172 170 167 165 162 160 157 155 152 150 147 145 142 140 137 135 132 130 127 125 122 119 93 99 111 107 103 100 96 92 94 96 98 100 102 103 105 107 109 111 113 115 117 119 120 122 124 80 83 85 88 91 93 96 98 101 104 106 109 111 114 117 119 122 125 127 130 132 135 138 140 143 145 148 151 153 156 158 161 164 166 169 171 174 177 179 182 184 187 190 200 215 229 243 246 239 233 226 220 214 207 201 194 188 181 175 168 162 156 149 143 136 130 123 117 111 104 98 90 81 72 64 55 75 111 146 181 217 252 231 210 189 169 148 144 140 136 132 128 124 120 116 112 108 103 99 95 93 96 98 100 102 105 107 109 111 113 116 118 120 122 125 127 129 131 134 136 138 140 143 145 147 149 152 154 156 161 171 180 189 199 208 217 227 236 245 252 250 249 248 246 245 244 242 241 240 238 237 236 234 233 232 230 229 227 226 225 -1 -1 -1 -1 -1 -1 -1 -1 -1 -1 -1 -1 -1 -1 -1 -1 -1 -1 -1 -1 -1 -1 -1 -1 -1 -1 -1 -1 -1 -1 -1 -1 -1 -1 -1 -1 -1 -1 -1 -1 -1 -1 -1 -1 -1 -1 -1 -1 -1 -1 -1 -1 -1 -1 -1 -1 -1 -1 -1 -1 -1 -1 -1 -1 -1 -1 -1 -1 -1 -1 -1 -1 -1 -1 -1 -1 -1 -1 -1 -1 -1 -1 -1 -1 -1 -1 -1 -1 -1 -1 -1 -1 -1 -1 -1 -1 -1 -1 -1 -1 -1 -1 -1 -1 -1 -1 -1 -1 -1 -1 -1 -1 -1 -1 -1 -1 -1 -1 -1 -1 -1 -1 -1 -1 -1 -1 -1 -1 -1 -1 -1 -1 -1 -1 -1 -1 -1 -1 -1 -1 -1 -1 -1 -1 -1 -1 -1 -1 -1 -1 -1 -1 -1 -1 -1 -1 -1 -1 -1 -1 
176 152 129 106 106 106 134 162 158 122 111 114 135 144 154 164 173 183 193 196 196 196 197 198 207 216 225 218 211 204 197 189 182 175 167 160 153 146 138 131 124 116 109 102 94 87 80 73 65 58 54 52 49 47 45 43 41 39 36 34 32 30 30 30 30 31 31 31 31 32 32 32 32 33 33 48 65 106 97 88 79 70 136 250 247 245 242 240 237 235 232 230 227 225 222 220 217 215 212 209 207 204 202 199 197 194 192 189 187 184 182 179 177 174 172 169 166 164 161 159 156 154 151 149 146 144 142 139 137 134 132 129 126 124 121 119 114 87 107 107 103 100 96 92 94 96 98 100 102 103 105 107 109 111 113 115 117 119 120 82 84 87 89 92 95 97 100 102 105 108 110 113 115 118 121 123 126 128 131 134 136 139 141 144 147 149 152 154 157 160 162 165 167 170 173 175 178 180 183 186 188 191 193 199 213 227 241 247 240 234 227 221 215 208 202 195 189 182 176 170 163 157 150 144 137 131 124 118 112 105 99 92 86 77 68 59 53 88 123 159 194 234 24 240 219 198 177 157 153 148 144 140 136 132 128 124 120 116 112 108 104 100 98 100 103 105 107 109 112 114 116 118 121 123 125 127 130 132 134 136 139 141 143 145 148 150 152 154 156 159 161 163 165 170 180 189 198 208 217 226 236 245 252 250 249 248 246 245 244 242 241 240 238 237 236 234 233 232 230 229 228 -1 -1 -1 -1 -1 -1 -1 -1 -1 -1 -1 -1 -1 -1 -1 -1 -1 -1 -1 -1 -1 -1 -1 -1 -1 -1 -1 -1 -1 -1 -1 -1 -1 -1 -1 -1 -1 -1 -1 -1 -1 -1 -1 -1 -1 -1 -1 -1 -1 -1 -1 -1 -1 -1 -1 -1 -1 -1 -1 -1 -1 -1 -1 -1 -1 -1 -1 -1 -1 -1 -1 -1 -1 -1 -1 -1 -1 -1 -1 -1 -1 -1 -1 -1 -1 -1 -1 -1 -1 -1 -1 -1 -1 -1 -1 -1 -1 -1 -1 -1 -1 -1 -1 -1 -1 -1 -1 -1 -1 -1 -1 -1 -1 -1 -1 -1 -1 -1 -1 -1 -1 -1 -1 -1 -1 -1 -1 -1 -1 -1 -1 -1 -1 -1 -1 -1 -1 -1 -1 -1 -1 -1 -1 -1 -1 -1 -1 -1 -1 -1 -1 -1 -1 -1 -1 -1 -1 -1 -1 -1 
251 251 252 252 252 252 215 179 142 106 121 98 126 155 169 178 188 198 207 210 210 210 210 210 216 225 230 223 216 209 201 194 187 179 172 165 158 150 143 136 128 121 114 107 99 92 85 77 70 63 55 51 49 47 45 43 40 38 36 34 32 30 29 30 30 30 30 31 31 31 31 32 32 32 46 64 81 119 137 128 119 112 252 249 247 244 242 239 237 234 231 229 226 224 221 219 216 214 211 209 206 204 201 199 196 194 191 188 186 183 181 178 176 173 171 168 166 163 161 158 156 153 151 148 146 143 141 138 136 133 131 128 126 123 121 118 115 108 88 107 103 100 96 92 94 96 98 100 102 103 105 107 109 111 113 115 117 83 85 88 91 93 96 98 101 104 106 109 111 114 117 119 122 125 127 130 132 135 138 140 143 145 148 151 153 156 158 161 164 166 169 171 174 177 179 182 184 187 190 192 195 197 200 211 226 240 248 241 235 229 222 216 209 203 196 190 183 177 171 164 158 151 145 138 132 126 119 113 106 100 93 87 80 73 64 55 65 101 136 172 217 137 138 249 228 207 186 165 161 157 153 149 145 141 137 133 129 125 121 117 113 109 105 103 105 108 110 112 114 117 119 121 123 125 128 130 132 134 137 139 141 143 146 148 150 152 155 157 159 161 164 166 168 170 173 175 179 189 198 207 217 226 236 245 252 250 249 248 246 245 244 242 241 240 238 237 236 234 233 232 230 -1 -1 -1 -1 -1 -1 -1 -1 -1 -1 -1 -1 -1 -1 -1 -1 -1 -1 -1 -1 -1 -1 -1 -1 -1 -1 -1 -1 -1 -1 -1 -1 -1 -1 -1 -1 -1 -1 -1 -1 -1 -1 -1 -1 -1 -1 -1 -1 -1 -1 -1 -1 -1 -1 -1 -1 -1 -1 -1 -1 -1 -1 -1 -1 -1 -1 -1 -1 -1 -1 -1 -1 -1 -1 -1 -1 -1 -1 -1 -1 -1 -1 -1 -1 -1 -1 -1 -1 -1 -1 -1 -1 -1 -1 -1 -1 -1 -1 -1 -1 -1 -1 -1 -1 -1 -1 -1 -1 -1 -1 -1 -1 -1 -1 -1 -1 -1 -1 -1 -1 -1 -1 -1 -1 -1 -1 -1 -1 -1 -1 -1 -1 -1 -1 -1 -1 -1 -1 -1 -1 -1 -1 -1 -1 -1 -1 -1 -1 -1 -1 -1 -1 -1 -1 -1 -1 -1 -1 -1 -1 
230 187 144 101 177 252 199 163 126 109 130 120 110 139 168 193 203 212 222 224 224 224 224 224 225 234 235 228 221 213 206 199 191 184 177 170 162 155 148 140 133 126 119 111 104 97 89 82 75 68 60 53 49 47 45 42 40 38 36 34 32 29 29 29 30 30 30 30 31 31 31 31 32 44 62 79 97 133 178 169 160 159 251 248 246 243 241 238 236 233 231 228 226 223 221 218 216 213 210 208 205 203 200 198 195 193 190 188 185 183 180 178 175 173 170 167 165 162 160 157 155 152 150 147 145 142 140 137 135 132 130 127 125 122 120 117 115 112 102 97 103 100 96 92 94 96 98 100 102 103 105 107 109 111 113 84 87 89 92 95 97 100 102 105 108 110 113 115 118 121 123 126 128 131 134 136 139 141 144 147 149 152 154 157 160 162 165 167 170 173 175 178 180 183 186 188 191 193 196 199 201 204 210 224 238 249 242 236 230 223 217 210 204 197 191 185 178 172 165 159 152 146 139 133 127 120 114 107 101 94 88 81 75 68 59 50 78 114 149 199 249 251 252 115 237 216 195 174 170 166 162 158 154 150 146 142 138 134 130 126 122 118 114 110 108 110 112 115 117 119 121 124 126 128 130 133 135 137 139 142 144 146 148 151 153 155 157 160 162 164 166 168 171 173 175 177 180 182 184 189 198 207 217 226 235 245 252 250 249 248 246 245 244 242 241 240 238 237 236 234 233 -1 -1 -1 -1 -1 -1 -1 -1 -1 -1 -1 -1 -1 -1 -1 -1 -1 -1 -1 -1 -1 -1 -1 -1 -1 -1 -1 -1 -1 -1 -1 -1 -1 -1 -1 -1 -1 -1 -1 -1 -1 -1 -1 -1 -1 -1 -1 -1 -1 -1 -1 -1 -1 -1 -1 -1 -1 -1 -1 -1 -1 -1 -1 -1 -1 -1 -1 -1 -1 -1 -1 -1 -1 -1 -1 -1 -1 -1 -1 -1 -1 -1 -1 -1 -1 -1 -1 -1 -1 -1 -1 -1 -1 -1 -1 -1 -1 -1 -1 -1 -1 -1 -1 -1 -1 -1 -1 -1 -1 -1 -1 -1 -1 -1 -1 -1 -1 -1 -1 -1 -1 -1 -1 -1 -1 -1 -1 -1 -1 -1 -1 -1 -1 -1 -1 -1 -1 -1 -1 -1 -1 -1 -1 -1 -1 -1 -1 -1 -1 -1 -1 -1 -1 -1 -1 -1 -1 -1 -1 -1 
208 166 123 118 177 252 183 147 110 119 140 143 94 123 152 181 209 227 236 237 238 238 238 238 238 243 240 233 225 218 211 204 196 189 182 174 167 160 152 145 138 131 123 116 109 101 94 87 80 72 65 58 50 47 44 42 40 38 36 34 31 29 29 29 29 29 30 30 30 30 31 31 43 60 78 95 113 146 191 209 204 205 250 248 245 243 240 238 235 233 230 227 225 222 220 217 215 212 210 207 205 202 200 197 195 192 189 187 184 182 179 177 174 172 169 167 164 162 159 157 154 151 149 146 144 141 139 136 134 131 129 126 124 121 119 116 114 111 109 96 103 100 96 92 94 96 98 100 101 103 105 107 109 85 88 91 93 96 98 101 104 106 109 112 114 117 119 122 125 127 130 132 135 138 140 143 145 148 151 153 156 158 161 164 166 169 171 174 177 179 182 184 187 190 192 195 197 200 203 205 208 210 222 236 250 244 237 231 224 218 211 205 198 192 186 179 173 166 160 153 147 140 134 128 121 115 108 102 95 89 83 76 70 63 55 56 91 131 181 223 193 17 252 161 245 225 204 183 179 175 171 167 163 159 155 151 147 143 139 135 131 126 122 118 114 113 115 117 120 122 124 126 129 131 133 135 137 140 142 144 146 149 151 153 155 158 160 162 164 167 169 171 173 176 178 180 182 185 187 189 191 194 198 207 216 226 235 244 252 250 249 248 246 245 244 242 241 240 238 237 236 -1 -1 -1 -1 -1 -1 -1 -1 -1 -1 -1 -1 -1 -1 -1 -1 -1 -1 -1 -1 -1 -1 -1 -1 -1 -1 -1 -1 -1 -1 -1 -1 -1 -1 -1 -1 -1 -1 -1 -1 -1 -1 -1 -1 -1 -1 -1 -1 -1 -1 -1 -1 -1 -1 -1 -1 -1 -1 -1 -1 -1 -1 -1 -1 -1 -1 -1 -1 -1 -1 -1 -1 -1 -1 -1 -1 -1 -1 -1 -1 -1 -1 -1 -1 -1 -1 -1 -1 -1 -1 -1 -1 -1 -1 -1 -1 -1 -1 -1 -1 -1 -1 -1 -1 -1 -1 -1 -1 -1 -1 -1 -1 -1 -1 -1 -1 -1 -1 -1 -1 -1 -1 -1 -1 -1 -1 -1 -1 -1 -1 -1 -1 -1 -1 -1 -1 -1 -1 -1 -1 -1 -1 -1 -1 -1 -1 -1 -1 -1 -1 -1 -1 -1 -1 -1 -1 -1 -1 -1 -1 
187 144 101 135 177 252 167 131 107 128 150 165 117 107 136 165 193 222 251 251 251 251 252 252 252 252 245 237 230 223 216 208 201 194 186 179 172 165 157 150 143 135 128 121 113 106 99 92 84 77 70 62 55 48 44 42 40 38 36 33 31 29 28 29 29 29 29 30 30 30 30 41 58 76 93 111 128 160 205 250 251 252 249 247 244 242 239 237 234 232 229 227 224 222 219 217 214 211 209 206 204 201 199 196 194 191 189 186 184 181 179 176 174 171 168 166 163 161 158 156 153 151 148 146 143 141 138 136 133 130 128 125 123 120 118 116 113 110 108 105 89 100 96 92 94 96 98 100 101 103 105 87 89 92 95 97 100 102 105 108 110 113 115 118 121 123 126 128 131 134 136 139 141 144 147 149 152 154 157 160 162 165 167 170 173 175 178 180 183 186 188 191 193 196 199 201 204 206 209 212 214 221 235 249 245 238 232 225 219 212 206 200 193 187 180 174 167 161 154 148 142 135 129 122 116 109 103 96 90 84 77 71 64 58 50 69 114 228 197 167 137 135 252 252 207 233 212 192 188 184 180 176 171 167 163 159 155 151 147 143 139 135 131 127 123 119 118 120 122 124 127 129 131 133 136 138 140 142 145 147 149 151 154 156 158 160 163 165 167 169 172 174 176 178 180 183 185 187 189 192 194 196 198 201 203 207 216 225 235 244 252 250 249 248 246 245 244 242 241 240 238 -1 -1 -1 -1 -1 -1 -1 -1 -1 -1 -1 -1 -1 -1 -1 -1 -1 -1 -1 -1 -1 -1 -1 -1 -1 -1 -1 -1 -1 -1 -1 -1 -1 -1 -1 -1 -1 -1 -1 -1 -1 -1 -1 -1 -1 -1 -1 -1 -1 -1 -1 -1 -1 -1 -1 -1 -1 -1 -1 -1 -1 -1 -1 -1 -1 -1 -1 -1 -1 -1 -1 -1 -1 -1 -1 -1 -1 -1 -1 -1 -1 -1 -1 -1 -1 -1 -1 -1 -1 -1 -1 -1 -1 -1 -1 -1 -1 -1 -1 -1 -1 -1 -1 -1 -1 -1 -1 -1 -1 -1 -1 -1 -1 -1 -1 -1 -1 -1 -1 -1 -1 -1 -1 -1 -1 -1 -1 -1 -1 -1 -1 -1 -1 -1 -1 -1 -1 -1 -1 -1 -1 -1 -1 -1 -1 -1 -1 -1 -1 -1 -1 -1 -1 -1 -1 -1 -1 -1 -1 -1 
166 123 118 152 185 252 151 115 117 138 160 181 139 91 120 148 177 206 207 190 172 155 138 120 103 207 244 238 233 227 220 213 206 198 191 184 177 169 162 155 147 140 133 126 118 111 104 96 89 82 74 67 60 53 45 42 40 38 35 33 31 29 28 28 28 29 29 29 29 30 39 57 74 92 109 126 144 173 218 192 21 252 252 250 248 245 242 239 236 233 230 228 225 222 219 216 213 211 208 206 203 201 198 196 193 190 188 185 183 180 178 175 173 170 168 165 163 160 158 155 153 150 147 145 142 140 137 135 132 130 127 125 122 120 117 115 112 110 107 105 102 94 96 92 94 96 98 100 101 88 91 93 96 98 101 104 106 109 112 114 117 119 122 125 127 130 132 135 138 140 143 145 148 151 153 156 158 161 164 166 169 171 174 177 179 182 184 187 190 192 195 197 200 203 205 208 210 213 216 218 221 233 247 246 239 233 226 220 213 207 201 194 188 181 175 168 162 155 149 143 136 130 123 117 110 104 98 91 85 78 72 65 59 52 46 232 202 171 141 111 80 252 252 252 184 242 221 200 196 192 188 184 180 176 172 168 164 160 156 152 148 144 140 136 132 128 124 123 125 127 129 132 134 136 138 140 143 145 147 149 152 154 156 158 161 163 165 167 170 172 174 176 179 181 183 185 188 190 192 194 197 199 201 203 206 208 210 212 216 225 234 244 252 251 249 248 246 245 244 242 241 -1 -1 -1 -1 -1 -1 -1 -1 -1 -1 -1 -1 -1 -1 -1 -1 -1 -1 -1 -1 -1 -1 -1 -1 -1 -1 -1 -1 -1 -1 -1 -1 -1 -1 -1 -1 -1 -1 -1 -1 -1 -1 -1 -1 -1 -1 -1 -1 -1 -1 -1 -1 -1 -1 -1 -1 -1 -1 -1 -1 -1 -1 -1 -1 -1 -1 -1 -1 -1 -1 -1 -1 -1 -1 -1 -1 -1 -1 -1 -1 -1 -1 -1 -1 -1 -1 -1 -1 -1 -1 -1 -1 -1 -1 -1 -1 -1 -1 -1 -1 -1 -1 -1 -1 -1 -1 -1 -1 -1 -1 -1 -1 -1 -1 -1 -1 -1 -1 -1 -1 -1 -1 -1 -1 -1 -1 -1 -1 -1 -1 -1 -1 -1 -1 -1 -1 -1 -1 -1 -1 -1 -1 -1 -1 -1 -1 -1 -1 -1 -1 -1 -1 -1 -1 -1 -1 -1 -1 -1 -1 
145 102 135 168 202 252 135 105 127 148 170 191 162 113 104 132 161 181 163 146 129 111 100 106 107 162 241 236 230 225 219 214 208 203 196 189 181 174 167 159 152 145 138 130 123 116 108 101 94 87 79 72 65 57 50 43 39 37 35 33 31 29 28 28 28 28 29 29 29 37 55 72 90 107 125 142 160 186 232 133 137 252 252 252 251 249 246 243 240 237 235 232 229 226 223 220 218 215 212 209 206 203 200 198 195 192 189 186 183 181 178 175 172 169 167 164 162 159 157 154 152 149 147 144 142 139 137 134 131 129 126 124 121 119 116 114 111 109 106 104 101 99 96 92 94 96 98 89 92 95 97 100 102 105 108 110 113 115 118 121 123 126 128 131 134 136 139 141 144 147 149 152 154 157 160 162 165 167 170 173 175 178 180 183 186 188 191 193 196 199 201 204 206 209 212 214 217 219 222 225 232 246 247 240 234 227 221 215 208 202 195 189 182 176 169 163 157 150 144 137 131 124 118 111 105 99 92 86 75 53 56 59 62 65 68 142 179 200 141 83 24 195 252 252 252 251 230 209 205 201 197 193 189 185 181 177 173 169 165 161 157 153 149 145 141 137 133 129 127 130 132 134 136 139 141 143 145 148 150 152 154 157 159 161 163 166 168 170 172 175 177 179 181 184 186 188 190 192 195 197 199 201 204 206 208 210 213 215 217 219 222 225 234 243 252 251 249 248 247 245 244 -1 -1 -1 -1 -1 -1 -1 -1 -1 -1 -1 -1 -1 -1 -1 -1 -1 -1 -1 -1 -1 -1 -1 -1 -1 -1 -1 -1 -1 -1 -1 -1 -1 -1 -1 -1 -1 -1 -1 -1 -1 -1 -1 -1 -1 -1 -1 -1 -1 -1 -1 -1 -1 -1 -1 -1 -1 -1 -1 -1 -1 -1 -1 -1 -1 -1 -1 -1 -1 -1 -1 -1 -1 -1 -1 -1 -1 -1 -1 -1 -1 -1 -1 -1 -1 -1 -1 -1 -1 -1 -1 -1 -1 -1 -1 -1 -1 -1 -1 -1 -1 -1 -1 -1 -1 -1 -1 -1 -1 -1 -1 -1 -1 -1 -1 -1 -1 -1 -1 -1 -1 -1 -1 -1 -1 -1 -1 -1 -1 -1 -1 -1 -1 -1 -1 -1 -1 -1 -1 -1 -1 -1 -1 -1 -1 -1 -1 -1 -1 -1 -1 -1 -1 -1 -1 -1 -1 -1 -1 -1 
123 119 152 185 219 252 119 115 136 158 179 201 184 136 87 116 145 137 120 102 97 103 110 117 111 117 221 233 228 222 217 211 206 200 195 189 184 178 171 164 157 150 142 135 128 120 113 106 99 91 84 77 69 62 55 48 40 37 35 33 31 28 27 27 28 28 28 28 36 53 71 88 105 123 140 158 175 200 245 110 252 252 252 252 251 251 250 247 244 242 239 236 233 230 227 224 222 219 216 213 210 207 205 202 199 196 193 190 187 185 182 179 176 173 170 168 165 162 159 156 153 150 148 145 142 139 136 133 131 128 126 123 121 118 116 113 110 108 105 103 100 98 95 92 94 91 93 96 99 101 104 106 109 112 114 117 119 122 125 127 130 132 135 138 140 143 145 148 151 153 156 158 161 164 166 169 171 174 177 179 182 184 187 190 192 195 197 200 203 205 208 210 213 216 218 221 223 226 229 231 244 248 241 235 228 222 216 209 203 196 190 183 177 170 164 158 151 145 138 132 125 119 104 72 61 63 66 69 72 75 78 81 84 87 90 105 237 127 226 168 138 138 252 252 252 207 239 218 214 210 206 202 198 194 190 186 182 178 174 170 166 162 158 154 149 145 141 137 133 132 135 137 139 141 144 146 148 150 152 155 157 159 161 164 166 168 170 173 175 177 179 182 184 186 188 191 193 195 197 200 202 204 206 209 211 213 215 218 220 222 224 227 229 231 234 243 252 251 249 248 247 -1 -1 -1 -1 -1 -1 -1 -1 -1 -1 -1 -1 -1 -1 -1 -1 -1 -1 -1 -1 -1 -1 -1 -1 -1 -1 -1 -1 -1 -1 -1 -1 -1 -1 -1 -1 -1 -1 -1 -1 -1 -1 -1 -1 -1 -1 -1 -1 -1 -1 -1 -1 -1 -1 -1 -1 -1 -1 -1 -1 -1 -1 -1 -1 -1 -1 -1 -1 -1 -1 -1 -1 -1 -1 -1 -1 -1 -1 -1 -1 -1 -1 -1 -1 -1 -1 -1 -1 -1 -1 -1 -1 -1 -1 -1 -1 -1 -1 -1 -1 -1 -1 -1 -1 -1 -1 -1 -1 -1 -1 -1 -1 -1 -1 -1 -1 -1 -1 -1 -1 -1 -1 -1 -1 -1 -1 -1 -1 -1 -1 -1 -1 -1 -1 -1 -1 -1 -1 -1 -1 -1 -1 -1 -1 -1 -1 -1 -1 -1 -1 -1 -1 -1 -1 -1 -1 -1 -1 -1 -1 
102 102 102 103 103 103 103 125 146 168 189 211 207 158 110 100 110 93 94 100 107 113 120 124 115 106 176 230 225 219 214 208 203 197 192 186 181 175 170 165 159 154 147 140 132 125 118 111 103 96 89 81 74 67 60 52 45 38 35 33 30 28 27 27 27 28 28 34 51 69 86 104 121 139 156 174 191 213 187 157 252 252 252 251 251 251 251 251 248 246 243 240 237 234 231 229 226 223 220 217 214 211 209 206 203 200 197 194 192 189 186 183 180 177 174 172 169 166 163 160 157 155 152 149 146 143 140 138 135 132 129 126 123 120 118 115 112 109 106 103 101 98 95 92 95 97 100 102 105 108 110 113 115 118 121 123 126 128 131 134 136 139 141 144 147 149 152 154 157 160 162 165 167 170 173 175 178 180 183 186 188 191 193 196 199 201 204 206 209 212 214 217 219 222 225 227 230 232 235 243 249 242 236 230 223 217 210 204 197 191 184 178 172 165 159 152 133 101 70 68 71 74 77 80 82 85 88 91 94 97 100 103 106 109 112 122 147 184 74 253 253 252 252 252 252 253 248 227 223 219 215 211 207 203 199 194 190 186 182 178 174 170 166 162 158 154 150 146 142 138 137 139 142 144 146 148 151 153 155 157 160 162 164 166 169 171 173 175 178 180 182 184 187 189 191 193 196 198 200 202 204 207 209 211 213 216 218 220 222 225 227 229 231 234 236 238 240 243 252 251 249 -1 -1 -1 -1 -1 -1 -1 -1 -1 -1 -1 -1 -1 -1 -1 -1 -1 -1 -1 -1 -1 -1 -1 -1 -1 -1 -1 -1 -1 -1 -1 -1 -1 -1 -1 -1 -1 -1 -1 -1 -1 -1 -1 -1 -1 -1 -1 -1 -1 -1 -1 -1 -1 -1 -1 -1 -1 -1 -1 -1 -1 -1 -1 -1 -1 -1 -1 -1 -1 -1 -1 -1 -1 -1 -1 -1 -1 -1 -1 -1 -1 -1 -1 -1 -1 -1 -1 -1 -1 -1 -1 -1 -1 -1 -1 -1 -1 -1 -1 -1 -1 -1 -1 -1 -1 -1 -1 -1 -1 -1 -1 -1 -1 -1 -1 -1 -1 -1 -1 -1 -1 -1 -1 -1 -1 -1 -1 -1 -1 -1 -1 -1 -1 -1 -1 -1 -1 -1 -1 -1 -1 -1 -1 -1 -1 -1 -1 -1 -1 -1 -1 -1 -1 -1 -1 -1 -1 -1 -1 -1 
102 121 121 121 121 122 115 114 146 178 199 221 229 181 132 84 91 97 104 110 117 124 130 127 118 110 131 228 222 217 211 206 200 195 189 184 178 173 167 162 156 151 145 140 134 129 123 115 108 101 93 86 79 72 64 57 50 42 35 32 30 28 26 27 27 27 32 50 67 84 102 119 137 154 172 189 207 227 199 205 252 252 252 251 251 251 251 251 251 250 247 244 241 238 235 233 230 227 224 221 218 216 213 210 207 204 201 199 196 193 190 187 184 181 179 176 173 170 167 164 162 159 156 153 150 147 144 142 139 136 133 130 127 125 122 119 116 113 110 107 105 102 99 95 93 96 99 102 105 108 111 114 117 121 124 127 130 133 136 139 142 145 148 151 153 156 158 161 164 166 169 171 174 177 179 182 184 187 190 192 195 197 200 203 205 208 210 213 216 218 221 223 226 229 231 234 236 239 242 250 243 237 231 224 218 211 205 198 192 185 162 131 99 72 75 78 81 84 87 90 93 96 98 101 104 107 110 113 116 119 122 125 128 131 134 139 164 242 132 21 159 194 201 209 252 253 230 235 231 227 223 219 215 211 207 203 199 195 191 187 183 179 175 171 167 163 159 155 151 147 143 142 144 147 149 151 153 156 158 160 162 164 167 169 171 173 176 178 180 182 185 187 189 191 194 196 198 200 203 205 207 209 212 214 216 218 221 223 225 227 230 232 234 236 239 241 243 245 248 250 252 -1 -1 -1 -1 -1 -1 -1 -1 -1 -1 -1 -1 -1 -1 -1 -1 -1 -1 -1 -1 -1 -1 -1 -1 -1 -1 -1 -1 -1 -1 -1 -1 -1 -1 -1 -1 -1 -1 -1 -1 -1 -1 -1 -1 -1 -1 -1 -1 -1 -1 -1 -1 -1 -1 -1 -1 -1 -1 -1 -1 -1 -1 -1 -1 -1 -1 -1 -1 -1 -1 -1 -1 -1 -1 -1 -1 -1 -1 -1 -1 -1 -1 -1 -1 -1 -1 -1 -1 -1 -1 -1 -1 -1 -1 -1 -1 -1 -1 -1 -1 -1 -1 -1 -1 -1 -1 -1 -1 -1 -1 -1 -1 -1 -1 -1 -1 -1 -1 -1 -1 -1 -1 -1 -1 -1 -1 -1 -1 -1 -1 -1 -1 -1 -1 -1 -1 -1 -1 -1 -1 -1 -1 -1 -1 -1 -1 -1 -1 -1 -1 -1 -1 -1 -1 -1 -1 -1 -1 -1 -1 
102 140 140 140 140 140 127 109 124 156 188 220 252 170 88 96 101 107 114 120 127 134 140 131 122 113 104 190 219 214 208 203 198 192 187 181 176 170 165 159 154 148 143 137 132 126 121 115 110 104 98 91 84 76 69 62 54 47 40 33 30 28 26 26 27 30 48 65 83 100 118 135 153 170 188 205 223 240 246 252 252 252 252 251 251 251 251 251 251 250 250 248 245 242 240 237 234 231 228 225 223 220 217 214 211 208 205 203 200 197 194 191 188 186 183 180 177 174 171 168 166 163 160 157 154 151 149 146 143 140 137 134 131 129 126 123 120 117 114 112 109 106 103 98 93 93 96 100 103 106 109 112 115 118 121 124 127 131 134 137 140 143 146 149 152 155 158 161 165 168 171 174 177 180 183 186 189 192 196 199 201 204 206 209 212 214 217 219 222 225 227 230 232 235 238 240 243 245 251 245 238 232 225 219 191 160 128 96 79 82 85 88 91 94 97 100 103 106 109 112 115 117 120 123 126 129 132 135 138 141 144 147 150 153 156 158 181 205 189 203 136 143 151 158 165 219 253 244 240 236 232 228 224 220 216 212 208 204 200 196 192 188 184 180 176 172 168 164 160 156 152 148 147 149 151 154 156 158 160 163 165 167 169 172 174 176 178 181 183 185 187 190 192 194 196 199 201 203 205 208 210 212 214 216 219 221 223 225 228 230 232 234 237 239 241 243 246 248 250 245 249 -1 -1 -1 -1 -1 -1 -1 -1 -1 -1 -1 -1 -1 -1 -1 -1 -1 -1 -1 -1 -1 -1 -1 -1 -1 -1 -1 -1 -1 -1 -1 -1 -1 -1 -1 -1 -1 -1 -1 -1 -1 -1 -1 -1 -1 -1 -1 -1 -1 -1 -1 -1 -1 -1 -1 -1 -1 -1 -1 -1 -1 -1 -1 -1 -1 -1 -1 -1 -1 -1 -1 -1 -1 -1 -1 -1 -1 -1 -1 -1 -1 -1 -1 -1 -1 -1 -1 -1 -1 -1 -1 -1 -1 -1 -1 -1 -1 -1 -1 -1 -1 -1 -1 -1 -1 -1 -1 -1 -1 -1 -1 -1 -1 -1 -1 -1 -1 -1 -1 -1 -1 -1 -1 -1 -1 -1 -1 -1 -1 -1 -1 -1 -1 -1 -1 -1 -1 -1 -1 -1 -1 -1 -1 -1 -1 -1 -1 -1 -1 -1 -1 -1 -1 -1 -1 -1 -1 -1 -1 -1 
103 152 158 159 159 157 139 121 103 135 167 199 174 92 124 107 111 117 124 131 137 144 144 135 126 117 108 145 217 211 206 200 195 189 184 178 173 167 162 156 151 145 140 135 129 124 118 113 107 102 96 91 85 80 74 67 59 52 45 37 30 28 26 26 29 46 63 81 98 116 133 151 168 184 199 214 229 244 20 252 252 252 251 251 251 251 251 251 250 250 250 250 249 247 244 241 238 235 232 229 227 224 221 218 215 212 210 207 204 201 198 195 192 190 187 184 181 178 175 173 170 167 164 161 158 155 153 150 147 144 141 138 136 133 130 127 124 121 119 116 113 110 107 101 96 91 94 97 100 103 106 110 113 116 119 122 125 128 131 134 137 140 144 147 150 153 156 159 162 165 168 171 175 178 181 184 187 190 193 196 199 202 206 209 212 215 218 221 224 227 230 233 237 240 243 246 249 252 220 189 157 125 94 87 90 93 95 98 101 104 107 110 113 116 119 122 125 128 131 134 136 139 142 145 148 151 154 157 160 163 166 169 172 175 177 180 198 222 247 78 85 93 100 107 115 122 153 253 249 245 241 237 233 229 225 221 217 213 209 205 201 197 193 189 185 181 177 172 168 164 160 156 152 152 154 156 159 161 163 165 168 170 172 174 176 179 181 183 185 188 190 192 194 197 199 201 203 206 208 210 212 215 217 219 221 224 226 228 230 233 235 237 239 242 244 246 248 251 239 243 247 -1 -1 -1 -1 -1 -1 -1 -1 -1 -1 -1 -1 -1 -1 -1 -1 -1 -1 -1 -1 -1 -1 -1 -1 -1 -1 -1 -1 -1 -1 -1 -1 -1 -1 -1 -1 -1 -1 -1 -1 -1 -1 -1 -1 -1 -1 -1 -1 -1 -1 -1 -1 -1 -1 -1 -1 -1 -1 -1 -1 -1 -1 -1 -1 -1 -1 -1 -1 -1 -1 -1 -1 -1 -1 -1 -1 -1 -1 -1 -1 -1 -1 -1 -1 -1 -1 -1 -1 -1 -1 -1 -1 -1 -1 -1 -1 -1 -1 -1 -1 -1 -1 -1 -1 -1 -1 -1 -1 -1 -1 -1 -1 -1 -1 -1 -1 -1 -1 -1 -1 -1 -1 -1 -1 -1 -1 -1 -1 -1 -1 -1 -1 -1 -1 -1 -1 -1 -1 -1 -1 -1 -1 -1 -1 -1 -1 -1 -1 -1 -1 -1 -1 -1 -1 -1 -1 -1 -1 -1 -1 
103 152 177 177 177 169 151 133 115 114 146 178 95 153 136 119 121 127 134 141 147 154 148 139 130 121 112 103 203 209 203 198 192 187 181 176 170 165 159 154 148 143 137 132 126 121 115 110 104 99 93 88 83 77 72 66 61 55 49 42 35 28 25 27 44 62 79 97 112 127 142 157 173 188 203 218 233 249 252 251 251 251 251 251 251 251 251 251 250 250 250 250 250 250 248 245 242 239 236 234 231 228 225 222 219 216 214 211 208 205 202 199 197 194 191 188 185 182 179 177 174 171 168 165 162 160 157 154 151 148 145 143 140 137 134 131 128 125 123 120 117 114 110 104 99 93 92 95 98 101 104 107 110 113 116 119 123 126 129 132 135 138 141 144 147 150 154 157 160 163 166 169 172 175 178 181 185 188 191 194 197 200 203 206 209 212 216 219 222 225 228 231 234 234 198 162 127 91 94 97 100 103 106 109 111 114 117 120 123 126 129 132 135 138 141 144 147 150 152 155 158 161 164 167 170 173 176 179 182 185 188 191 193 196 199 202 215 239 20 27 35 42 49 57 64 71 79 86 253 253 250 246 242 238 234 230 226 222 217 213 209 205 201 197 193 189 185 181 177 173 169 165 161 157 157 159 161 163 166 168 170 172 175 177 179 181 184 186 188 190 193 195 197 199 202 204 206 208 211 213 215 217 220 222 224 226 228 231 233 235 237 240 242 244 246 249 251 232 236 240 244 -1 -1 -1 -1 -1 -1 -1 -1 -1 -1 -1 -1 -1 -1 -1 -1 -1 -1 -1 -1 -1 -1 -1 -1 -1 -1 -1 -1 -1 -1 -1 -1 -1 -1 -1 -1 -1 -1 -1 -1 -1 -1 -1 -1 -1 -1 -1 -1 -1 -1 -1 -1 -1 -1 -1 -1 -1 -1 -1 -1 -1 -1 -1 -1 -1 -1 -1 -1 -1 -1 -1 -1 -1 -1 -1 -1 -1 -1 -1 -1 -1 -1 -1 -1 -1 -1 -1 -1 -1 -1 -1 -1 -1 -1 -1 -1 -1 -1 -1 -1 -1 -1 -1 -1 -1 -1 -1 -1 -1 -1 -1 -1 -1 -1 -1 -1 -1 -1 -1 -1 -1 -1 -1 -1 -1 -1 -1 -1 -1 -1 -1 -1 -1 -1 -1 -1 -1 -1 -1 -1 -1 -1 -1 -1 -1 -1 -1 -1 -1 -1 -1 -1 -1 -1 -1 -1 -1 -1 -1 -1 
103 153 196 196 196 180 163 145 127 109 124 99 169 165 147 130 131 138 144 151 157 161 152 143 134 125 116 107 158 206 200 195 189 184 179 173 168 162 157 151 146 140 135 129 124 118 113 107 102 96 91 85 80 74 69 63 58 52 47 41 36 30 25 40 55 71 86 101 116 131 147 162 177 192 207 223 238 253 251 251 251 251 251 251 251 251 251 251 250 250 250 250 250 250 249 249 246 243 240 238 235 232 229 226 223 221 218 215 212 209 206 203 201 198 195 192 189 186 184 181 178 175 172 169 167 164 161 158 155 152 149 147 144 141 138 135 132 130 127 124 121 118 113 107 102 97 91 92 95 98 102 105 108 111 114 117 120 123 126 129 133 136 139 142 145 148 151 154 157 160 164 167 170 173 176 179 182 185 188 191 195 198 201 204 207 210 213 216 219 215 180 144 108 105 103 100 97 95 96 100 104 108 112 116 120 124 128 132 136 140 144 148 152 156 160 164 168 171 174 177 180 183 186 189 192 195 198 201 204 207 210 212 215 218 221 224 232 135 97 105 112 119 127 134 141 120 109 102 169 253 253 253 250 246 242 238 234 230 226 222 218 214 210 206 202 198 194 190 186 182 178 174 170 166 162 162 164 166 168 171 173 175 177 180 182 184 186 188 191 193 195 197 200 202 204 206 209 211 213 215 218 220 222 224 227 229 231 233 236 238 240 242 245 247 249 251 225 229 233 237 241 -1 -1 -1 -1 -1 -1 -1 -1 -1 -1 -1 -1 -1 -1 -1 -1 -1 -1 -1 -1 -1 -1 -1 -1 -1 -1 -1 -1 -1 -1 -1 -1 -1 -1 -1 -1 -1 -1 -1 -1 -1 -1 -1 -1 -1 -1 -1 -1 -1 -1 -1 -1 -1 -1 -1 -1 -1 -1 -1 -1 -1 -1 -1 -1 -1 -1 -1 -1 -1 -1 -1 -1 -1 -1 -1 -1 -1 -1 -1 -1 -1 -1 -1 -1 -1 -1 -1 -1 -1 -1 -1 -1 -1 -1 -1 -1 -1 -1 -1 -1 -1 -1 -1 -1 -1 -1 -1 -1 -1 -1 -1 -1 -1 -1 -1 -1 -1 -1 -1 -1 -1 -1 -1 -1 -1 -1 -1 -1 -1 -1 -1 -1 -1 -1 -1 -1 -1 -1 -1 -1 -1 -1 -1 -1 -1 -1 -1 -1 -1 -1 -1 -1 -1 -1 -1 -1 -1 -1 -1 -1 
103 153 202 215 210 192 175 157 139 121 103 173 193 176 159 142 141 148 154 161 167 165 156 147 138 129 120 111 113 203 198 192 187 181 176 170 165 159 154 148 143 137 132 126 121 116 110 105 99 94 88 83 77 72 66 61 55 50 44 39 33 29 33 44 27 42 57 72 87 103 118 133 148 163 179 194 209 252 251 251 251 251 251 251 251 251 251 250 250 250 250 250 250 250 249 249 249 247 245 242 239 236 233 230 228 225 222 219 216 213 210 208 205 202 199 196 193 191 188 185 182 179 176 173 171 168 165 162 159 156 154 151 148 145 142 139 136 134 131 128 125 122 116 111 105 100 94 90 93 96 99 102 105 108 112 115 118 121 124 127 130 133 136 139 143 146 149 152 155 158 161 164 167 170 174 177 180 183 186 189 192 195 198 201 204 197 161 126 90 120 117 114 112 109 106 104 101 98 98 102 106 110 114 118 122 126 130 134 138 142 146 150 154 158 162 166 170 174 178 182 185 189 193 197 201 205 209 213 217 221 225 229 233 237 241 245 249 212 175 182 189 197 176 154 138 132 125 119 112 253 253 253 253 253 251 247 243 239 235 231 227 223 219 215 211 207 203 199 195 191 187 183 179 175 171 167 166 169 171 173 175 178 180 182 184 187 189 191 193 196 198 200 202 205 207 209 211 214 216 218 220 223 225 227 229 232 234 236 238 240 243 245 247 249 252 218 222 226 230 235 239 -1 -1 -1 -1 -1 -1 -1 -1 -1 -1 -1 -1 -1 -1 -1 -1 -1 -1 -1 -1 -1 -1 -1 -1 -1 -1 -1 -1 -1 -1 -1 -1 -1 -1 -1 -1 -1 -1 -1 -1 -1 -1 -1 -1 -1 -1 -1 -1 -1 -1 -1 -1 -1 -1 -1 -1 -1 -1 -1 -1 -1 -1 -1 -1 -1 -1 -1 -1 -1 -1 -1 -1 -1 -1 -1 -1 -1 -1 -1 -1 -1 -1 -1 -1 -1 -1 -1 -1 -1 -1 -1 -1 -1 -1 -1 -1 -1 -1 -1 -1 -1 -1 -1 -1 -1 -1 -1 -1 -1 -1 -1 -1 -1 -1 -1 -1 -1 -1 -1 -1 -1 -1 -1 -1 -1 -1 -1 -1 -1 -1 -1 -1 -1 -1 -1 -1 -1 -1 -1 -1 -1 -1 -1 -1 -1 -1 -1 -1 -1 -1 -1 -1 -1 -1 -1 -1 -1 -1 -1 -1 
104 153 202 233 222 204 186 177 177 177 177 222 205 188 171 153 151 158 164 171 178 169 160 151 142 133 124 115 106 172 195 190 184 179 173 168 162 157 151 146 140 135 129 124 118 113 107 102 96 91 85 80 74 69 63 58 53 47 42 36 33 37 41 50 64 50 28 43 59 74 89 104 119 135 150 165 180 251 250 250 250 250 250 250 250 250 250 250 250 250 250 250 250 249 249 249 249 249 249 246 243 240 237 234 232 229 226 223 220 217 215 212 209 206 203 200 197 195 192 189 186 183 180 178 175 172 169 166 163 160 158 155 152 149 146 143 141 138 135 132 129 125 119 114 108 103 97 92 91 94 97 100 103 106 109 112 115 118 122 125 128 131 134 137 140 143 146 149 152 156 159 162 165 168 171 174 177 180 183 187 190 179 143 107 108 134 131 129 126 123 121 118 115 113 110 107 104 102 99 103 107 111 115 119 123 127 131 135 139 143 147 151 155 159 163 167 171 175 179 183 187 191 195 199 203 207 211 215 219 223 227 231 235 239 243 247 192 22 252 231 210 189 168 161 155 148 142 135 129 122 252 253 253 253 253 253 252 248 244 240 236 232 228 224 220 216 212 208 204 200 196 191 187 183 179 175 171 171 174 176 178 180 183 185 187 189 192 194 196 198 200 203 205 207 209 212 214 216 218 221 223 225 227 230 232 234 236 239 241 243 245 248 250 249 212 216 220 224 228 232 236 -1 -1 -1 -1 -1 -1 -1 -1 -1 -1 -1 -1 -1 -1 -1 -1 -1 -1 -1 -1 -1 -1 -1 -1 -1 -1 -1 -1 -1 -1 -1 -1 -1 -1 -1 -1 -1 -1 -1 -1 -1 -1 -1 -1 -1 -1 -1 -1 -1 -1 -1 -1 -1 -1 -1 -1 -1 -1 -1 -1 -1 -1 -1 -1 -1 -1 -1 -1 -1 -1 -1 -1 -1 -1 -1 -1 -1 -1 -1 -1 -1 -1 -1 -1 -1 -1 -1 -1 -1 -1 -1 -1 -1 -1 -1 -1 -1 -1 -1 -1 -1 -1 -1 -1 -1 -1 -1 -1 -1 -1 -1 -1 -1 -1 -1 -1 -1 -1 -1 -1 -1 -1 -1 -1 -1 -1 -1 -1 -1 -1 -1 -1 -1 -1 -1 -1 -1 -1 -1 -1 -1 -1 -1 -1 -1 -1 -1 -1 -1 -1 -1 -1 -1 -1 -1 -1 -1 -1 -1 -1 
104 153 203 252 252 252 252 251 251 251 251 234 217 199 182 165 161 168 174 181 181 172 163 155 146 137 128 119 110 127 192 187 181 176 170 165 159 154 149 143 138 132 127 121 116 110 105 99 94 88 83 77 72 66 61 55 50 44 39 37 41 45 49 55 70 83 80 44 30 45 60 75 91 106 121 136 151 251 250 250 250 250 250 250 250 250 250 250 250 250 250 250 250 249 249 249 249 249 249 248 247 244 241 239 236 233 230 227 224 221 219 216 213 210 207 204 202 199 196 193 190 187 184 182 179 176 173 170 167 165 162 159 156 153 150 148 145 142 139 136 133 128 122 117 111 106 100 95 89 91 94 97 101 104 107 110 113 116 119 122 125 128 131 135 138 141 144 147 150 153 156 159 162 166 169 172 175 160 125 89 126 149 146 143 140 138 135 132 130 127 124 122 119 116 113 111 108 105 103 104 108 113 116 120 124 128 133 137 141 145 149 153 157 161 165 169 173 177 181 185 189 193 197 201 205 208 212 216 220 224 228 232 236 240 244 248 135 98 244 223 202 190 184 177 171 165 158 152 145 139 169 252 252 252 253 253 253 253 253 249 245 240 236 232 228 224 220 216 212 208 204 200 196 192 188 184 180 176 176 178 181 183 185 187 190 192 194 196 199 201 203 205 208 210 212 214 217 219 221 223 226 228 230 232 235 237 239 241 244 246 248 250 235 205 209 213 217 221 225 229 233 -1 -1 -1 -1 -1 -1 -1 -1 -1 -1 -1 -1 -1 -1 -1 -1 -1 -1 -1 -1 -1 -1 -1 -1 -1 -1 -1 -1 -1 -1 -1 -1 -1 -1 -1 -1 -1 -1 -1 -1 -1 -1 -1 -1 -1 -1 -1 -1 -1 -1 -1 -1 -1 -1 -1 -1 -1 -1 -1 -1 -1 -1 -1 -1 -1 -1 -1 -1 -1 -1 -1 -1 -1 -1 -1 -1 -1 -1 -1 -1 -1 -1 -1 -1 -1 -1 -1 -1 -1 -1 -1 -1 -1 -1 -1 -1 -1 -1 -1 -1 -1 -1 -1 -1 -1 -1 -1 -1 -1 -1 -1 -1 -1 -1 -1 -1 -1 -1 -1 -1 -1 -1 -1 -1 -1 -1 -1 -1 -1 -1 -1 -1 -1 -1 -1 -1 -1 -1 -1 -1 -1 -1 -1 -1 -1 -1 -1 -1 -1 -1 -1 -1 -1 -1 -1 -1 -1 -1 -1 -1 
104 101 98 95 120 146 171 196 221 247 234 245 228 211 194 177 171 178 184 191 185 176 167 158 149 141 132 123 114 105 186 184 179 173 168 162 157 151 146 140 135 129 124 118 113 107 102 96 91 86 80 75 69 64 58 53 47 42 41 45 49 54 58 62 75 90 102 110 74 38 31 47 62 77 92 107 153 250 250 250 250 250 250 250 250 250 250 250 250 250 249 249 249 249 249 249 249 249 249 248 248 248 245 243 240 237 234 231 228 226 223 220 217 214 211 208 206 203 200 197 194 191 189 186 183 180 177 174 172 169 166 163 160 157 154 152 149 146 143 140 136 131 125 120 114 109 103 98 92 89 92 95 98 101 104 107 110 114 117 120 123 126 129 132 135 138 141 145 148 151 154 157 160 142 106 107 144 163 160 158 155 152 149 147 144 141 139 136 133 131 128 125 122 120 117 114 112 109 106 106 109 113 118 122 126 129 133 138 142 146 150 154 158 162 166 170 174 178 182 186 190 194 198 202 206 210 214 218 222 226 230 234 238 242 246 250 77 173 236 220 213 207 200 194 187 181 174 168 162 155 149 252 252 252 252 252 252 253 253 253 253 249 245 241 237 233 229 225 221 217 213 209 205 201 197 193 189 185 181 181 183 186 188 190 192 195 197 199 201 204 206 208 210 212 215 217 219 221 224 226 228 230 233 235 237 239 242 244 246 248 251 221 198 202 206 210 214 218 222 227 231 -1 -1 -1 -1 -1 -1 -1 -1 -1 -1 -1 -1 -1 -1 -1 -1 -1 -1 -1 -1 -1 -1 -1 -1 -1 -1 -1 -1 -1 -1 -1 -1 -1 -1 -1 -1 -1 -1 -1 -1 -1 -1 -1 -1 -1 -1 -1 -1 -1 -1 -1 -1 -1 -1 -1 -1 -1 -1 -1 -1 -1 -1 -1 -1 -1 -1 -1 -1 -1 -1 -1 -1 -1 -1 -1 -1 -1 -1 -1 -1 -1 -1 -1 -1 -1 -1 -1 -1 -1 -1 -1 -1 -1 -1 -1 -1 -1 -1 -1 -1 -1 -1 -1 -1 -1 -1 -1 -1 -1 -1 -1 -1 -1 -1 -1 -1 -1 -1 -1 -1 -1 -1 -1 -1 -1 -1 -1 -1 -1 -1 -1 -1 -1 -1 -1 -1 -1 -1 -1 -1 -1 -1 -1 -1 -1 -1 -1 -1 -1 -1 -1 -1 -1 -1 -1 -1 -1 -1 -1 -1 
134 178 175 147 141 166 192 217 242 231 217 243 240 223 205 188 181 188 195 198 189 180 171 162 153 144 135 127 118 109 141 182 176 171 165 160 154 149 143 138 132 127 121 116 110 105 99 94 88 83 77 72 66 61 55 50 44 45 50 54 58 62 66 70 80 95 109 122 135 104 68 32 33 48 63 79 185 250 250 250 249 249 249 249 249 249 249 249 249 249 249 249 249 249 249 249 249 249 249 248 248 248 248 247 244 241 238 235 232 230 227 224 221 218 215 213 210 207 204 201 198 196 193 190 187 184 181 178 176 173 170 167 164 161 159 156 153 150 147 144 139 134 128 123 117 112 107 101 96 90 89 93 96 99 102 105 108 111 114 117 120 124 127 130 133 136 139 142 145 124 88 125 162 177 175 172 169 167 164 161 158 156 153 150 148 145 142 140 137 134 131 129 126 123 121 118 115 113 110 108 111 114 118 123 127 131 135 139 143 147 151 156 160 164 168 172 176 180 184 188 192 196 200 204 208 212 216 220 224 228 231 235 239 243 247 193 20 249 243 236 230 223 217 210 204 197 191 184 178 171 165 159 252 252 252 252 252 252 252 252 253 253 253 250 246 242 238 234 230 226 222 218 214 210 206 202 198 194 190 186 186 188 190 193 195 197 199 202 204 206 208 211 213 215 217 220 222 224 226 229 231 233 235 238 240 242 244 247 249 251 208 191 195 199 203 208 212 216 220 224 228 -1 -1 -1 -1 -1 -1 -1 -1 -1 -1 -1 -1 -1 -1 -1 -1 -1 -1 -1 -1 -1 -1 -1 -1 -1 -1 -1 -1 -1 -1 -1 -1 -1 -1 -1 -1 -1 -1 -1 -1 -1 -1 -1 -1 -1 -1 -1 -1 -1 -1 -1 -1 -1 -1 -1 -1 -1 -1 -1 -1 -1 -1 -1 -1 -1 -1 -1 -1 -1 -1 -1 -1 -1 -1 -1 -1 -1 -1 -1 -1 -1 -1 -1 -1 -1 -1 -1 -1 -1 -1 -1 -1 -1 -1 -1 -1 -1 -1 -1 -1 -1 -1 -1 -1 -1 -1 -1 -1 -1 -1 -1 -1 -1 -1 -1 -1 -1 -1 -1 -1 -1 -1 -1 -1 -1 -1 -1 -1 -1 -1 -1 -1 -1 -1 -1 -1 -1 -1 -1 -1 -1 -1 -1 -1 -1 -1 -1 -1 -1 -1 -1 -1 -1 -1 -1 -1 -1 -1 -1 -1 
163 115 252 199 162 187 213 238 236 206 201 226 251 234 217 200 191 198 205 202 193 184 175 166 157 148 139 130 121 113 104 179 173 168 162 157 151 146 140 135 130 124 119 113 108 102 97 91 86 80 75 69 64 58 53 47 50 54 58 62 66 70 74 78 85 100 115 128 141 154 134 99 63 27 35 50 217 249 249 249 249 249 249 249 249 249 249 249 249 249 249 249 249 249 249 249 249 249 248 248 248 248 248 248 247 245 242 239 237 234 231 228 225 222 220 217 214 211 208 205 202 200 197 194 191 188 185 183 180 177 174 171 168 165 163 160 157 154 151 148 142 137 132 126 121 115 110 104 99 93 88 90 93 96 99 103 106 109 112 115 118 121 124 127 130 105 106 143 180 192 189 186 184 181 178 176 173 170 167 165 162 159 157 154 151 149 146 143 140 138 135 132 130 127 124 122 119 116 113 111 113 116 119 124 129 133 136 140 144 148 152 156 161 165 169 173 177 181 185 189 193 197 201 205 209 213 217 221 225 229 233 237 241 245 249 135 96 249 249 249 246 240 233 227 220 214 207 201 194 188 181 175 169 252 252 252 252 252 252 252 252 252 252 253 253 251 247 243 239 235 231 227 223 219 214 210 206 202 198 194 190 191 193 195 198 200 202 204 207 209 211 213 216 218 220 222 224 227 229 231 233 236 238 240 242 245 247 249 251 194 185 189 193 197 201 205 209 213 217 221 225 -1 -1 -1 -1 -1 -1 -1 -1 -1 -1 -1 -1 -1 -1 -1 -1 -1 -1 -1 -1 -1 -1 -1 -1 -1 -1 -1 -1 -1 -1 -1 -1 -1 -1 -1 -1 -1 -1 -1 -1 -1 -1 -1 -1 -1 -1 -1 -1 -1 -1 -1 -1 -1 -1 -1 -1 -1 -1 -1 -1 -1 -1 -1 -1 -1 -1 -1 -1 -1 -1 -1 -1 -1 -1 -1 -1 -1 -1 -1 -1 -1 -1 -1 -1 -1 -1 -1 -1 -1 -1 -1 -1 -1 -1 -1 -1 -1 -1 -1 -1 -1 -1 -1 -1 -1 -1 -1 -1 -1 -1 -1 -1 -1 -1 -1 -1 -1 -1 -1 -1 -1 -1 -1 -1 -1 -1 -1 -1 -1 -1 -1 -1 -1 -1 -1 -1 -1 -1 -1 -1 -1 -1 -1 -1 -1 -1 -1 -1 -1 -1 -1 -1 -1 -1 -1 -1 -1 -1 -1 -1 
193 145 97 251 199 208 233 241 211 182 184 209 235 246 229 211 202 208 215 206 197 188 179 170 161 152 143 134 125 116 107 155 171 165 160 154 149 143 138 132 127 121 116 110 105 99 94 88 83 77 72 67 61 56 50 54 58 62 66 70 74 78 82 86 90 105 120 135 148 161 173 165 129 93 57 21 249 249 249 249 249 249 249 249 249 249 249 249 249 249 249 249 249 248 248 248 248 248 248 248 248 248 248 248 247 247 246 244 241 238 235 232 229 226 224 221 218 215 212 209 207 204 201 198 195 192 189 187 184 181 178 175 172 170 167 164 161 158 155 151 146 140 135 129 124 118 113 107 102 96 91 88 91 94 97 100 103 106 109 113 116 87 124 161 198 206 203 201 198 195 193 190 187 185 182 179 176 174 171 168 166 163 160 158 155 152 149 147 144 141 139 136 133 131 128 125 122 120 117 114 114 118 121 124 129 134 138 142 146 149 153 157 161 166 170 174 179 183 187 191 195 199 203 207 211 215 219 223 227 231 235 239 243 247 251 78 172 249 249 249 249 249 250 243 237 230 224 217 211 204 198 191 185 252 252 252 252 252 252 252 252 252 252 252 252 252 253 251 247 243 239 235 231 227 223 219 215 211 207 203 199 195 196 198 200 202 205 207 209 211 214 216 218 220 223 225 227 229 232 234 236 238 241 243 245 247 250 252 181 178 182 186 190 194 198 202 206 210 214 218 223 -1 -1 -1 -1 -1 -1 -1 -1 -1 -1 -1 -1 -1 -1 -1 -1 -1 -1 -1 -1 -1 -1 -1 -1 -1 -1 -1 -1 -1 -1 -1 -1 -1 -1 -1 -1 -1 -1 -1 -1 -1 -1 -1 -1 -1 -1 -1 -1 -1 -1 -1 -1 -1 -1 -1 -1 -1 -1 -1 -1 -1 -1 -1 -1 -1 -1 -1 -1 -1 -1 -1 -1 -1 -1 -1 -1 -1 -1 -1 -1 -1 -1 -1 -1 -1 -1 -1 -1 -1 -1 -1 -1 -1 -1 -1 -1 -1 -1 -1 -1 -1 -1 -1 -1 -1 -1 -1 -1 -1 -1 -1 -1 -1 -1 -1 -1 -1 -1 -1 -1 -1 -1 -1 -1 -1 -1 -1 -1 -1 -1 -1 -1 -1 -1 -1 -1 -1 -1 -1 -1 -1 -1 -1 -1 -1 -1 -1 -1 -1 -1 -1 -1 -1 -1 -1 -1 -1 -1 -1 -1 
222 175 174 174 251 229 245 216 187 157 167 192 218 243 240 223 212 218 219 210 201 192 183 174 165 156 147 138 129 120 111 110 168 163 157 152 146 141 135 130 124 119 113 108 102 97 91 86 80 75 69 64 58 54 58 62 66 70 74 78 82 86 90 94 98 110 125 140 154 167 180 193 195 159 123 98 249 249 249 249 249 249 249 248 248 248 248 248 248 248 248 248 248 248 248 248 248 248 248 248 248 248 248 248 247 247 247 247 245 242 239 236 233 231 228 225 222 219 216 213 211 208 205 202 199 196 194 191 188 185 182 179 177 174 171 168 165 162 159 154 149 143 138 132 127 121 116 110 105 99 94 88 88 92 95 98 101 105 142 179 216 221 218 215 212 210 207 204 202 199 196 194 191 188 185 183 180 177 175 172 169 167 164 161 158 156 153 150 148 145 142 140 137 134 131 129 126 123 121 118 116 119 122 126 130 134 139 144 147 151 155 159 162 166 171 175 179 184 188 192 196 200 204 208 212 216 220 224 228 232 236 240 244 248 193 100 249 249 249 249 249 249 249 250 250 247 240 234 227 221 214 208 201 195 252 252 252 252 252 252 252 252 252 252 252 252 252 252 252 252 248 244 240 236 232 228 224 220 216 212 208 204 200 201 203 205 207 210 212 214 216 219 221 223 225 228 230 232 234 236 239 241 243 245 248 250 245 167 171 175 179 183 187 191 195 200 204 208 212 216 220 -1 -1 -1 -1 -1 -1 -1 -1 -1 -1 -1 -1 -1 -1 -1 -1 -1 -1 -1 -1 -1 -1 -1 -1 -1 -1 -1 -1 -1 -1 -1 -1 -1 -1 -1 -1 -1 -1 -1 -1 -1 -1 -1 -1 -1 -1 -1 -1 -1 -1 -1 -1 -1 -1 -1 -1 -1 -1 -1 -1 -1 -1 -1 -1 -1 -1 -1 -1 -1 -1 -1 -1 -1 -1 -1 -1 -1 -1 -1 -1 -1 -1 -1 -1 -1 -1 -1 -1 -1 -1 -1 -1 -1 -1 -1 -1 -1 -1 -1 -1 -1 -1 -1 -1 -1 -1 -1 -1 -1 -1 -1 -1 -1 -1 -1 -1 -1 -1 -1 -1 -1 -1 -1 -1 -1 -1 -1 -1 -1 -1 -1 -1 -1 -1 -1 -1 -1 -1 -1 -1 -1 -1 -1 -1 -1 -1 -1 -1 -1 -1 -1 -1 -1 -1 -1 -1 -1 -1 -1 -1 
252 252 251 251 250 250 221 191 162 133 150 176 201 226 252 234 222 228 222 214 205 196 187 178 169 160 151 142 133 124 115 106 165 160 154 149 143 138 132 127 121 116 110 105 100 94 89 83 78 72 67 61 58 62 66 70 74 78 82 86 90 94 98 102 106 115 130 145 161 173 186 199 212 225 74 174 249 249 248 248 248 248 248 248 248 248 248 248 248 248 248 248 248 248 248 248 248 248 248 248 248 248 248 247 247 247 247 247 247 246 243 240 237 235 232 229 226 223 220 218 215 212 209 206 203 201 198 195 192 189 186 183 181 178 175 172 169 166 163 157 152 146 141 135 130 124 119 113 108 102 97 91 86 123 160 197 234 235 232 230 227 224 221 219 216 213 211 208 205 203 200 197 194 192 189 186 184 181 178 176 173 170 167 165 162 159 157 154 151 149 146 143 140 138 135 132 130 127 124 122 119 121 124 127 131 135 140 145 149 153 156 160 164 168 172 176 180 184 189 193 197 202 206 210 214 218 222 226 230 234 238 242 246 250 136 123 249 249 249 249 249 249 249 249 250 250 250 250 244 237 231 224 218 211 205 252 252 252 252 252 252 252 252 252 252 252 252 252 252 252 252 252 249 245 241 237 233 229 225 221 217 213 209 205 205 208 210 212 214 217 219 221 223 226 228 230 232 235 237 239 241 244 246 248 250 232 160 164 168 172 177 181 185 189 193 197 201 205 209 213 217 -1 -1 -1 -1 -1 -1 -1 -1 -1 -1 -1 -1 -1 -1 -1 -1 -1 -1 -1 -1 -1 -1 -1 -1 -1 -1 -1 -1 -1 -1 -1 -1 -1 -1 -1 -1 -1 -1 -1 -1 -1 -1 -1 -1 -1 -1 -1 -1 -1 -1 -1 -1 -1 -1 -1 -1 -1 -1 -1 -1 -1 -1 -1 -1 -1 -1 -1 -1 -1 -1 -1 -1 -1 -1 -1 -1 -1 -1 -1 -1 -1 -1 -1 -1 -1 -1 -1 -1 -1 -1 -1 -1 -1 -1 -1 -1 -1 -1 -1 -1 -1 -1 -1 -1 -1 -1 -1 -1 -1 -1 -1 -1 -1 -1 -1 -1 -1 -1 -1 -1 -1 -1 -1 -1 -1 -1 -1 -1 -1 -1 -1 -1 -1 -1 -1 -1 -1 -1 -1 -1 -1 -1 -1 -1 -1 -1 -1 -1 -1 -1 -1 -1 -1 -1 -1 -1 -1 -1 -1 -1 
112 136 160 184 208 225 196 166 137 108 133 159 184 209 235 246 232 235 226 217 208 200 191 182 173 164 155 146 137 128 119 110 124 157 152 146 141 135 130 124 119 113 108 102 97 91 86 80 75 69 64 62 66 70 74 78 82 86 90 94 98 102 107 111 115 120 135 150 165 180 193 206 219 175 24 249 248 248 248 248 248 248 248 248 248 248 248 248 248 248 248 248 248 248 248 247 247 247 247 247 247 247 247 247 247 247 247 247 247 246 246 244 242 239 236 233 230 227 225 222 219 216 213 210 207 205 202 199 196 193 190 188 185 182 179 176 173 170 166 160 155 149 144 138 133 127 122 116 111 106 100 135 252 249 247 244 241 239 236 233 230 228 225 222 220 217 214 212 209 206 203 201 198 195 193 190 187 185 182 179 176 174 171 168 166 163 160 158 155 152 149 147 144 141 139 136 133 131 128 125 122 123 126 129 132 136 140 145 150 154 158 162 166 169 173 177 181 185 189 194 198 202 207 211 215 219 223 227 231 235 239 243 247 251 158 172 249 249 249 249 249 249 249 249 250 250 250 250 250 250 247 241 234 228 221 251 251 252 252 252 252 252 252 252 252 252 252 252 252 252 252 252 252 252 250 246 242 237 233 229 225 221 217 213 209 210 213 215 217 219 222 224 226 228 231 233 235 237 240 242 244 246 248 251 218 154 158 162 166 170 174 178 182 186 190 194 198 202 206 210 215 -1 -1 -1 -1 -1 -1 -1 -1 -1 -1 -1 -1 -1 -1 -1 -1 -1 -1 -1 -1 -1 -1 -1 -1 -1 -1 -1 -1 -1 -1 -1 -1 -1 -1 -1 -1 -1 -1 -1 -1 -1 -1 -1 -1 -1 -1 -1 -1 -1 -1 -1 -1 -1 -1 -1 -1 -1 -1 -1 -1 -1 -1 -1 -1 -1 -1 -1 -1 -1 -1 -1 -1 -1 -1 -1 -1 -1 -1 -1 -1 -1 -1 -1 -1 -1 -1 -1 -1 -1 -1 -1 -1 -1 -1 -1 -1 -1 -1 -1 -1 -1 -1 -1 -1 -1 -1 -1 -1 -1 -1 -1 -1 -1 -1 -1 -1 -1 -1 -1 -1 -1 -1 -1 -1 -1 -1 -1 -1 -1 -1 -1 -1 -1 -1 -1 -1 -1 -1 -1 -1 -1 -1 -1 -1 -1 -1 -1 -1 -1 -1 -1 -1 -1 -1 -1 -1 -1 -1 -1 -1 
140 118 142 166 191 199 170 141 112 120 107 136 165 193 218 243 242 239 230 221 212 203 194 186 177 168 159 150 141 132 123 114 105 154 149 143 138 133 127 122 116 111 105 100 94 89 83 78 72 67 66 70 74 78 82 86 90 94 98 103 107 111 115 119 123 127 140 155 170 186 199 212 225 125 99 248 248 248 248 248 248 248 248 248 248 248 248 248 247 247 247 247 247 247 247 247 247 247 247 247 247 247 247 247 247 247 247 247 247 246 246 246 246 243 240 237 234 231 229 226 223 220 217 214 212 209 206 203 200 197 194 192 189 186 183 180 177 174 169 163 158 152 147 142 136 131 125 120 114 109 185 243 250 252 250 248 245 242 239 237 234 231 229 226 223 221 218 215 212 210 207 204 202 199 196 194 191 188 185 183 180 177 175 172 169 167 164 161 158 156 153 150 148 145 142 140 137 134 131 129 126 124 127 131 134 137 141 146 151 156 160 164 167 171 175 179 182 186 190 195 199 203 207 212 216 220 225 229 233 237 241 245 249 194 181 248 248 249 249 249 249 249 249 249 249 250 250 250 250 250 250 250 251 244 238 231 251 251 251 251 252 252 252 252 252 252 252 252 252 252 252 252 252 252 252 252 250 246 242 238 234 230 226 222 218 214 215 217 220 222 224 226 229 231 233 235 238 240 242 244 247 249 251 204 147 151 155 159 163 167 171 175 179 183 187 191 196 200 204 208 212 -1 -1 -1 -1 -1 -1 -1 -1 -1 -1 -1 -1 -1 -1 -1 -1 -1 -1 -1 -1 -1 -1 -1 -1 -1 -1 -1 -1 -1 -1 -1 -1 -1 -1 -1 -1 -1 -1 -1 -1 -1 -1 -1 -1 -1 -1 -1 -1 -1 -1 -1 -1 -1 -1 -1 -1 -1 -1 -1 -1 -1 -1 -1 -1 -1 -1 -1 -1 -1 -1 -1 -1 -1 -1 -1 -1 -1 -1 -1 -1 -1 -1 -1 -1 -1 -1 -1 -1 -1 -1 -1 -1 -1 -1 -1 -1 -1 -1 -1 -1 -1 -1 -1 -1 -1 -1 -1 -1 -1 -1 -1 -1 -1 -1 -1 -1 -1 -1 -1 -1 -1 -1 -1 -1 -1 -1 -1 -1 -1 -1 -1 -1 -1 -1 -1 -1 -1 -1 -1 -1 -1 -1 -1 -1 -1 -1 -1 -1 -1 -1 -1 -1 -1 -1 -1 -1 -1 -1 -1 -1 
168 124 125 149 173 174 145 116 133 132 119 106 135 164 193 223 252 243 234 225 216 207 198 189 180 172 163 154 145 136 127 118 109 138 146 141 135 130 124 119 113 108 102 97 91 86 81 75 70 70 74 78 82 86 90 94 98 103 107 111 115 119 123 127 131 135 145 160 175 191 206 219 232 74 173 248 248 248 248 248 248 248 248 248 248 247 247 247 247 247 247 247 247 247 247 247 247 247 247 247 247 247 247 247 247 247 247 246 246 246 246 246 246 246 244 241 238 236 233 230 227 224 221 218 216 213 210 207 204 201 199 196 193 190 187 184 182 177 172 167 161 156 150 145 139 134 128 123 117 234 233 241 248 252 252 251 248 246 243 240 238 235 232 230 227 224 221 219 216 213 211 208 205 203 200 197 194 192 189 186 184 181 178 176 173 170 167 165 162 159 157 154 151 149 146 143 140 138 135 132 130 127 129 132 136 139 142 146 151 156 161 165 169 173 177 180 184 188 192 195 200 204 208 212 217 221 225 230 234 238 242 246 250 216 203 248 248 249 249 249 249 249 249 249 249 250 250 250 250 250 250 250 250 251 251 248 241 251 251 251 251 251 251 252 252 252 252 252 252 252 252 252 252 252 252 252 252 252 251 247 243 239 235 231 227 223 219 220 222 225 227 229 231 234 236 238 240 243 245 247 249 252 191 140 144 148 152 156 160 164 168 173 177 181 185 189 193 197 201 205 209 -1 -1 -1 -1 -1 -1 -1 -1 -1 -1 -1 -1 -1 -1 -1 -1 -1 -1 -1 -1 -1 -1 -1 -1 -1 -1 -1 -1 -1 -1 -1 -1 -1 -1 -1 -1 -1 -1 -1 -1 -1 -1 -1 -1 -1 -1 -1 -1 -1 -1 -1 -1 -1 -1 -1 -1 -1 -1 -1 -1 -1 -1 -1 -1 -1 -1 -1 -1 -1 -1 -1 -1 -1 -1 -1 -1 -1 -1 -1 -1 -1 -1 -1 -1 -1 -1 -1 -1 -1 -1 -1 -1 -1 -1 -1 -1 -1 -1 -1 -1 -1 -1 -1 -1 -1 -1 -1 -1 -1 -1 -1 -1 -1 -1 -1 -1 -1 -1 -1 -1 -1 -1 -1 -1 -1 -1 -1 -1 -1 -1 -1 -1 -1 -1 -1 -1 -1 -1 -1 -1 -1 -1 -1 -1 -1 -1 -1 -1 -1 -1 -1 -1 -1 -1 -1 -1 -1 -1 -1 -1 
196 152 107 131 155 149 120 125 158 145 131 118 105 134 163 192 217 226 236 229 220 211 202 193 184 175 166 158 149 140 131 122 113 104 144 138 133 127 122 116 111 105 100 94 89 83 78 72 74 78 82 86 90 94 99 103 107 111 115 119 123 127 131 135 139 143 150 165 180 195 211 225 238 24 248 248 248 248 248 248 248 248 247 247 247 247 247 247 247 247 247 247 247 247 247 247 247 246 246 246 246 246 246 246 246 246 246 246 246 246 246 246 246 246 245 245 242 240 237 234 231 228 225 223 220 217 214 211 208 206 203 200 197 194 191 188 186 181 175 170 164 159 153 148 142 137 131 167 217 224 232 239 246 252 252 252 252 249 247 244 241 239 236 233 230 228 225 222 220 217 214 212 209 206 203 201 198 195 193 190 187 185 182 179 176 174 171 168 166 163 160 158 155 152 149 147 144 141 139 136 133 131 131 134 137 141 144 147 151 156 161 166 171 174 178 182 186 189 193 197 201 205 209 213 218 222 226 230 235 239 243 248 252 239 226 248 248 248 249 249 249 249 249 249 249 249 250 250 250 250 250 250 250 250 251 251 251 251 251 251 251 251 251 251 251 251 252 252 252 252 252 252 252 252 252 252 252 252 252 252 252 248 244 240 236 232 228 224 225 227 229 232 234 236 238 241 243 245 247 250 252 177 133 137 141 145 150 154 158 162 166 170 174 178 182 186 190 194 198 202 206 -1 -1 -1 -1 -1 -1 -1 -1 -1 -1 -1 -1 -1 -1 -1 -1 -1 -1 -1 -1 -1 -1 -1 -1 -1 -1 -1 -1 -1 -1 -1 -1 -1 -1 -1 -1 -1 -1 -1 -1 -1 -1 -1 -1 -1 -1 -1 -1 -1 -1 -1 -1 -1 -1 -1 -1 -1 -1 -1 -1 -1 -1 -1 -1 -1 -1 -1 -1 -1 -1 -1 -1 -1 -1 -1 -1 -1 -1 -1 -1 -1 -1 -1 -1 -1 -1 -1 -1 -1 -1 -1 -1 -1 -1 -1 -1 -1 -1 -1 -1 -1 -1 -1 -1 -1 -1 -1 -1 -1 -1 -1 -1 -1 -1 -1 -1 -1 -1 -1 -1 -1 -1 -1 -1 -1 -1 -1 -1 -1 -1 -1 -1 -1 -1 -1 -1 -1 -1 -1 -1 -1 -1 -1 -1 -1 -1 -1 -1 -1 -1 -1 -1 -1 -1 -1 -1 -1 -1 -1 -1 
224 180 135 113 137 123 117 157 170 157 144 130 117 103 133 162 181 191 201 211 220 215 206 197 188 179 170 161 152 144 135 126 117 108 141 135 130 124 119 114 108 103 97 92 86 81 75 78 82 86 90 95 99 103 107 111 115 119 123 127 131 135 139 143 147 151 155 170 185 200 216 231 245 250 230 231 231 232 233 239 247 247 247 247 247 247 247 247 247 247 247 247 247 247 246 246 246 246 246 246 246 246 246 246 246 246 246 246 246 246 246 246 246 246 245 245 245 244 241 238 235 232 230 227 224 221 218 215 212 210 207 204 201 198 195 193 189 184 178 173 167 162 156 151 145 140 216 208 215 222 230 237 244 251 252 252 252 252 250 248 245 242 239 237 234 231 229 226 223 221 218 215 212 210 207 204 202 199 196 194 191 188 185 183 180 177 175 172 169 167 164 161 158 156 153 150 148 145 142 140 137 134 132 136 139 142 146 149 152 157 162 167 172 176 180 184 187 191 195 199 202 206 210 214 218 223 227 231 235 240 244 248 194 24 248 241 233 226 218 211 203 196 189 181 174 166 159 151 144 136 129 122 114 107 99 92 84 77 106 135 164 193 222 251 251 251 251 251 251 252 252 252 252 252 252 252 252 252 252 252 252 252 252 248 244 240 236 232 228 230 232 234 237 239 241 243 246 248 250 242 164 127 131 135 139 143 147 151 155 159 163 167 171 175 179 183 188 192 196 200 204 -1 -1 -1 -1 -1 -1 -1 -1 -1 -1 -1 -1 -1 -1 -1 -1 -1 -1 -1 -1 -1 -1 -1 -1 -1 -1 -1 -1 -1 -1 -1 -1 -1 -1 -1 -1 -1 -1 -1 -1 -1 -1 -1 -1 -1 -1 -1 -1 -1 -1 -1 -1 -1 -1 -1 -1 -1 -1 -1 -1 -1 -1 -1 -1 -1 -1 -1 -1 -1 -1 -1 -1 -1 -1 -1 -1 -1 -1 -1 -1 -1 -1 -1 -1 -1 -1 -1 -1 -1 -1 -1 -1 -1 -1 -1 -1 -1 -1 -1 -1 -1 -1 -1 -1 -1 -1 -1 -1 -1 -1 -1 -1 -1 -1 -1 -1 -1 -1 -1 -1 -1 -1 -1 -1 -1 -1 -1 -1 -1 -1 -1 -1 -1 -1 -1 -1 -1 -1 -1 -1 -1 -1 -1 -1 -1 -1 -1 -1 -1 -1 -1 -1 -1 -1 -1 -1 -1 -1 -1 -1 
252 208 163 119 120 110 149 189 183 169 156 142 129 116 102 131 146 156 165 175 185 195 204 201 192 183 174 165 156 147 138 130 121 112 106 133 127 122 116 111 105 100 94 89 83 78 82 86 91 95 99 103 107 111 115 119 123 127 131 135 139 143 147 151 155 159 163 175 190 205 220 236 251 174 211 212 213 214 215 215 216 217 218 219 230 247 247 247 247 247 247 246 246 246 246 246 246 246 246 246 246 246 246 246 246 246 246 246 246 245 245 245 245 245 245 245 245 245 245 242 239 236 234 231 228 225 222 219 217 214 211 208 205 202 199 197 192 187 181 176 170 165 159 154 148 232 198 206 213 220 228 235 242 250 251 252 252 252 252 251 248 246 243 240 238 235 232 230 227 224 221 219 216 213 211 208 205 203 200 197 194 192 189 186 184 181 178 176 173 170 167 165 162 159 157 154 151 149 146 143 140 138 135 137 141 144 147 151 154 157 162 167 172 177 182 185 189 193 197 200 204 208 212 215 219 223 228 232 236 241 245 249 137 98 248 248 248 249 249 249 249 250 247 240 232 225 217 210 203 195 188 180 173 165 158 151 143 136 132 129 126 123 119 116 113 135 164 193 222 251 251 251 252 252 252 252 252 252 252 252 252 252 252 252 252 249 245 241 237 233 235 237 239 241 244 246 248 250 228 150 120 124 128 132 136 140 144 148 152 156 160 165 169 173 177 181 185 189 193 197 201 -1 -1 -1 -1 -1 -1 -1 -1 -1 -1 -1 -1 -1 -1 -1 -1 -1 -1 -1 -1 -1 -1 -1 -1 -1 -1 -1 -1 -1 -1 -1 -1 -1 -1 -1 -1 -1 -1 -1 -1 -1 -1 -1 -1 -1 -1 -1 -1 -1 -1 -1 -1 -1 -1 -1 -1 -1 -1 -1 -1 -1 -1 -1 -1 -1 -1 -1 -1 -1 -1 -1 -1 -1 -1 -1 -1 -1 -1 -1 -1 -1 -1 -1 -1 -1 -1 -1 -1 -1 -1 -1 -1 -1 -1 -1 -1 -1 -1 -1 -1 -1 -1 -1 -1 -1 -1 -1 -1 -1 -1 -1 -1 -1 -1 -1 -1 -1 -1 -1 -1 -1 -1 -1 -1 -1 -1 -1 -1 -1 -1 -1 -1 -1 -1 -1 -1 -1 -1 -1 -1 -1 -1 -1 -1 -1 -1 -1 -1 -1 -1 -1 -1 -1 -1 -1 -1 -1 -1 -1 -1 
215 252 202 152 102 142 182 208 195 181 168 155 141 128 114 101 111 120 130 140 150 159 169 179 189 187 178 169 160 151 142 133 124 116 107 130 125 119 114 108 103 97 92 86 82 87 91 95 99 103 107 111 115 119 123 127 131 135 139 143 147 151 155 159 164 168 172 179 195 210 225 241 25 192 193 194 195 196 196 197 198 199 200 200 201 202 203 204 205 221 246 246 246 246 246 246 246 246 246 246 246 246 246 245 245 245 245 245 245 245 245 245 245 245 245 245 245 245 245 245 243 241 238 235 232 229 226 223 221 218 215 212 209 206 204 201 195 190 184 179 173 168 162 198 182 189 196 204 211 218 226 233 241 248 251 251 251 252 252 252 252 249 247 244 241 239 236 233 230 228 225 222 220 217 214 212 209 206 203 201 198 195 193 190 187 185 182 179 176 174 171 168 166 163 160 158 155 152 149 147 144 141 139 139 142 146 149 152 155 159 163 168 173 178 182 187 191 194 198 202 206 209 213 217 221 224 228 233 237 241 246 250 79 172 248 248 249 249 249 249 249 250 250 250 250 250 251 251 251 251 246 239 232 224 217 209 202 194 191 188 184 181 178 175 171 168 165 161 158 155 152 148 164 193 222 252 252 252 252 252 252 252 252 252 252 252 252 250 246 242 238 240 242 244 246 249 251 215 136 113 117 121 125 129 133 137 142 146 150 154 158 162 166 170 174 178 182 186 190 194 198 -1 -1 -1 -1 -1 -1 -1 -1 -1 -1 -1 -1 -1 -1 -1 -1 -1 -1 -1 -1 -1 -1 -1 -1 -1 -1 -1 -1 -1 -1 -1 -1 -1 -1 -1 -1 -1 -1 -1 -1 -1 -1 -1 -1 -1 -1 -1 -1 -1 -1 -1 -1 -1 -1 -1 -1 -1 -1 -1 -1 -1 -1 -1 -1 -1 -1 -1 -1 -1 -1 -1 -1 -1 -1 -1 -1 -1 -1 -1 -1 -1 -1 -1 -1 -1 -1 -1 -1 -1 -1 -1 -1 -1 -1 -1 -1 -1 -1 -1 -1 -1 -1 -1 -1 -1 -1 -1 -1 -1 -1 -1 -1 -1 -1 -1 -1 -1 -1 -1 -1 -1 -1 -1 -1 -1 -1 -1 -1 -1 -1 -1 -1 -1 -1 -1 -1 -1 -1 -1 -1 -1 -1 -1 -1 -1 -1 -1 -1 -1 -1 -1 -1 -1 -1 -1 -1 -1 -1 -1 -1 
178 215 252 202 176 174 214 220 207 194 180 165 148 131 115 102 101 101 101 105 114 124 134 143 153 163 173 173 164 155 146 137 128 119 110 120 122 116 111 105 100 94 89 87 91 95 99 103 107 111 115 119 123 127 131 135 139 143 147 151 155 160 164 168 172 176 180 184 200 215 230 245 99 174 175 176 176 177 178 179 180 180 181 182 183 184 185 185 186 187 188 189 190 190 212 243 246 246 246 246 245 245 245 245 245 245 245 245 245 245 245 245 245 245 245 245 245 245 245 244 244 244 242 239 236 233 230 228 225 222 219 216 213 211 208 204 198 193 187 182 177 171 247 172 180 187 194 202 209 217 224 231 239 246 251 251 251 251 252 252 252 252 250 248 245 242 239 237 234 231 229 226 223 221 218 215 212 210 207 204 202 199 196 194 191 188 185 183 180 177 175 172 169 167 164 161 158 156 153 150 148 145 142 141 144 147 151 154 157 160 164 168 173 178 183 188 192 196 200 204 207 211 215 219 222 226 230 234 238 242 246 251 21 248 248 248 249 249 249 249 249 250 250 250 250 251 251 251 251 251 252 252 252 252 252 253 253 253 250 246 243 240 237 233 230 227 223 220 217 214 210 207 204 200 197 194 191 187 184 194 223 252 252 252 252 252 252 252 252 251 247 243 244 247 249 251 201 123 106 110 114 118 123 127 131 135 139 143 147 151 155 159 163 167 171 175 179 184 188 192 196 -1 -1 -1 -1 -1 -1 -1 -1 -1 -1 -1 -1 -1 -1 -1 -1 -1 -1 -1 -1 -1 -1 -1 -1 -1 -1 -1 -1 -1 -1 -1 -1 -1 -1 -1 -1 -1 -1 -1 -1 -1 -1 -1 -1 -1 -1 -1 -1 -1 -1 -1 -1 -1 -1 -1 -1 -1 -1 -1 -1 -1 -1 -1 -1 -1 -1 -1 -1 -1 -1 -1 -1 -1 -1 -1 -1 -1 -1 -1 -1 -1 -1 -1 -1 -1 -1 -1 -1 -1 -1 -1 -1 -1 -1 -1 -1 -1 -1 -1 -1 -1 -1 -1 -1 -1 -1 -1 -1 -1 -1 -1 -1 -1 -1 -1 -1 -1 -1 -1 -1 -1 -1 -1 -1 -1 -1 -1 -1 -1 -1 -1 -1 -1 -1 -1 -1 -1 -1 -1 -1 -1 -1 -1 -1 -1 -1 -1 -1 -1 -1 -1 -1 -1 -1 -1 -1 -1 -1 -1 -1 
141 178 215 252 250 248 246 229 212 196 179 162 145 128 111 104 103 101 101 102 102 102 102 108 118 128 137 147 157 159 150 141 132 123 114 105 119 114 108 103 97 92 91 95 99 103 107 111 115 119 123 127 131 135 139 143 147 151 156 160 164 168 172 176 180 184 188 192 204 220 235 250 155 156 156 157 158 159 160 161 161 162 163 164 165 165 166 167 168 169 170 170 171 172 173 174 175 175 176 202 234 245 245 245 245 245 245 245 245 245 245 245 244 244 244 244 244 244 244 244 244 244 244 243 240 237 235 232 229 226 223 220 217 215 212 207 202 196 191 185 180 197 163 170 178 185 193 200 207 215 222 229 237 244 251 251 251 251 251 252 252 252 252 251 248 246 243 240 238 235 232 230 227 224 221 219 216 213 211 208 205 203 200 197 194 192 189 186 184 181 178 176 173 170 167 165 162 159 157 154 151 149 146 143 146 149 152 156 159 162 165 169 173 178 183 188 193 198 202 205 209 213 217 220 224 228 232 235 239 243 247 251 97 248 248 248 249 249 249 249 250 250 250 250 250 251 251 251 251 251 252 252 252 252 252 253 252 251 247 243 238 234 229 225 220 216 211 207 202 198 203 213 223 233 243 253 249 246 243 239 236 233 229 226 223 220 223 252 252 252 252 251 247 249 252 187 109 100 104 108 112 116 120 124 128 132 136 140 144 148 152 156 161 165 169 173 177 181 185 189 193 -1 -1 -1 -1 -1 -1 -1 -1 -1 -1 -1 -1 -1 -1 -1 -1 -1 -1 -1 -1 -1 -1 -1 -1 -1 -1 -1 -1 -1 -1 -1 -1 -1 -1 -1 -1 -1 -1 -1 -1 -1 -1 -1 -1 -1 -1 -1 -1 -1 -1 -1 -1 -1 -1 -1 -1 -1 -1 -1 -1 -1 -1 -1 -1 -1 -1 -1 -1 -1 -1 -1 -1 -1 -1 -1 -1 -1 -1 -1 -1 -1 -1 -1 -1 -1 -1 -1 -1 -1 -1 -1 -1 -1 -1 -1 -1 -1 -1 -1 -1 -1 -1 -1 -1 -1 -1 -1 -1 -1 -1 -1 -1 -1 -1 -1 -1 -1 -1 -1 -1 -1 -1 -1 -1 -1 -1 -1 -1 -1 -1 -1 -1 -1 -1 -1 -1 -1 -1 -1 -1 -1 -1 -1 -1 -1 -1 -1 -1 -1 -1 -1 -1 -1 -1 -1 -1 -1 -1 -1 -1 
104 104 104 104 104 150 196 226 209 192 175 159 142 125 108 105 104 103 102 102 102 102 102 102 102 102 102 112 121 131 141 145 136 127 118 109 117 111 106 100 95 95 99 103 107 111 115 119 123 127 131 135 139 143 147 152 156 160 164 168 172 176 180 184 188 192 196 200 209 225 240 25 136 137 138 139 140 141 141 142 143 144 145 145 146 147 148 149 150 150 151 152 153 154 155 155 156 157 158 159 160 160 161 162 193 225 245 245 245 245 244 244 244 244 244 244 244 244 244 244 244 244 244 244 244 241 239 236 233 230 227 224 222 219 216 210 205 199 194 229 146 154 161 168 176 183 191 198 205 213 220 227 235 242 250 251 251 251 251 251 251 252 252 252 252 249 247 244 241 239 236 233 230 228 225 222 220 217 214 212 209 206 203 201 198 195 193 190 187 185 182 179 176 174 171 168 166 163 160 158 155 152 149 147 147 151 154 157 161 164 167 170 174 179 184 189 194 199 203 207 211 214 218 222 226 229 233 237 241 244 248 252 172 248 248 249 249 249 249 249 250 250 250 250 250 251 251 251 251 251 252 252 252 252 253 252 250 249 247 242 237 233 228 224 219 215 210 206 201 197 192 187 183 178 174 169 165 160 156 151 147 142 142 152 162 172 182 192 202 212 222 232 242 252 174 96 93 97 101 105 109 113 117 121 125 129 133 138 142 146 150 154 158 162 166 170 174 178 182 186 190 -1 -1 -1 -1 -1 -1 -1 -1 -1 -1 -1 -1 -1 -1 -1 -1 -1 -1 -1 -1 -1 -1 -1 -1 -1 -1 -1 -1 -1 -1 -1 -1 -1 -1 -1 -1 -1 -1 -1 -1 -1 -1 -1 -1 -1 -1 -1 -1 -1 -1 -1 -1 -1 -1 -1 -1 -1 -1 -1 -1 -1 -1 -1 -1 -1 -1 -1 -1 -1 -1 -1 -1 -1 -1 -1 -1 -1 -1 -1 -1 -1 -1 -1 -1 -1 -1 -1 -1 -1 -1 -1 -1 -1 -1 -1 -1 -1 -1 -1 -1 -1 -1 -1 -1 -1 -1 -1 -1 -1 -1 -1 -1 -1 -1 -1 -1 -1 -1 -1 -1 -1 -1 -1 -1 -1 -1 -1 -1 -1 -1 -1 -1 -1 -1 -1 -1 -1 -1 -1 -1 -1 -1 -1 -1 -1 -1 -1 -1 -1 -1 -1 -1 -1 -1 -1 -1 -1 -1 -1 -1 
134 134 134 134 106 106 145 191 206 189 172 155 139 122 108 107 105 104 103 102 102 102 102 102 102 102 102 102 102 102 106 115 125 131 122 113 104 108 103 97 99 103 107 111 115 119 123 127 131 135 139 143 147 152 156 160 164 168 172 176 180 184 188 192 196 200 204 208 214 230 245 99 118 119 120 121 121 122 123 124 125 126 126 127 128 129 130 130 131 132 133 134 135 135 136 137 138 139 140 140 141 142 143 144 145 145 146 147 153 184 216 244 244 244 244 244 244 244 244 244 244 244 244 244 243 243 243 240 237 234 231 228 226 223 219 213 208 202 212 137 144 152 159 167 174 181 189 196 203 211 218 225 233 240 248 251 251 251 251 251 251 251 252 252 252 252 250 248 245 242 239 237 234 231 229 226 223 221 218 215 212 210 207 204 202 199 196 194 191 188 185 183 180 177 175 172 169 167 164 161 158 156 153 150 149 152 156 159 162 166 169 172 175 179 184 189 194 199 204 209 212 216 220 224 227 231 235 239 242 246 250 251 248 248 248 249 249 249 249 249 250 250 250 250 251 251 251 251 251 251 252 252 252 253 251 250 248 247 245 241 236 232 227 223 218 214 209 205 200 196 191 186 182 177 173 168 164 159 155 150 146 141 137 132 127 123 118 114 109 105 100 96 91 87 82 86 90 94 98 102 106 110 115 119 123 127 131 135 139 143 147 151 155 159 163 167 171 176 180 184 188 -1 -1 -1 -1 -1 -1 -1 -1 -1 -1 -1 -1 -1 -1 -1 -1 -1 -1 -1 -1 -1 -1 -1 -1 -1 -1 -1 -1 -1 -1 -1 -1 -1 -1 -1 -1 -1 -1 -1 -1 -1 -1 -1 -1 -1 -1 -1 -1 -1 -1 -1 -1 -1 -1 -1 -1 -1 -1 -1 -1 -1 -1 -1 -1 -1 -1 -1 -1 -1 -1 -1 -1 -1 -1 -1 -1 -1 -1 -1 -1 -1 -1 -1 -1 -1 -1 -1 -1 -1 -1 -1 -1 -1 -1 -1 -1 -1 -1 -1 -1 -1 -1 -1 -1 -1 -1 -1 -1 -1 -1 -1 -1 -1 -1 -1 -1 -1 -1 -1 -1 -1 -1 -1 -1 -1 -1 -1 -1 -1 -1 -1 -1 -1 -1 -1 -1 -1 -1 -1 -1 -1 -1 -1 -1 -1 -1 -1 -1 -1 -1 -1 -1 -1 -1 -1 -1 -1 -1 -1 -1 
164 164 164 140 107 108 108 141 187 186 169 152 135 118 109 108 107 106 104 103 102 102 102 102 102 102 102 102 102 102 103 103 103 103 109 117 108 106 100 103 107 111 115 119 123 127 131 135 139 143 148 152 156 160 164 168 172 176 180 184 188 192 196 200 204 208 212 216 220 234 250 99 100 101 101 102 103 104 105 106 106 107 108 109 110 110 111 112 113 114 115 115 116 117 118 119 120 120 121 122 123 124 125 125 126 127 128 129 129 130 131 132 133 144 175 207 238 244 244 243 243 243 243 243 243 243 243 243 241 238 235 233 230 227 222 216 211 162 128 135 143 150 157 165 172 179 187 194 201 209 216 224 231 238 246 250 251 251 251 251 251 251 251 252 252 252 252 251 248 246 243 240 238 235 232 230 227 224 221 219 216 213 211 208 205 203 200 197 194 192 189 186 184 181 178 176 173 170 167 165 162 159 157 154 151 154 157 161 164 167 171 174 177 180 185 190 195 199 204 209 214 218 222 225 229 233 237 240 244 248 252 250 248 248 248 249 249 249 249 250 250 250 250 250 250 251 251 251 251 251 252 252 252 250 249 248 246 245 243 240 235 231 226 222 217 213 208 204 199 195 190 186 181 176 172 167 163 158 154 149 145 140 136 131 126 122 117 113 108 104 99 95 90 86 83 83 87 92 96 100 104 108 112 116 120 124 128 132 136 140 144 148 153 157 161 165 169 173 177 181 185 -1 -1 -1 -1 -1 -1 -1 -1 -1 -1 -1 -1 -1 -1 -1 -1 -1 -1 -1 -1 -1 -1 -1 -1 -1 -1 -1 -1 -1 -1 -1 -1 -1 -1 -1 -1 -1 -1 -1 -1 -1 -1 -1 -1 -1 -1 -1 -1 -1 -1 -1 -1 -1 -1 -1 -1 -1 -1 -1 -1 -1 -1 -1 -1 -1 -1 -1 -1 -1 -1 -1 -1 -1 -1 -1 -1 -1 -1 -1 -1 -1 -1 -1 -1 -1 -1 -1 -1 -1 -1 -1 -1 -1 -1 -1 -1 -1 -1 -1 -1 -1 -1 -1 -1 -1 -1 -1 -1 -1 -1 -1 -1 -1 -1 -1 -1 -1 -1 -1 -1 -1 -1 -1 -1 -1 -1 -1 -1 -1 -1 -1 -1 -1 -1 -1 -1 -1 -1 -1 -1 -1 -1 -1 -1 -1 -1 -1 -1 -1 -1 -1 -1 -1 -1 -1 -1 -1 -1 -1 -1 
193 193 177 137 109 110 110 110 137 183 166 149 132 115 111 110 108 107 106 105 103 102 102 102 102 102 102 103 103 103 103 103 103 103 103 103 103 103 107 111 115 119 123 127 131 135 139 144 148 152 156 160 164 168 172 176 180 184 188 192 196 200 204 208 212 216 221 225 229 239 24 81 81 82 83 84 85 86 86 87 88 89 90 91 91 92 93 94 95 95 96 97 98 99 100 100 101 102 103 104 105 105 106 107 108 109 110 110 111 112 113 114 114 115 116 117 118 119 135 166 197 229 243 243 243 243 243 243 243 242 240 237 234 230 225 227 111 119 126 133 141 148 155 163 170 177 185 192 200 207 214 222 229 236 244 250 250 251 251 251 251 251 251 251 251 252 252 252 252 249 247 244 241 239 236 233 230 228 225 222 220 217 214 212 209 206 203 201 198 195 193 190 187 185 182 179 176 174 171 168 166 163 160 158 155 156 159 162 166 169 172 175 179 182 185 190 195 200 205 210 215 219 223 227 231 234 238 242 246 249 250 249 248 248 249 249 249 249 249 249 250 250 250 250 250 250 251 251 251 252 252 251 250 248 247 246 244 243 241 239 235 230 225 221 216 212 207 203 198 194 189 185 180 175 171 166 162 157 153 148 144 139 135 130 125 121 116 112 107 103 98 94 89 85 85 82 85 89 93 97 101 105 109 113 117 121 125 130 134 138 142 146 150 154 158 162 166 170 174 178 182 -1 -1 -1 -1 -1 -1 -1 -1 -1 -1 -1 -1 -1 -1 -1 -1 -1 -1 -1 -1 -1 -1 -1 -1 -1 -1 -1 -1 -1 -1 -1 -1 -1 -1 -1 -1 -1 -1 -1 -1 -1 -1 -1 -1 -1 -1 -1 -1 -1 -1 -1 -1 -1 -1 -1 -1 -1 -1 -1 -1 -1 -1 -1 -1 -1 -1 -1 -1 -1 -1 -1 -1 -1 -1 -1 -1 -1 -1 -1 -1 -1 -1 -1 -1 -1 -1 -1 -1 -1 -1 -1 -1 -1 -1 -1 -1 -1 -1 -1 -1 -1 -1 -1 -1 -1 -1 -1 -1 -1 -1 -1 -1 -1 -1 -1 -1 -1 -1 -1 -1 -1 -1 -1 -1 -1 -1 -1 -1 -1 -1 -1 -1 -1 -1 -1 -1 -1 -1 -1 -1 -1 -1 -1 -1 -1 -1 -1 -1 -1 -1 -1 -1 -1 -1 -1 -1 -1 -1 -1 -1 
223 215 175 135 111 111 112 112 112 132 162 146 129 113 112 111 110 109 107 106 105 104 102 102 103 103 103 103 103 103 103 103 103 103 103 103 103 103 107 113 109 105 101 96 92 88 84 79 83 102 120 139 157 176 180 184 188 192 196 200 204 208 212 217 221 225 229 233 237 244 61 62 63 64 65 66 66 67 68 69 70 71 71 72 73 74 75 76 76 77 78 79 80 80 81 82 83 84 85 85 86 87 88 89 90 90 91 92 93 94 94 95 96 97 98 99 99 100 101 102 103 104 104 126 157 188 220 243 242 242 242 241 238 233 177 102 109 117 124 131 139 146 153 161 168 176 183 190 198 205 212 220 227 234 242 249 250 250 250 251 251 251 251 251 251 251 252 252 252 252 250 248 245 242 239 237 234 231 229 226 223 221 218 215 212 210 207 204 202 199 196 194 191 188 185 183 180 177 175 172 169 167 164 161 158 157 161 164 167 171 174 177 180 184 187 190 195 200 205 210 215 220 225 229 232 236 240 244 247 251 23 248 248 248 249 249 249 249 249 249 250 250 250 250 250 251 251 251 252 252 251 249 248 246 245 243 242 241 239 238 234 229 224 220 215 211 206 202 197 193 188 184 179 174 170 165 161 156 152 147 143 138 134 129 125 120 115 111 106 102 97 93 88 84 86 82 83 86 90 94 98 102 106 111 115 119 123 127 131 135 139 143 147 151 155 159 163 167 172 176 180 -1 -1 -1 -1 -1 -1 -1 -1 -1 -1 -1 -1 -1 -1 -1 -1 -1 -1 -1 -1 -1 -1 -1 -1 -1 -1 -1 -1 -1 -1 -1 -1 -1 -1 -1 -1 -1 -1 -1 -1 -1 -1 -1 -1 -1 -1 -1 -1 -1 -1 -1 -1 -1 -1 -1 -1 -1 -1 -1 -1 -1 -1 -1 -1 -1 -1 -1 -1 -1 -1 -1 -1 -1 -1 -1 -1 -1 -1 -1 -1 -1 -1 -1 -1 -1 -1 -1 -1 -1 -1 -1 -1 -1 -1 -1 -1 -1 -1 -1 -1 -1 -1 -1 -1 -1 -1 -1 -1 -1 -1 -1 -1 -1 -1 -1 -1 -1 -1 -1 -1 -1 -1 -1 -1 -1 -1 -1 -1 -1 -1 -1 -1 -1 -1 -1 -1 -1 -1 -1 -1 -1 -1 -1 -1 -1 -1 -1 -1 -1 -1 -1 -1 -1 -1 -1 -1 -1 -1 -1 -1 
253 213 173 133 113 113 113 114 114 114 128 142 126 115 114 112 111 110 109 108 106 105 104 103 103 103 103 103 103 103 103 103 103 103 103 103 103 103 103 112 119 124 119 115 111 107 102 98 94 90 86 81 77 73 69 64 60 56 52 63 81 100 119 137 156 175 193 212 230 249 43 44 45 46 46 47 48 49 50 51 51 52 53 54 55 56 56 57 58 59 60 60 61 62 63 64 65 65 66 67 68 69 70 70 71 72 73 74 75 75 76 77 78 79 79 80 81 82 83 84 84 85 86 87 88 89 89 90 116 148 179 211 242 126 93 100 107 115 122 129 137 144 152 159 166 174 181 188 196 203 210 218 225 233 240 247 250 250 250 250 251 251 251 251 251 251 251 252 252 252 252 251 248 246 243 240 238 235 232 230 227 224 221 219 216 213 211 208 205 203 200 197 194 192 189 186 184 181 178 176 173 170 167 165 162 159 162 166 169 172 176 179 182 185 188 192 196 201 206 211 216 221 226 230 234 238 242 245 249 251 248 248 248 248 248 249 249 249 249 249 249 250 250 250 251 251 251 252 251 250 249 247 246 244 243 241 240 239 237 236 233 228 223 219 214 210 205 201 196 192 187 183 178 174 169 164 160 155 151 146 142 137 133 128 124 119 114 110 105 101 96 92 87 83 87 95 83 83 88 92 96 100 104 108 112 116 120 124 128 132 136 140 144 149 153 157 161 165 169 173 177 -1 -1 -1 -1 -1 -1 -1 -1 -1 -1 -1 -1 -1 -1 -1 -1 -1 -1 -1 -1 -1 -1 -1 -1 -1 -1 -1 -1 -1 -1 -1 -1 -1 -1 -1 -1 -1 -1 -1 -1 -1 -1 -1 -1 -1 -1 -1 -1 -1 -1 -1 -1 -1 -1 -1 -1 -1 -1 -1 -1 -1 -1 -1 -1 -1 -1 -1 -1 -1 -1 -1 -1 -1 -1 -1 -1 -1 -1 -1 -1 -1 -1 -1 -1 -1 -1 -1 -1 -1 -1 -1 -1 -1 -1 -1 -1 -1 -1 -1 -1 -1 -1 -1 -1 -1 -1 -1 -1 -1 -1 -1 -1 -1 -1 -1 -1 -1 -1 -1 -1 -1 -1 -1 -1 -1 -1 -1 -1 -1 -1 -1 -1 -1 -1 -1 -1 -1 -1 -1 -1 -1 -1 -1 -1 -1 -1 -1 -1 -1 -1 -1 -1 -1 -1 -1 -1 -1 -1 -1 -1 
104 211 170 130 114 115 115 115 116 116 117 123 122 116 115 114 113 111 110 109 108 106 105 104 103 103 103 103 103 103 103 103 103 103 103 103 103 103 104 106 116 125 129 134 130 125 121 117 113 109 104 100 96 92 87 83 79 75 70 66 62 58 54 49 45 41 37 32 28 24 25 26 26 27 28 29 30 31 31 32 33 34 35 36 36 37 38 39 40 41 41 42 43 44 45 45 46 47 48 49 50 50 51 52 53 54 55 55 56 57 58 59 59 60 61 62 63 64 64 65 66 67 68 69 69 70 71 72 73 74 74 75 76 83 91 98 105 113 120 128 135 142 150 157 164 172 179 186 194 201 209 216 223 231 238 245 250 250 250 250 250 251 251 251 251 251 251 251 251 252 252 252 252 249 247 244 241 239 236 233 230 228 225 222 220 217 214 212 209 206 203 201 198 195 193 190 187 185 182 179 176 174 171 168 166 163 164 167 171 174 177 180 184 187 190 193 197 201 206 211 216 221 226 231 236 239 243 247 251 248 173 248 248 248 248 248 249 249 249 249 250 250 250 251 251 251 252 251 249 248 246 245 244 242 241 239 238 236 235 234 232 227 223 218 213 209 204 200 195 191 186 182 177 173 168 163 159 154 150 145 141 136 132 127 123 118 113 109 104 100 95 91 86 82 89 96 83 83 85 89 93 97 101 105 109 113 117 121 126 130 134 138 142 146 150 154 158 162 166 170 174 -1 -1 -1 -1 -1 -1 -1 -1 -1 -1 -1 -1 -1 -1 -1 -1 -1 -1 -1 -1 -1 -1 -1 -1 -1 -1 -1 -1 -1 -1 -1 -1 -1 -1 -1 -1 -1 -1 -1 -1 -1 -1 -1 -1 -1 -1 -1 -1 -1 -1 -1 -1 -1 -1 -1 -1 -1 -1 -1 -1 -1 -1 -1 -1 -1 -1 -1 -1 -1 -1 -1 -1 -1 -1 -1 -1 -1 -1 -1 -1 -1 -1 -1 -1 -1 -1 -1 -1 -1 -1 -1 -1 -1 -1 -1 -1 -1 -1 -1 -1 -1 -1 -1 -1 -1 -1 -1 -1 -1 -1 -1 -1 -1 -1 -1 -1 -1 -1 -1 -1 -1 -1 -1 -1 -1 -1 -1 -1 -1 -1 -1 -1 -1 -1 -1 -1 -1 -1 -1 -1 -1 -1 -1 -1 -1 -1 -1 -1 -1 -1 -1 -1 -1 -1 -1 -1 -1 -1 -1 -1 
112 159 168 128 116 117 117 117 118 118 118 119 119 118 117 115 114 113 112 110 109 108 107 105 104 103 103 103 103 103 103 103 103 103 103 104 104 104 104 104 111 120 130 135 140 144 140 136 131 127 123 119 115 110 106 102 98 93 89 85 81 77 72 68 64 60 55 51 47 36 29 30 31 32 33 34 34 35 36 37 38 39 39 40 41 42 43 43 44 45 46 47 48 48 49 50 51 52 53 53 54 55 56 57 57 58 59 60 61 62 62 63 64 65 66 67 67 68 69 70 71 72 72 73 74 75 76 76 77 78 79 80 76 81 89 96 104 111 118 126 133 140 148 155 162 170 177 185 192 199 207 214 221 229 236 243 250 250 250 250 250 250 250 251 251 251 251 251 251 251 252 252 252 252 250 248 245 242 239 237 234 231 229 226 223 221 218 215 212 210 207 204 202 199 196 194 191 188 185 183 180 177 175 172 169 167 166 169 172 176 179 182 185 189 192 195 198 202 207 212 216 221 226 231 236 241 245 249 251 24 248 248 248 248 248 248 249 249 249 250 250 250 251 251 251 252 250 249 247 246 244 243 242 240 239 237 236 234 233 232 230 226 222 217 212 208 203 199 194 190 185 181 176 172 167 162 158 153 149 144 140 135 131 126 122 117 113 108 103 99 94 90 85 83 90 97 82 83 84 86 90 94 98 103 107 111 115 119 123 127 131 135 139 143 147 151 155 159 164 168 172 -1 -1 -1 -1 -1 -1 -1 -1 -1 -1 -1 -1 -1 -1 -1 -1 -1 -1 -1 -1 -1 -1 -1 -1 -1 -1 -1 -1 -1 -1 -1 -1 -1 -1 -1 -1 -1 -1 -1 -1 -1 -1 -1 -1 -1 -1 -1 -1 -1 -1 -1 -1 -1 -1 -1 -1 -1 -1 -1 -1 -1 -1 -1 -1 -1 -1 -1 -1 -1 -1 -1 -1 -1 -1 -1 -1 -1 -1 -1 -1 -1 -1 -1 -1 -1 -1 -1 -1 -1 -1 -1 -1 -1 -1 -1 -1 -1 -1 -1 -1 -1 -1 -1 -1 -1 -1 -1 -1 -1 -1 -1 -1 -1 -1 -1 -1 -1 -1 -1 -1 -1 -1 -1 -1 -1 -1 -1 -1 -1 -1 -1 -1 -1 -1 -1 -1 -1 -1 -1 -1 -1 -1 -1 -1 -1 -1 -1 -1 -1 -1 -1 -1 -1 -1 -1 -1 -1 -1 -1 -1 
121 115 166 126 118 118 119 119 119 120 133 146 116 116 116 116 116 114 113 112 111 109 108 107 106 104 103 103 103 103 103 103 104 104 104 104 104 104 104 104 106 115 125 134 141 146 150 154 150 146 142 138 133 129 125 121 116 112 108 104 100 95 91 87 83 78 74 70 66 48 37 35 36 37 37 38 39 40 41 41 42 43 44 45 46 46 47 48 49 50 51 51 52 53 54 55 56 56 57 58 59 60 60 61 62 63 64 65 65 66 67 68 69 70 70 71 72 73 74 74 75 76 77 78 79 79 80 81 82 83 84 81 77 80 87 94 102 109 116 124 131 138 146 153 161 168 175 183 190 197 205 212 219 227 234 242 249 250 250 250 250 250 250 250 251 251 251 251 251 251 251 252 252 252 252 251 248 246 243 240 238 235 232 230 227 224 221 219 216 213 211 208 205 203 200 197 194 192 189 186 184 181 178 176 173 170 167 171 174 177 181 184 187 190 194 197 200 203 207 212 217 222 227 232 237 242 247 250 138 98 247 248 248 248 248 248 249 249 249 250 250 250 251 251 251 249 248 247 245 244 242 241 239 238 237 235 234 232 231 229 228 225 221 216 211 207 202 198 193 189 184 180 175 171 166 162 157 152 148 143 139 134 130 125 121 116 112 107 102 98 93 89 84 84 92 99 95 83 84 84 88 92 96 100 104 108 112 116 120 124 128 132 136 141 145 149 153 157 161 165 169 -1 -1 -1 -1 -1 -1 -1 -1 -1 -1 -1 -1 -1 -1 -1 -1 -1 -1 -1 -1 -1 -1 -1 -1 -1 -1 -1 -1 -1 -1 -1 -1 -1 -1 -1 -1 -1 -1 -1 -1 -1 -1 -1 -1 -1 -1 -1 -1 -1 -1 -1 -1 -1 -1 -1 -1 -1 -1 -1 -1 -1 -1 -1 -1 -1 -1 -1 -1 -1 -1 -1 -1 -1 -1 -1 -1 -1 -1 -1 -1 -1 -1 -1 -1 -1 -1 -1 -1 -1 -1 -1 -1 -1 -1 -1 -1 -1 -1 -1 -1 -1 -1 -1 -1 -1 -1 -1 -1 -1 -1 -1 -1 -1 -1 -1 -1 -1 -1 -1 -1 -1 -1 -1 -1 -1 -1 -1 -1 -1 -1 -1 -1 -1 -1 -1 -1 -1 -1 -1 -1 -1 -1 -1 -1 -1 -1 -1 -1 -1 -1 -1 -1 -1 -1 -1 -1 -1 -1 -1 -1 
129 124 118 123 120 120 120 133 146 159 172 186 113 113 113 113 113 113 113 113 112 111 110 108 107 106 105 103 103 104 104 104 104 104 104 104 104 104 104 104 104 110 119 129 139 147 151 156 160 165 160 156 152 148 144 139 135 131 127 122 118 114 110 106 101 97 93 89 24 60 49 39 40 41 42 43 44 44 45 46 47 48 49 49 50 51 52 53 54 54 55 56 57 58 58 59 60 61 62 63 63 64 65 66 67 68 68 69 70 71 72 72 73 74 75 76 77 77 78 79 80 81 82 82 83 84 85 86 87 87 86 81 77 81 85 92 100 107 114 122 129 137 144 151 159 166 173 181 188 195 203 210 218 225 232 240 247 249 250 250 250 250 250 250 250 251 251 251 251 251 251 251 251 252 252 252 252 249 247 244 241 239 236 233 230 228 225 222 220 217 214 212 209 206 203 201 198 195 193 190 187 185 182 179 176 174 171 172 176 179 182 185 189 192 195 199 202 205 208 212 217 222 227 232 237 242 247 252 212 173 247 247 248 248 248 249 249 249 250 250 250 251 251 250 249 247 246 245 243 242 240 239 237 236 235 233 232 230 229 227 226 224 220 215 211 206 201 197 192 188 183 179 174 170 165 161 156 151 147 142 138 133 129 124 120 115 111 106 101 97 92 88 83 86 93 100 107 83 84 84 85 89 93 97 101 105 109 113 118 122 126 130 134 138 142 146 150 154 158 162 166 -1 -1 -1 -1 -1 -1 -1 -1 -1 -1 -1 -1 -1 -1 -1 -1 -1 -1 -1 -1 -1 -1 -1 -1 -1 -1 -1 -1 -1 -1 -1 -1 -1 -1 -1 -1 -1 -1 -1 -1 -1 -1 -1 -1 -1 -1 -1 -1 -1 -1 -1 -1 -1 -1 -1 -1 -1 -1 -1 -1 -1 -1 -1 -1 -1 -1 -1 -1 -1 -1 -1 -1 -1 -1 -1 -1 -1 -1 -1 -1 -1 -1 -1 -1 -1 -1 -1 -1 -1 -1 -1 -1 -1 -1 -1 -1 -1 -1 -1 -1 -1 -1 -1 -1 -1 -1 -1 -1 -1 -1 -1 -1 -1 -1 -1 -1 -1 -1 -1 -1 -1 -1 -1 -1 -1 -1 -1 -1 -1 -1 -1 -1 -1 -1 -1 -1 -1 -1 -1 -1 -1 -1 -1 -1 -1 -1 -1 -1 -1 -1 -1 -1 -1 -1 -1 -1 -1 -1 -1 -1 
138 132 127 121 134 147 160 173 186 199 212 111 111 110 110 110 110 110 110 110 110 110 110 110 109 107 106 105 104 104 104 104 104 104 104 104 104 104 104 104 104 105 114 124 133 143 152 157 162 166 171 175 171 167 162 158 154 150 145 141 137 133 129 124 120 116 112 107 83 72 61 50 45 46 47 47 48 49 50 51 52 52 53 54 55 56 56 57 58 59 60 61 61 62 63 64 65 66 66 67 68 69 70 70 71 72 73 74 75 75 76 77 78 79 80 80 81 82 83 84 85 85 86 87 88 89 89 90 91 91 86 82 77 81 85 90 98 105 113 120 127 135 142 149 157 164 171 179 186 194 201 208 216 223 230 238 245 249 249 250 250 250 250 250 250 250 250 251 251 251 251 251 251 251 252 252 252 252 250 248 245 242 239 237 234 231 229 226 223 221 218 215 212 210 207 204 202 199 196 194 191 188 185 183 180 177 175 174 177 181 184 187 190 194 197 200 203 207 210 213 218 223 228 233 238 243 247 194 24 247 247 248 248 248 249 249 249 250 250 250 251 251 250 248 247 245 244 242 241 240 238 237 235 234 232 231 230 228 227 225 224 222 219 214 210 205 200 196 191 187 182 178 173 169 164 160 155 150 146 141 137 132 128 123 119 114 110 105 101 96 91 87 82 87 94 101 109 83 83 84 85 86 90 94 99 103 107 111 115 119 123 127 131 135 139 143 147 151 155 160 164 -1 -1 -1 -1 -1 -1 -1 -1 -1 -1 -1 -1 -1 -1 -1 -1 -1 -1 -1 -1 -1 -1 -1 -1 -1 -1 -1 -1 -1 -1 -1 -1 -1 -1 -1 -1 -1 -1 -1 -1 -1 -1 -1 -1 -1 -1 -1 -1 -1 -1 -1 -1 -1 -1 -1 -1 -1 -1 -1 -1 -1 -1 -1 -1 -1 -1 -1 -1 -1 -1 -1 -1 -1 -1 -1 -1 -1 -1 -1 -1 -1 -1 -1 -1 -1 -1 -1 -1 -1 -1 -1 -1 -1 -1 -1 -1 -1 -1 -1 -1 -1 -1 -1 -1 -1 -1 -1 -1 -1 -1 -1 -1 -1 -1 -1 -1 -1 -1 -1 -1 -1 -1 -1 -1 -1 -1 -1 -1 -1 -1 -1 -1 -1 -1 -1 -1 -1 -1 -1 -1 -1 -1 -1 -1 -1 -1 -1 -1 -1 -1 -1 -1 -1 -1 -1 -1 -1 -1 -1 -1 
146 141 135 134 128 122 116 133 173 212 252 108 108 108 108 108 108 107 107 107 107 107 107 107 107 107 107 106 105 104 104 104 104 104 104 104 104 104 104 104 104 105 109 119 128 138 147 157 163 168 172 176 181 185 181 177 173 168 164 160 156 151 147 143 139 135 130 126 95 84 73 62 50 50 51 52 53 54 54 55 56 57 58 59 59 60 61 62 63 64 64 65 66 67 68 68 69 70 71 72 73 73 74 75 76 77 78 78 79 80 81 82 83 83 84 85 86 87 87 88 89 90 91 92 92 93 94 95 95 91 86 82 77 81 85 89 96 103 111 118 125 133 140 147 155 162 170 177 184 192 199 206 214 221 228 236 243 249 249 249 249 250 250 250 250 250 250 250 251 251 251 251 251 251 251 252 252 252 252 251 248 246 243 240 238 235 232 230 227 224 221 219 216 213 211 208 205 203 200 197 194 192 189 186 184 181 178 176 179 182 186 189 192 195 199 202 205 208 212 215 218 223 228 233 238 243 248 136 97 247 248 248 248 249 249 249 250 250 250 251 250 249 248 246 245 243 242 240 239 238 236 235 233 232 230 229 228 226 225 223 222 220 218 213 209 204 200 195 190 186 181 177 172 168 163 159 154 150 145 140 136 131 127 122 118 113 109 104 100 95 90 86 81 89 96 103 110 83 83 84 85 85 88 92 96 100 104 108 112 116 120 124 128 132 137 141 145 149 153 157 161 -1 -1 -1 -1 -1 -1 -1 -1 -1 -1 -1 -1 -1 -1 -1 -1 -1 -1 -1 -1 -1 -1 -1 -1 -1 -1 -1 -1 -1 -1 -1 -1 -1 -1 -1 -1 -1 -1 -1 -1 -1 -1 -1 -1 -1 -1 -1 -1 -1 -1 -1 -1 -1 -1 -1 -1 -1 -1 -1 -1 -1 -1 -1 -1 -1 -1 -1 -1 -1 -1 -1 -1 -1 -1 -1 -1 -1 -1 -1 -1 -1 -1 -1 -1 -1 -1 -1 -1 -1 -1 -1 -1 -1 -1 -1 -1 -1 -1 -1 -1 -1 -1 -1 -1 -1 -1 -1 -1 -1 -1 -1 -1 -1 -1 -1 -1 -1 -1 -1 -1 -1 -1 -1 -1 -1 -1 -1 -1 -1 -1 -1 -1 -1 -1 -1 -1 -1 -1 -1 -1 -1 -1 -1 -1 -1 -1 -1 -1 -1 -1 -1 -1 -1 -1 -1 -1 -1 -1 -1 -1 
155 149 144 147 141 135 129 123 117 111 105 105 105 105 105 105 105 105 105 105 105 104 104 104 104 104 104 104 104 104 104 104 104 104 104 104 104 104 105 105 105 105 105 113 123 132 142 152 161 169 174 178 182 187 191 196 191 187 183 179 174 170 166 162 158 153 149 24 107 96 85 74 62 55 56 57 57 58 59 60 61 62 62 63 64 65 66 67 67 68 69 70 71 71 72 73 74 75 76 76 77 78 79 80 81 81 82 83 84 85 85 86 87 88 89 90 90 91 92 93 94 95 95 96 97 98 99 100 96 91 87 82 78 81 85 89 94 101 109 116 123 131 138 146 153 160 168 175 182 190 197 204 212 219 227 234 241 249 249 249 249 249 250 250 250 250 250 250 250 251 251 251 251 251 251 251 251 252 252 252 252 249 247 244 241 239 236 233 230 228 225 222 220 217 214 212 209 206 203 201 198 195 193 190 187 185 182 179 181 184 187 190 194 197 200 204 207 210 213 216 220 224 229 234 238 243 248 78 170 248 248 248 249 249 249 250 250 250 251 250 248 247 245 244 243 241 240 238 237 235 234 233 231 230 228 227 225 224 223 221 220 218 217 212 208 203 199 194 189 185 180 176 171 167 162 158 153 149 144 139 135 130 126 121 117 112 108 103 99 94 90 85 83 90 97 104 111 119 83 84 84 85 86 89 93 97 101 105 109 114 118 122 126 130 134 138 142 146 150 154 158 -1 -1 -1 -1 -1 -1 -1 -1 -1 -1 -1 -1 -1 -1 -1 -1 -1 -1 -1 -1 -1 -1 -1 -1 -1 -1 -1 -1 -1 -1 -1 -1 -1 -1 -1 -1 -1 -1 -1 -1 -1 -1 -1 -1 -1 -1 -1 -1 -1 -1 -1 -1 -1 -1 -1 -1 -1 -1 -1 -1 -1 -1 -1 -1 -1 -1 -1 -1 -1 -1 -1 -1 -1 -1 -1 -1 -1 -1 -1 -1 -1 -1 -1 -1 -1 -1 -1 -1 -1 -1 -1 -1 -1 -1 -1 -1 -1 -1 -1 -1 -1 -1 -1 -1 -1 -1 -1 -1 -1 -1 -1 -1 -1 -1 -1 -1 -1 -1 -1 -1 -1 -1 -1 -1 -1 -1 -1 -1 -1 -1 -1 -1 -1 -1 -1 -1 -1 -1 -1 -1 -1 -1 -1 -1 -1 -1 -1 -1 -1 -1 -1 -1 -1 -1 -1 -1 -1 -1 -1 -1 
163 158 152 160 154 148 142 136 130 124 109 114 118 118 118 118 118 118 118 118 118 118 118 118 118 117 117 117 117 117 104 104 104 104 104 104 105 105 105 105 105 105 105 108 118 127 137 146 156 165 175 179 184 188 193 197 201 206 202 197 193 189 185 181 176 172 168 99 119 108 97 86 74 63 60 61 62 63 64 65 65 66 67 68 69 69 70 71 72 73 74 74 75 76 77 78 79 79 80 81 82 83 83 84 85 86 87 88 88 89 90 91 92 93 93 94 95 96 97 98 98 99 100 101 102 102 103 100 96 91 87 82 78 81 85 89 93 99 107 114 122 129 136 144 151 158 166 173 180 188 195 203 210 217 225 232 239 247 249 249 249 249 249 250 250 250 250 250 250 250 250 251 251 251 251 251 251 251 252 252 252 252 250 248 245 242 239 237 234 231 229 226 223 221 218 215 212 210 207 204 202 199 196 194 191 188 185 183 182 186 189 192 195 199 202 205 209 212 215 218 221 225 229 234 239 244 249 20 248 248 248 249 249 249 250 250 250 251 249 248 246 245 243 242 241 239 238 236 235 233 232 231 229 228 226 225 223 222 221 219 218 216 215 211 207 202 198 193 188 184 179 175 170 166 161 157 152 148 143 139 134 129 125 120 116 111 107 102 98 93 89 84 84 91 98 106 113 120 83 84 84 85 86 86 91 95 99 103 107 111 115 119 123 127 131 135 139 143 147 152 156 -1 -1 -1 -1 -1 -1 -1 -1 -1 -1 -1 -1 -1 -1 -1 -1 -1 -1 -1 -1 -1 -1 -1 -1 -1 -1 -1 -1 -1 -1 -1 -1 -1 -1 -1 -1 -1 -1 -1 -1 -1 -1 -1 -1 -1 -1 -1 -1 -1 -1 -1 -1 -1 -1 -1 -1 -1 -1 -1 -1 -1 -1 -1 -1 -1 -1 -1 -1 -1 -1 -1 -1 -1 -1 -1 -1 -1 -1 -1 -1 -1 -1 -1 -1 -1 -1 -1 -1 -1 -1 -1 -1 -1 -1 -1 -1 -1 -1 -1 -1 -1 -1 -1 -1 -1 -1 -1 -1 -1 -1 -1 -1 -1 -1 -1 -1 -1 -1 -1 -1 -1 -1 -1 -1 -1 -1 -1 -1 -1 -1 -1 -1 -1 -1 -1 -1 -1 -1 -1 -1 -1 -1 -1 -1 -1 -1 -1 -1 -1 -1 -1 -1 -1 -1 -1 -1 -1 -1 -1 -1 
172 166 161 173 167 161 155 149 143 130 113 109 124 131 131 131 131 131 131 131 131 131 131 131 131 131 131 131 131 104 104 104 104 105 105 105 105 105 105 105 105 105 105 105 113 122 132 141 151 160 170 179 185 190 194 199 203 207 212 216 212 208 203 199 195 191 187 143 131 120 109 98 86 75 65 66 67 67 68 69 70 71 72 72 73 74 75 76 77 77 78 79 80 81 81 82 83 84 85 86 86 87 88 89 90 91 91 92 93 94 95 96 96 97 98 99 100 100 101 102 103 104 105 105 106 107 105 101 96 92 87 83 78 81 85 89 94 98 105 112 120 127 134 142 149 156 164 171 179 186 193 201 208 215 223 230 237 245 249 249 249 249 249 249 249 250 250 250 250 250 250 250 251 251 251 251 251 251 251 252 252 252 252 251 248 246 243 240 238 235 232 230 227 224 221 219 216 213 211 208 205 203 200 197 194 192 189 186 184 187 191 194 197 200 204 207 210 214 217 220 223 226 230 234 239 244 202 93 248 248 248 249 249 249 250 250 250 248 247 246 244 243 241 240 238 237 236 234 233 231 230 228 227 226 224 223 221 220 218 217 216 214 213 210 206 201 197 192 188 183 178 174 169 165 160 156 151 147 142 138 133 128 124 119 115 110 106 101 97 92 88 83 85 93 100 107 114 121 83 83 84 85 85 86 88 92 96 100 104 108 112 116 120 124 129 133 137 141 145 149 153 -1 -1 -1 -1 -1 -1 -1 -1 -1 -1 -1 -1 -1 -1 -1 -1 -1 -1 -1 -1 -1 -1 -1 -1 -1 -1 -1 -1 -1 -1 -1 -1 -1 -1 -1 -1 -1 -1 -1 -1 -1 -1 -1 -1 -1 -1 -1 -1 -1 -1 -1 -1 -1 -1 -1 -1 -1 -1 -1 -1 -1 -1 -1 -1 -1 -1 -1 -1 -1 -1 -1 -1 -1 -1 -1 -1 -1 -1 -1 -1 -1 -1 -1 -1 -1 -1 -1 -1 -1 -1 -1 -1 -1 -1 -1 -1 -1 -1 -1 -1 -1 -1 -1 -1 -1 -1 -1 -1 -1 -1 -1 -1 -1 -1 -1 -1 -1 -1 -1 -1 -1 -1 -1 -1 -1 -1 -1 -1 -1 -1 -1 -1 -1 -1 -1 -1 -1 -1 -1 -1 -1 -1 -1 -1 -1 -1 -1 -1 -1 -1 -1 -1 -1 -1 -1 -1 -1 -1 -1 -1 
180 175 158 187 180 174 168 162 150 134 118 105 119 133 145 144 144 144 144 144 144 144 144 144 144 144 144 144 144 104 104 104 105 105 105 105 105 105 105 105 105 105 105 105 107 117 126 136 145 155 165 174 184 191 196 200 204 209 213 218 222 226 222 218 214 210 24 155 143 132 121 110 98 87 76 70 71 72 73 74 75 75 76 77 78 79 79 80 81 82 83 84 84 85 86 87 88 89 89 90 91 92 93 94 94 95 96 97 98 98 99 100 101 102 103 103 104 105 106 107 108 108 109 110 111 110 105 101 96 92 88 83 79 81 85 90 94 98 103 110 118 125 132 140 147 155 162 169 177 184 191 199 206 213 221 228 236 243 249 249 249 249 249 249 249 249 250 250 250 250 250 250 250 251 251 251 251 251 251 251 251 252 252 252 252 249 247 244 241 239 236 233 230 228 225 222 220 217 214 212 209 206 203 201 198 195 193 190 187 189 192 195 199 202 205 209 212 215 218 222 225 228 231 235 240 245 109 171 248 248 249 249 249 250 250 249 248 246 245 244 242 241 239 238 236 235 234 232 231 229 228 226 225 224 222 221 219 218 216 215 214 212 211 209 205 200 196 191 187 182 177 173 168 164 159 155 150 146 141 137 132 127 123 118 114 109 105 100 96 91 87 82 87 94 101 108 115 123 109 83 84 85 85 86 87 89 93 97 101 106 110 114 118 122 126 130 134 138 142 146 150 -1 -1 -1 -1 -1 -1 -1 -1 -1 -1 -1 -1 -1 -1 -1 -1 -1 -1 -1 -1 -1 -1 -1 -1 -1 -1 -1 -1 -1 -1 -1 -1 -1 -1 -1 -1 -1 -1 -1 -1 -1 -1 -1 -1 -1 -1 -1 -1 -1 -1 -1 -1 -1 -1 -1 -1 -1 -1 -1 -1 -1 -1 -1 -1 -1 -1 -1 -1 -1 -1 -1 -1 -1 -1 -1 -1 -1 -1 -1 -1 -1 -1 -1 -1 -1 -1 -1 -1 -1 -1 -1 -1 -1 -1 -1 -1 -1 -1 -1 -1 -1 -1 -1 -1 -1 -1 -1 -1 -1 -1 -1 -1 -1 -1 -1 -1 -1 -1 -1 -1 -1 -1 -1 -1 -1 -1 -1 -1 -1 -1 -1 -1 -1 -1 -1 -1 -1 -1 -1 -1 -1 -1 -1 -1 -1 -1 -1 -1 -1 -1 -1 -1 -1 -1 -1 -1 -1 -1 -1 -1 
189 183 149 200 194 188 182 170 154 138 122 106 114 128 142 156 158 158 158 158 157 157 157 157 157 157 157 157 104 104 105 105 105 105 105 105 105 105 105 105 105 105 105 106 106 112 121 131 140 150 159 169 178 188 197 201 206 210 215 219 223 228 232 237 232 228 99 167 155 144 133 122 110 99 88 77 76 77 78 78 79 80 81 82 82 83 84 85 86 87 87 88 89 90 91 92 92 93 94 95 96 96 97 98 99 100 101 101 102 103 104 105 106 106 107 108 109 110 111 111 112 113 114 115 115 110 106 101 97 92 88 83 79 81 86 90 94 98 102 108 116 123 131 138 145 153 160 167 175 182 189 197 204 212 219 226 234 241 248 248 249 249 249 249 249 249 249 250 250 250 250 250 250 250 250 251 251 251 251 251 251 251 252 252 252 252 250 248 245 242 239 237 234 231 229 226 223 221 218 215 212 210 207 204 202 199 196 194 191 191 194 197 200 204 207 210 214 217 220 223 227 230 233 236 240 245 16 248 248 249 249 249 250 250 249 247 246 244 243 241 240 239 237 236 234 233 231 230 229 227 226 224 223 221 220 219 217 216 214 213 211 210 209 207 204 199 195 190 186 181 176 172 167 163 158 154 149 145 140 136 131 127 122 117 113 108 104 99 95 90 86 81 88 95 103 110 117 124 131 83 84 84 85 86 86 87 91 95 99 103 107 111 115 119 123 127 131 135 139 143 148 -1 -1 -1 -1 -1 -1 -1 -1 -1 -1 -1 -1 -1 -1 -1 -1 -1 -1 -1 -1 -1 -1 -1 -1 -1 -1 -1 -1 -1 -1 -1 -1 -1 -1 -1 -1 -1 -1 -1 -1 -1 -1 -1 -1 -1 -1 -1 -1 -1 -1 -1 -1 -1 -1 -1 -1 -1 -1 -1 -1 -1 -1 -1 -1 -1 -1 -1 -1 -1 -1 -1 -1 -1 -1 -1 -1 -1 -1 -1 -1 -1 -1 -1 -1 -1 -1 -1 -1 -1 -1 -1 -1 -1 -1 -1 -1 -1 -1 -1 -1 -1 -1 -1 -1 -1 -1 -1 -1 -1 -1 -1 -1 -1 -1 -1 -1 -1 -1 -1 -1 -1 -1 -1 -1 -1 -1 -1 -1 -1 -1 -1 -1 -1 -1 -1 -1 -1 -1 -1 -1 -1 -1 -1 -1 -1 -1 -1 -1 -1 -1 -1 -1 -1 -1 -1 -1 -1 -1 -1 -1 
197 192 140 213 207 201 191 175 159 142 126 110 109 123 137 152 166 171 171 171 171 171 171 171 171 170 170 170 104 105 105 105 105 105 105 105 105 105 105 105 105 106 106 106 106 106 116 126 135 145 154 164 173 183 192 202 207 212 216 221 225 229 234 238 243 247 174 179 167 156 145 134 122 111 100 89 80 81 82 83 84 85 85 86 87 88 89 90 90 91 92 93 94 94 95 96 97 98 99 99 100 101 102 103 104 104 105 106 107 108 109 109 110 111 112 113 113 114 115 116 117 118 118 119 115 110 106 101 97 93 88 84 79 82 86 90 94 98 102 106 114 121 129 136 143 151 158 165 173 180 188 195 202 210 217 224 232 239 246 248 248 249 249 249 249 249 249 249 249 250 250 250 250 250 250 250 251 251 251 251 251 251 251 252 252 252 252 251 248 246 243 240 238 235 232 230 227 224 221 219 216 213 211 208 205 203 200 197 194 192 196 199 202 205 209 212 215 219 222 225 228 232 235 238 241 246 94 248 249 249 249 250 249 248 247 245 244 242 241 239 238 237 235 234 232 231 229 228 227 225 224 222 221 219 218 217 215 214 212 211 209 208 207 205 203 198 194 189 185 180 176 171 166 162 157 153 148 144 139 135 130 126 121 116 112 107 103 98 94 89 85 82 90 97 104 111 118 125 133 83 84 84 85 86 86 87 88 92 96 100 104 108 112 116 120 125 129 133 137 141 145 -1 -1 -1 -1 -1 -1 -1 -1 -1 -1 -1 -1 -1 -1 -1 -1 -1 -1 -1 -1 -1 -1 -1 -1 -1 -1 -1 -1 -1 -1 -1 -1 -1 -1 -1 -1 -1 -1 -1 -1 -1 -1 -1 -1 -1 -1 -1 -1 -1 -1 -1 -1 -1 -1 -1 -1 -1 -1 -1 -1 -1 -1 -1 -1 -1 -1 -1 -1 -1 -1 -1 -1 -1 -1 -1 -1 -1 -1 -1 -1 -1 -1 -1 -1 -1 -1 -1 -1 -1 -1 -1 -1 -1 -1 -1 -1 -1 -1 -1 -1 -1 -1 -1 -1 -1 -1 -1 -1 -1 -1 -1 -1 -1 -1 -1 -1 -1 -1 -1 -1 -1 -1 -1 -1 -1 -1 -1 -1 -1 -1 -1 -1 -1 -1 -1 -1 -1 -1 -1 -1 -1 -1 -1 -1 -1 -1 -1 -1 -1 -1 -1 -1 -1 -1 -1 -1 -1 -1 -1 -1 
206 200 131 226 220 211 195 179 163 147 130 114 104 118 133 147 161 175 184 184 184 184 184 184 184 184 184 105 105 105 105 105 105 105 105 105 105 105 106 106 106 106 106 106 106 106 111 120 130 139 149 159 168 178 187 197 206 213 218 222 226 231 235 240 244 24 202 191 179 168 157 146 134 123 112 101 89 86 87 88 88 89 90 91 92 92 93 94 95 96 97 97 98 99 100 101 102 102 103 104 105 106 107 107 108 109 110 111 111 112 113 114 115 116 116 117 118 119 120 121 121 122 123 120 115 111 106 102 97 93 88 84 79 82 86 90 94 98 102 107 112 119 127 134 141 149 156 163 171 178 186 193 200 208 215 222 230 237 245 248 248 248 249 249 249 249 249 249 249 249 250 250 250 250 250 250 250 251 251 251 251 251 251 251 251 252 252 252 252 249 247 244 241 239 236 233 230 228 225 222 220 217 214 212 209 206 203 201 198 195 197 200 204 207 210 214 217 220 224 227 230 233 236 240 243 246 171 249 249 249 250 249 247 246 244 243 242 240 239 237 236 234 233 232 230 229 227 226 224 223 222 220 219 217 216 214 213 212 210 209 207 206 204 203 202 197 193 188 184 179 175 170 165 161 156 152 147 143 138 134 129 125 120 115 111 106 102 97 93 88 84 84 91 98 105 112 120 127 134 96 84 84 85 86 86 87 87 89 93 97 102 106 110 114 118 122 126 130 134 138 142 -1 -1 -1 -1 -1 -1 -1 -1 -1 -1 -1 -1 -1 -1 -1 -1 -1 -1 -1 -1 -1 -1 -1 -1 -1 -1 -1 -1 -1 -1 -1 -1 -1 -1 -1 -1 -1 -1 -1 -1 -1 -1 -1 -1 -1 -1 -1 -1 -1 -1 -1 -1 -1 -1 -1 -1 -1 -1 -1 -1 -1 -1 -1 -1 -1 -1 -1 -1 -1 -1 -1 -1 -1 -1 -1 -1 -1 -1 -1 -1 -1 -1 -1 -1 -1 -1 -1 -1 -1 -1 -1 -1 -1 -1 -1 -1 -1 -1 -1 -1 -1 -1 -1 -1 -1 -1 -1 -1 -1 -1 -1 -1 -1 -1 -1 -1 -1 -1 -1 -1 -1 -1 -1 -1 -1 -1 -1 -1 -1 -1 -1 -1 -1 -1 -1 -1 -1 -1 -1 -1 -1 -1 -1 -1 -1 -1 -1 -1 -1 -1 -1 -1 -1 -1 -1 -1 -1 -1 -1 -1 
214 203 123 239 232 215 199 183 167 151 135 119 102 114 128 142 156 170 184 197 197 197 197 197 197 197 197 105 105 105 105 105 105 105 105 105 105 106 106 106 106 106 106 106 106 106 106 115 125 134 144 153 163 172 182 191 201 211 219 223 228 232 237 241 246 99 214 203 191 180 169 158 146 135 124 113 101 90 91 92 93 94 95 95 96 97 98 99 100 100 101 102 103 104 105 105 106 107 108 109 109 110 111 112 113 114 114 115 116 117 118 119 119 120 121 122 123 124 124 125 126 127 124 120 115 111 106 102 98 93 89 84 80 82 86 90 94 98 103 107 111 117 125 132 139 147 154 162 169 176 184 191 198 206 213 220 228 235 243 248 248 248 248 248 249 249 249 249 249 249 249 250 250 250 250 250 250 250 250 251 251 251 251 251 251 251 252 252 252 252 250 248 245 242 239 237 234 231 229 226 223 221 218 215 212 210 207 204 202 199 199 202 205 209 212 215 219 222 225 228 232 235 238 241 245 25 249 249 249 250 248 247 245 244 242 241 240 238 237 235 234 232 231 230 228 227 225 224 222 221 220 218 217 215 214 212 211 210 208 207 205 204 202 201 200 196 192 187 183 178 174 169 164 160 155 151 146 142 137 133 128 124 119 115 110 105 101 96 92 87 83 85 92 99 107 114 121 128 135 134 83 84 85 85 86 87 87 88 91 95 99 103 107 111 115 119 123 127 131 135 140 -1 -1 -1 -1 -1 -1 -1 -1 -1 -1 -1 -1 -1 -1 -1 -1 -1 -1 -1 -1 -1 -1 -1 -1 -1 -1 -1 -1 -1 -1 -1 -1 -1 -1 -1 -1 -1 -1 -1 -1 -1 -1 -1 -1 -1 -1 -1 -1 -1 -1 -1 -1 -1 -1 -1 -1 -1 -1 -1 -1 -1 -1 -1 -1 -1 -1 -1 -1 -1 -1 -1 -1 -1 -1 -1 -1 -1 -1 -1 -1 -1 -1 -1 -1 -1 -1 -1 -1 -1 -1 -1 -1 -1 -1 -1 -1 -1 -1 -1 -1 -1 -1 -1 -1 -1 -1 -1 -1 -1 -1 -1 -1 -1 -1 -1 -1 -1 -1 -1 -1 -1 -1 -1 -1 -1 -1 -1 -1 -1 -1 -1 -1 -1 -1 -1 -1 -1 -1 -1 -1 -1 -1 -1 -1 -1 -1 -1 -1 -1 -1 -1 -1 -1 -1 -1 -1 -1 -1 -1 -1 
223 194 114 252 236 220 204 187 171 155 139 123 107 109 123 137 151 165 180 194 208 210 210 210 210 210 105 105 105 105 105 105 105 105 105 106 106 106 106 106 106 106 106 106 106 106 106 110 119 129 139 148 158 167 177 186 196 205 215 224 229 234 238 243 247 174 226 215 203 192 181 170 158 147 136 125 113 102 96 97 98 98 99 100 101 102 103 103 104 105 106 107 107 108 109 110 111 112 112 113 114 115 116 117 117 118 119 120 121 122 122 123 124 125 126 126 127 128 129 130 131 129 125 120 116 111 107 102 98 93 89 85 80 82 86 90 94 99 103 107 111 115 123 130 138 145 152 160 167 174 182 189 196 204 211 219 226 233 241 248 248 248 248 248 248 249 249 249 249 249 249 249 249 250 250 250 250 250 250 250 251 251 251 251 251 251 251 252 252 252 252 251 248 246 243 240 238 235 232 230 227 224 221 219 216 213 211 208 205 203 201 204 207 210 214 217 220 224 227 230 233 237 240 243 246 100 249 249 249 247 246 245 243 242 240 239 237 236 235 233 232 230 229 227 226 225 223 222 220 219 217 216 215 213 212 210 209 207 206 205 203 202 200 199 197 195 191 186 182 177 173 168 164 159 154 150 145 141 136 132 127 123 118 114 109 104 100 95 91 86 82 87 94 101 108 115 122 129 137 144 83 84 85 85 86 87 87 88 88 92 96 100 104 108 112 117 121 125 129 133 137 -1 -1 -1 -1 -1 -1 -1 -1 -1 -1 -1 -1 -1 -1 -1 -1 -1 -1 -1 -1 -1 -1 -1 -1 -1 -1 -1 -1 -1 -1 -1 -1 -1 -1 -1 -1 -1 -1 -1 -1 -1 -1 -1 -1 -1 -1 -1 -1 -1 -1 -1 -1 -1 -1 -1 -1 -1 -1 -1 -1 -1 -1 -1 -1 -1 -1 -1 -1 -1 -1 -1 -1 -1 -1 -1 -1 -1 -1 -1 -1 -1 -1 -1 -1 -1 -1 -1 -1 -1 -1 -1 -1 -1 -1 -1 -1 -1 -1 -1 -1 -1 -1 -1 -1 -1 -1 -1 -1 -1 -1 -1 -1 -1 -1 -1 -1 -1 -1 -1 -1 -1 -1 -1 -1 -1 -1 -1 -1 -1 -1 -1 -1 -1 -1 -1 -1 -1 -1 -1 -1 -1 -1 -1 -1 -1 -1 -1 -1 -1 -1 -1 -1 -1 -1 -1 -1 -1 -1 -1 -1 
231 185 105 223 232 240 249 221 176 159 143 127 111 104 118 132 146 161 175 189 203 217 224 224 224 223 105 105 105 105 105 105 105 105 106 106 106 106 106 106 106 106 106 106 106 106 107 107 114 124 133 143 152 162 172 181 191 200 210 219 229 235 240 244 173 249 238 227 215 204 193 182 170 159 148 137 125 114 103 101 102 103 104 105 105 106 107 108 109 110 110 111 112 113 114 115 115 116 117 118 119 120 120 121 122 123 124 124 125 126 127 128 129 129 130 131 132 133 134 134 134 129 125 120 116 112 107 103 98 94 89 85 80 82 86 90 94 99 103 107 111 115 121 128 136 143 150 158 165 172 180 187 195 202 209 217 224 231 239 246 248 248 248 248 248 248 249 249 249 249 249 249 249 249 250 250 250 250 250 250 250 251 251 251 251 251 251 251 251 252 252 252 252 249 247 244 241 239 236 233 230 228 225 222 220 217 214 212 209 206 203 206 209 212 215 219 222 225 229 232 235 238 242 245 248 174 249 248 247 245 244 243 241 240 238 237 235 234 233 231 230 228 227 225 224 223 221 220 218 217 215 214 213 211 210 208 207 205 204 203 201 200 198 197 195 194 190 185 181 176 172 167 163 158 153 149 144 140 135 131 126 122 117 113 108 103 99 94 90 85 81 88 95 102 109 117 124 131 138 145 83 84 84 85 86 86 87 88 88 89 94 98 102 106 110 114 118 122 126 130 134 -1 -1 -1 -1 -1 -1 -1 -1 -1 -1 -1 -1 -1 -1 -1 -1 -1 -1 -1 -1 -1 -1 -1 -1 -1 -1 -1 -1 -1 -1 -1 -1 -1 -1 -1 -1 -1 -1 -1 -1 -1 -1 -1 -1 -1 -1 -1 -1 -1 -1 -1 -1 -1 -1 -1 -1 -1 -1 -1 -1 -1 -1 -1 -1 -1 -1 -1 -1 -1 -1 -1 -1 -1 -1 -1 -1 -1 -1 -1 -1 -1 -1 -1 -1 -1 -1 -1 -1 -1 -1 -1 -1 -1 -1 -1 -1 -1 -1 -1 -1 -1 -1 -1 -1 -1 -1 -1 -1 -1 -1 -1 -1 -1 -1 -1 -1 -1 -1 -1 -1 -1 -1 -1 -1 -1 -1 -1 -1 -1 -1 -1 -1 -1 -1 -1 -1 -1 -1 -1 -1 -1 -1 -1 -1 -1 -1 -1 -1 -1 -1 -1 -1 -1 -1 -1 -1 -1 -1 -1 -1 
240 177 120 194 203 211 220 228 237 245 236 190 145 99 113 127 142 156 170 184 198 212 227 237 237 105 105 105 105 105 105 105 105 106 106 106 106 106 106 106 106 106 106 106 107 107 107 107 109 119 128 138 147 157 166 176 185 195 204 214 224 233 241 246 248 218 248 239 227 216 205 194 182 171 160 149 137 126 115 106 107 108 108 109 110 111 112 113 113 114 115 116 117 118 118 119 120 121 122 122 123 124 125 126 127 127 128 129 130 131 132 132 133 134 135 136 137 137 138 139 134 130 125 121 116 112 107 103 98 94 90 85 81 82 86 90 95 99 103 107 111 115 119 126 134 141 148 156 163 171 178 185 193 200 207 215 222 229 237 244 248 248 248 248 248 248 248 248 249 249 249 249 249 249 249 250 250 250 250 250 250 250 250 251 251 251 251 251 251 251 252 252 252 252 250 248 245 242 239 237 234 231 229 226 223 221 218 215 212 210 207 207 210 214 217 220 224 227 230 233 237 240 243 247 175 249 248 246 245 243 242 240 239 238 236 235 233 232 230 229 228 226 225 223 222 220 219 218 216 215 213 212 210 209 208 206 205 203 202 200 199 198 196 195 193 192 189 184 180 175 171 166 162 157 152 148 143 139 134 130 125 121 116 112 107 103 98 93 89 84 82 89 96 104 111 118 125 132 139 147 122 84 84 85 86 86 87 88 88 89 91 95 99 103 107 111 115 119 123 127 131 -1 -1 -1 -1 -1 -1 -1 -1 -1 -1 -1 -1 -1 -1 -1 -1 -1 -1 -1 -1 -1 -1 -1 -1 -1 -1 -1 -1 -1 -1 -1 -1 -1 -1 -1 -1 -1 -1 -1 -1 -1 -1 -1 -1 -1 -1 -1 -1 -1 -1 -1 -1 -1 -1 -1 -1 -1 -1 -1 -1 -1 -1 -1 -1 -1 -1 -1 -1 -1 -1 -1 -1 -1 -1 -1 -1 -1 -1 -1 -1 -1 -1 -1 -1 -1 -1 -1 -1 -1 -1 -1 -1 -1 -1 -1 -1 -1 -1 -1 -1 -1 -1 -1 -1 -1 -1 -1 -1 -1 -1 -1 -1 -1 -1 -1 -1 -1 -1 -1 -1 -1 -1 -1 -1 -1 -1 -1 -1 -1 -1 -1 -1 -1 -1 -1 -1 -1 -1 -1 -1 -1 -1 -1 -1 -1 -1 -1 -1 -1 -1 -1 -1 -1 -1 -1 -1 -1 -1 -1 -1 
248 191 134 165 174 182 191 199 208 216 225 233 242 250 250 250 250 250 250 250 250 250 250 250 250 105 105 105 105 105 105 106 106 106 106 106 106 106 106 106 106 106 107 107 107 107 107 107 107 113 123 132 142 152 161 171 180 190 199 209 218 228 237 247 123 187 239 248 239 228 217 206 194 183 172 161 149 138 127 116 111 112 113 114 115 116 116 117 118 119 120 120 121 122 123 124 125 125 126 127 128 129 130 130 131 132 133 134 135 135 136 137 138 139 139 140 141 142 143 139 134 130 125 121 117 112 108 103 99 94 90 85 81 82 86 91 95 99 103 107 111 115 120 124 132 139 147 154 161 169 176 183 191 198 205 213 220 228 235 242 247 247 248 248 248 248 248 248 248 249 249 249 249 249 249 249 249 250 250 250 250 250 250 250 251 251 251 251 251 251 251 252 252 252 252 251 248 246 243 240 238 235 232 230 227 224 221 219 216 213 211 209 212 215 219 222 225 229 232 235 238 242 245 248 250 248 246 244 243 241 240 238 237 236 234 233 231 230 228 227 226 224 223 221 220 218 217 216 214 213 211 210 208 207 206 204 203 201 200 198 197 196 194 193 191 190 188 183 179 174 170 165 161 156 152 147 142 138 133 129 124 120 115 111 106 102 97 92 88 83 84 91 98 105 112 119 126 134 141 148 155 84 84 85 85 86 87 87 88 89 89 92 96 100 104 108 113 117 121 125 129 -1 -1 -1 -1 -1 -1 -1 -1 -1 -1 -1 -1 -1 -1 -1 -1 -1 -1 -1 -1 -1 -1 -1 -1 -1 -1 -1 -1 -1 -1 -1 -1 -1 -1 -1 -1 -1 -1 -1 -1 -1 -1 -1 -1 -1 -1 -1 -1 -1 -1 -1 -1 -1 -1 -1 -1 -1 -1 -1 -1 -1 -1 -1 -1 -1 -1 -1 -1 -1 -1 -1 -1 -1 -1 -1 -1 -1 -1 -1 -1 -1 -1 -1 -1 -1 -1 -1 -1 -1 -1 -1 -1 -1 -1 -1 -1 -1 -1 -1 -1 -1 -1 -1 -1 -1 -1 -1 -1 -1 -1 -1 -1 -1 -1 -1 -1 -1 -1 -1 -1 -1 -1 -1 -1 -1 -1 -1 -1 -1 -1 -1 -1 -1 -1 -1 -1 -1 -1 -1 -1 -1 -1 -1 -1 -1 -1 -1 -1 -1 -1 -1 -1 -1 -1 -1 -1 -1 -1 -1 -1 
105 153 149 136 145 153 162 170 179 191 203 216 228 236 232 219 206 194 181 168 156 143 130 118 105 105 105 105 105 105 106 106 106 106 106 106 106 106 106 106 107 107 107 107 107 107 107 107 107 108 118 127 137 146 156 165 175 185 194 204 213 223 232 27 92 157 221 239 247 240 229 218 206 195 184 173 161 150 139 128 117 117 118 118 119 120 121 122 123 123 124 125 126 127 128 128 129 130 131 132 133 133 134 135 136 137 137 138 139 140 141 142 142 143 144 145 146 147 144 139 135 130 126 121 117 112 108 103 99 95 90 86 81 82 87 91 95 99 103 107 111 116 120 124 130 137 145 152 159 167 174 181 189 196 204 211 218 226 233 240 247 247 247 248 248 248 248 248 248 248 249 249 249 249 249 249 249 249 250 250 250 250 250 250 250 251 251 251 251 251 251 251 251 252 252 252 252 249 247 244 241 239 236 233 230 228 225 222 220 217 214 212 214 217 220 224 227 230 234 237 240 243 247 250 172 247 245 243 241 239 238 236 235 233 232 231 229 228 226 225 223 222 221 219 218 216 215 213 212 211 209 208 206 205 203 202 201 199 198 196 195 193 192 191 189 188 186 182 178 173 169 164 160 155 151 146 141 137 132 128 123 119 114 110 105 101 96 91 87 82 85 92 99 106 113 121 128 135 142 149 156 83 84 85 85 86 87 87 88 89 89 90 94 98 102 106 110 114 118 122 126 -1 -1 -1 -1 -1 -1 -1 -1 -1 -1 -1 -1 -1 -1 -1 -1 -1 -1 -1 -1 -1 -1 -1 -1 -1 -1 -1 -1 -1 -1 -1 -1 -1 -1 -1 -1 -1 -1 -1 -1 -1 -1 -1 -1 -1 -1 -1 -1 -1 -1 -1 -1 -1 -1 -1 -1 -1 -1 -1 -1 -1 -1 -1 -1 -1 -1 -1 -1 -1 -1 -1 -1 -1 -1 -1 -1 -1 -1 -1 -1 -1 -1 -1 -1 -1 -1 -1 -1 -1 -1 -1 -1 -1 -1 -1 -1 -1 -1 -1 -1 -1 -1 -1 -1 -1 -1 -1 -1 -1 -1 -1 -1 -1 -1 -1 -1 -1 -1 -1 -1 -1 -1 -1 -1 -1 -1 -1 -1 -1 -1 -1 -1 -1 -1 -1 -1 -1 -1 -1 -1 -1 -1 -1 -1 -1 -1 -1 -1 -1 -1 -1 -1 -1 -1 -1 -1 -1 -1 -1 -1 
134 125 116 107 119 132 144 157 169 182 194 207 219 222 223 213 201 188 175 163 150 137 125 112 104 105 105 105 106 106 106 106 106 106 106 106 106 106 106 107 107 107 107 107 107 107 107 107 107 107 112 122 132 141 151 160 170 179 189 198 208 217 248 45 61 126 191 230 238 247 241 230 218 207 196 185 173 162 151 140 129 121 122 123 124 125 126 126 127 128 129 130 131 131 132 133 134 135 135 136 137 138 139 140 140 141 142 143 144 145 145 146 147 148 149 150 150 148 144 139 135 130 126 122 117 113 108 104 99 95 90 86 82 83 87 91 95 99 103 107 112 116 120 124 128 135 143 150 157 165 172 180 187 194 202 209 216 224 231 238 246 247 247 247 248 248 248 248 248 248 248 248 249 249 249 249 249 249 249 250 250 250 250 250 250 250 250 251 251 251 251 251 251 251 252 252 252 252 250 248 245 242 239 237 234 231 229 226 223 221 218 215 215 219 222 225 229 232 235 239 242 245 248 19 249 247 244 242 239 237 236 234 233 231 230 229 227 226 224 223 221 220 219 217 216 214 213 211 210 209 207 206 204 203 201 200 199 197 196 194 193 191 190 189 187 186 184 181 177 172 168 163 159 154 150 145 140 136 131 127 122 118 113 109 104 100 95 91 86 81 86 93 101 108 115 122 129 136 143 151 158 109 84 85 85 86 87 87 88 88 89 90 91 95 99 103 107 111 115 119 123 -1 -1 -1 -1 -1 -1 -1 -1 -1 -1 -1 -1 -1 -1 -1 -1 -1 -1 -1 -1 -1 -1 -1 -1 -1 -1 -1 -1 -1 -1 -1 -1 -1 -1 -1 -1 -1 -1 -1 -1 -1 -1 -1 -1 -1 -1 -1 -1 -1 -1 -1 -1 -1 -1 -1 -1 -1 -1 -1 -1 -1 -1 -1 -1 -1 -1 -1 -1 -1 -1 -1 -1 -1 -1 -1 -1 -1 -1 -1 -1 -1 -1 -1 -1 -1 -1 -1 -1 -1 -1 -1 -1 -1 -1 -1 -1 -1 -1 -1 -1 -1 -1 -1 -1 -1 -1 -1 -1 -1 -1 -1 -1 -1 -1 -1 -1 -1 -1 -1 -1 -1 -1 -1 -1 -1 -1 -1 -1 -1 -1 -1 -1 -1 -1 -1 -1 -1 -1 -1 -1 -1 -1 -1 -1 -1 -1 -1 -1 -1 -1 -1 -1 -1 -1 -1 -1 -1 -1 -1 -1 
163 154 145 123 110 123 135 147 160 172 185 197 209 209 209 208 195 182 170 157 144 132 119 106 104 104 104 104 105 105 106 106 106 106 106 106 106 106 107 107 107 107 107 107 107 107 107 107 107 108 108 117 126 136 145 155 165 174 184 193 203 231 82 63 34 95 160 220 229 238 246 242 230 219 208 197 185 174 163 152 141 129 127 128 129 129 130 131 132 133 133 134 135 136 137 138 138 139 140 141 142 143 143 144 145 146 147 148 148 149 150 151 152 152 153 154 153 149 144 140 135 131 126 122 117 113 109 104 100 95 91 86 82 83 87 91 95 99 103 108 112 116 120 124 128 133 141 148 156 163 170 178 185 192 200 207 214 222 229 237 244 247 247 247 247 247 248 248 248 248 248 248 248 249 249 249 249 249 249 249 249 250 250 250 250 250 250 250 251 251 251 251 251 251 251 252 252 252 252 251 248 246 243 240 238 235 232 230 227 224 221 219 217 220 224 227 230 234 237 240 243 247 250 96 248 246 243 241 239 236 234 232 231 229 228 226 225 224 222 221 219 218 216 215 214 212 211 209 208 206 205 204 202 201 199 198 196 195 194 192 191 189 188 186 185 184 182 180 176 171 167 162 158 153 149 144 140 135 130 126 121 117 112 108 103 99 94 90 85 80 88 95 102 109 116 123 131 138 145 152 159 148 84 84 85 86 86 87 88 88 89 90 90 92 96 100 105 109 113 117 121 -1 -1 -1 -1 -1 -1 -1 -1 -1 -1 -1 -1 -1 -1 -1 -1 -1 -1 -1 -1 -1 -1 -1 -1 -1 -1 -1 -1 -1 -1 -1 -1 -1 -1 -1 -1 -1 -1 -1 -1 -1 -1 -1 -1 -1 -1 -1 -1 -1 -1 -1 -1 -1 -1 -1 -1 -1 -1 -1 -1 -1 -1 -1 -1 -1 -1 -1 -1 -1 -1 -1 -1 -1 -1 -1 -1 -1 -1 -1 -1 -1 -1 -1 -1 -1 -1 -1 -1 -1 -1 -1 -1 -1 -1 -1 -1 -1 -1 -1 -1 -1 -1 -1 -1 -1 -1 -1 -1 -1 -1 -1 -1 -1 -1 -1 -1 -1 -1 -1 -1 -1 -1 -1 -1 -1 -1 -1 -1 -1 -1 -1 -1 -1 -1 -1 -1 -1 -1 -1 -1 -1 -1 -1 -1 -1 -1 -1 -1 -1 -1 -1 -1 -1 -1 -1 -1 -1 -1 -1 -1 
193 184 166 140 114 113 126 138 151 163 176 188 195 195 195 195 189 177 164 151 139 126 113 103 103 103 103 104 104 104 105 105 106 106 106 106 107 107 107 107 107 107 107 107 107 107 107 108 108 108 108 112 121 131 140 150 159 169 178 188 214 250 25 82 53 64 129 194 220 228 237 245 242 231 220 209 197 186 175 164 153 141 131 132 133 134 135 136 136 137 138 139 140 141 141 142 143 144 145 146 146 147 148 149 150 150 151 152 153 154 155 155 156 157 158 158 153 149 144 140 136 131 127 122 118 113 109 104 100 95 91 87 82 83 87 91 95 99 104 108 112 116 120 124 128 133 139 146 154 161 168 176 183 190 198 205 213 220 227 235 242 247 247 247 247 247 247 248 248 248 248 248 248 248 249 249 249 249 249 249 249 249 250 250 250 250 250 250 250 251 251 251 251 251 251 251 251 252 252 252 252 249 247 244 241 239 236 233 230 228 225 222 220 222 225 229 232 235 239 242 245 248 194 172 247 245 243 240 238 235 233 230 229 227 226 224 223 222 220 219 217 216 214 213 212 210 209 207 206 204 203 202 200 199 197 196 194 193 192 190 189 187 186 184 183 182 180 179 175 170 166 161 157 152 148 143 139 134 129 125 120 116 111 107 102 98 93 89 84 82 89 96 103 110 118 125 132 139 146 153 161 168 84 84 85 86 86 87 88 88 89 89 90 91 94 98 102 106 110 114 118 -1 -1 -1 -1 -1 -1 -1 -1 -1 -1 -1 -1 -1 -1 -1 -1 -1 -1 -1 -1 -1 -1 -1 -1 -1 -1 -1 -1 -1 -1 -1 -1 -1 -1 -1 -1 -1 -1 -1 -1 -1 -1 -1 -1 -1 -1 -1 -1 -1 -1 -1 -1 -1 -1 -1 -1 -1 -1 -1 -1 -1 -1 -1 -1 -1 -1 -1 -1 -1 -1 -1 -1 -1 -1 -1 -1 -1 -1 -1 -1 -1 -1 -1 -1 -1 -1 -1 -1 -1 -1 -1 -1 -1 -1 -1 -1 -1 -1 -1 -1 -1 -1 -1 -1 -1 -1 -1 -1 -1 -1 -1 -1 -1 -1 -1 -1 -1 -1 -1 -1 -1 -1 -1 -1 -1 -1 -1 -1 -1 -1 -1 -1 -1 -1 -1 -1 -1 -1 -1 -1 -1 -1 -1 -1 -1 -1 -1 -1 -1 -1 -1 -1 -1 -1 -1 -1 -1 -1 -1 -1 
222 208 182 156 130 104 116 129 141 154 166 179 181 181 181 181 181 171 158 146 133 120 108 103 103 103 103 103 103 104 104 104 105 105 106 106 106 107 107 107 107 107 107 107 107 108 108 108 108 108 108 108 116 126 135 145 154 164 173 196 232 138 100 100 71 42 98 163 211 219 228 236 245 243 232 221 209 198 187 176 165 153 142 137 138 139 139 140 141 142 143 144 144 145 146 147 148 148 149 150 151 152 153 153 154 155 156 157 158 158 159 160 161 162 163 158 154 149 145 140 136 131 127 122 118 114 109 105 100 96 91 87 82 83 87 91 95 100 104 108 112 116 120 124 129 133 137 144 152 159 166 174 181 189 196 203 211 218 225 233 240 247 247 247 247 247 247 247 248 248 248 248 248 248 248 248 249 249 249 249 249 249 249 250 250 250 250 250 250 250 250 251 251 251 251 251 251 251 252 252 252 252 250 248 245 242 239 237 234 231 229 226 223 224 227 230 234 237 240 244 247 250 19 249 247 244 242 239 237 234 232 230 227 225 224 222 221 219 218 217 215 214 212 211 209 208 207 205 204 202 201 199 198 197 195 194 192 191 189 188 187 185 184 182 181 179 178 177 174 169 165 160 156 151 147 142 138 133 128 124 119 115 110 106 101 97 92 88 83 83 90 98 105 112 119 126 133 140 148 155 162 169 96 84 85 85 86 87 87 88 89 89 90 91 91 95 99 103 107 111 115 -1 -1 -1 -1 -1 -1 -1 -1 -1 -1 -1 -1 -1 -1 -1 -1 -1 -1 -1 -1 -1 -1 -1 -1 -1 -1 -1 -1 -1 -1 -1 -1 -1 -1 -1 -1 -1 -1 -1 -1 -1 -1 -1 -1 -1 -1 -1 -1 -1 -1 -1 -1 -1 -1 -1 -1 -1 -1 -1 -1 -1 -1 -1 -1 -1 -1 -1 -1 -1 -1 -1 -1 -1 -1 -1 -1 -1 -1 -1 -1 -1 -1 -1 -1 -1 -1 -1 -1 -1 -1 -1 -1 -1 -1 -1 -1 -1 -1 -1 -1 -1 -1 -1 -1 -1 -1 -1 -1 -1 -1 -1 -1 -1 -1 -1 -1 -1 -1 -1 -1 -1 -1 -1 -1 -1 -1 -1 -1 -1 -1 -1 -1 -1 -1 -1 -1 -1 -1 -1 -1 -1 -1 -1 -1 -1 -1 -1 -1 -1 -1 -1 -1 -1 -1 -1 -1 -1 -1 -1 -1 
251 225 199 173 147 120 107 120 132 144 157 167 167 167 167 167 168 165 153 140 127 115 102 102 102 102 102 102 102 103 103 104 104 104 105 105 105 106 106 107 107 107 107 107 108 108 108 108 108 108 108 108 111 120 130 139 149 158 179 215 251 80 147 118 89 60 68 132 197 210 219 227 236 244 244 233 222 210 199 188 177 165 154 143 142 143 144 145 146 146 147 148 149 150 151 151 152 153 154 155 156 156 157 158 159 160 161 161 162 163 164 165 165 166 163 158 154 149 145 141 136 132 127 123 118 114 109 105 101 96 92 87 83 83 87 91 96 100 104 108 112 116 120 124 129 133 137 142 150 157 165 172 179 187 194 201 209 216 223 231 238 246 247 247 247 247 247 247 247 247 248 248 248 248 248 248 248 249 249 249 249 249 249 249 249 250 250 250 250 250 250 250 251 251 251 251 251 251 251 252 252 252 252 251 248 246 243 240 238 235 232 230 227 225 229 232 235 239 242 245 248 204 96 248 246 243 241 239 236 234 231 229 226 224 222 220 219 217 216 215 213 212 210 209 207 206 205 203 202 200 199 197 196 195 193 192 190 189 187 186 185 183 182 180 179 177 176 175 173 168 164 159 155 150 146 141 137 132 128 123 118 114 109 105 100 96 91 87 82 85 92 99 106 113 120 127 135 142 149 156 163 170 135 84 85 85 86 87 87 88 89 89 90 90 91 92 96 101 105 109 113 -1 -1 -1 -1 -1 -1 -1 -1 -1 -1 -1 -1 -1 -1 -1 -1 -1 -1 -1 -1 -1 -1 -1 -1 -1 -1 -1 -1 -1 -1 -1 -1 -1 -1 -1 -1 -1 -1 -1 -1 -1 -1 -1 -1 -1 -1 -1 -1 -1 -1 -1 -1 -1 -1 -1 -1 -1 -1 -1 -1 -1 -1 -1 -1 -1 -1 -1 -1 -1 -1 -1 -1 -1 -1 -1 -1 -1 -1 -1 -1 -1 -1 -1 -1 -1 -1 -1 -1 -1 -1 -1 -1 -1 -1 -1 -1 -1 -1 -1 -1 -1 -1 -1 -1 -1 -1 -1 -1 -1 -1 -1 -1 -1 -1 -1 -1 -1 -1 -1 -1 -1 -1 -1 -1 -1 -1 -1 -1 -1 -1 -1 -1 -1 -1 -1 -1 -1 -1 -1 -1 -1 -1 -1 -1 -1 -1 -1 -1 -1 -1 -1 -1 -1 -1 -1 -1 -1 -1 -1 -1 
220 220 215 189 163 137 111 110 123 135 148 153 153 154 154 154 154 154 147 134 122 109 101 101 101 101 101 102 102 102 102 103 103 103 104 104 105 105 105 106 106 107 107 107 108 108 108 108 108 108 108 108 108 115 125 134 144 161 197 208 192 22 165 136 107 78 49 102 166 201 210 218 227 235 244 245 234 222 211 200 189 177 166 155 147 148 149 149 150 151 152 153 154 154 155 156 157 158 159 159 160 161 162 163 163 164 165 166 167 168 168 169 170 168 163 159 154 150 145 141 136 132 127 123 119 114 110 105 101 96 92 87 83 83 87 92 96 100 104 108 112 116 120 125 129 133 137 141 148 155 163 170 177 185 192 199 207 214 222 229 236 244 246 247 247 247 247 247 247 247 247 248 248 248 248 248 248 248 249 249 249 249 249 249 249 249 250 250 250 250 250 250 250 251 251 251 251 251 251 251 251 252 252 252 252 249 247 244 241 239 236 233 230 228 230 234 237 240 244 247 250 139 172 247 245 243 240 238 235 233 230 228 226 223 221 218 217 215 214 212 211 210 208 207 205 204 202 201 200 198 197 195 194 192 191 190 188 187 185 184 182 181 180 178 177 175 174 172 171 167 163 158 154 149 145 140 136 131 127 122 117 113 108 104 99 95 90 86 81 86 93 100 107 115 122 129 136 143 150 157 165 172 174 84 85 85 86 86 87 88 88 89 90 90 91 92 94 98 102 106 110 -1 -1 -1 -1 -1 -1 -1 -1 -1 -1 -1 -1 -1 -1 -1 -1 -1 -1 -1 -1 -1 -1 -1 -1 -1 -1 -1 -1 -1 -1 -1 -1 -1 -1 -1 -1 -1 -1 -1 -1 -1 -1 -1 -1 -1 -1 -1 -1 -1 -1 -1 -1 -1 -1 -1 -1 -1 -1 -1 -1 -1 -1 -1 -1 -1 -1 -1 -1 -1 -1 -1 -1 -1 -1 -1 -1 -1 -1 -1 -1 -1 -1 -1 -1 -1 -1 -1 -1 -1 -1 -1 -1 -1 -1 -1 -1 -1 -1 -1 -1 -1 -1 -1 -1 -1 -1 -1 -1 -1 -1 -1 -1 -1 -1 -1 -1 -1 -1 -1 -1 -1 -1 -1 -1 -1 -1 -1 -1 -1 -1 -1 -1 -1 -1 -1 -1 -1 -1 -1 -1 -1 -1 -1 -1 -1 -1 -1 -1 -1 -1 -1 -1 -1 -1 -1 -1 -1 -1 -1 -1 
189 190 190 190 179 153 127 101 113 126 138 140 140 140 140 140 140 140 140 129 116 103 101 101 101 101 101 101 101 101 102 102 102 103 103 103 104 104 105 105 105 106 106 106 107 107 108 108 108 108 108 108 109 110 119 129 144 180 165 149 134 98 184 154 125 96 67 71 136 192 200 209 217 226 235 243 246 234 223 212 201 189 178 167 156 152 153 154 155 156 157 157 158 159 160 161 161 162 163 164 165 166 166 167 168 169 170 171 171 172 173 174 172 168 163 159 154 150 146 141 137 132 128 123 119 114 110 106 101 97 92 88 83 83 88 92 96 100 104 108 112 116 121 125 129 133 137 141 146 153 161 168 175 183 190 198 205 212 220 227 234 242 246 246 246 247 247 247 247 247 247 247 248 248 248 248 248 248 248 248 249 249 249 249 249 249 249 250 250 250 250 250 250 250 250 251 251 251 251 251 251 251 252 252 252 252 250 248 245 242 239 237 234 231 232 235 239 242 245 249 214 18 249 247 244 242 239 237 234 232 230 227 225 222 220 218 215 213 212 210 209 208 206 205 203 202 200 199 198 196 195 193 192 190 189 188 186 185 183 182 180 179 178 176 175 173 172 170 169 166 162 157 153 148 144 139 135 130 126 121 116 112 107 103 98 94 89 85 80 87 94 102 109 116 123 130 137 145 152 159 166 173 180 84 84 85 86 86 87 88 88 89 90 90 91 91 92 95 99 103 107 -1 -1 -1 -1 -1 -1 -1 -1 -1 -1 -1 -1 -1 -1 -1 -1 -1 -1 -1 -1 -1 -1 -1 -1 -1 -1 -1 -1 -1 -1 -1 -1 -1 -1 -1 -1 -1 -1 -1 -1 -1 -1 -1 -1 -1 -1 -1 -1 -1 -1 -1 -1 -1 -1 -1 -1 -1 -1 -1 -1 -1 -1 -1 -1 -1 -1 -1 -1 -1 -1 -1 -1 -1 -1 -1 -1 -1 -1 -1 -1 -1 -1 -1 -1 -1 -1 -1 -1 -1 -1 -1 -1 -1 -1 -1 -1 -1 -1 -1 -1 -1 -1 -1 -1 -1 -1 -1 -1 -1 -1 -1 -1 -1 -1 -1 -1 -1 -1 -1 -1 -1 -1 -1 -1 -1 -1 -1 -1 -1 -1 -1 -1 -1 -1 -1 -1 -1 -1 -1 -1 -1 -1 -1 -1 -1 -1 -1 -1 -1 -1 -1 -1 -1 -1 -1 -1 -1 -1 -1 -1 
159 159 159 159 159 159 144 117 104 117 126 126 126 126 126 126 126 126 126 123 110 100 100 100 100 100 100 100 100 100 101 101 101 102 102 103 103 103 104 104 104 105 105 106 106 106 107 107 108 108 108 109 109 109 114 126 137 121 106 90 75 173 202 173 144 115 85 56 105 170 191 200 208 217 225 234 243 246 235 224 213 201 190 179 168 157 158 159 159 160 161 162 163 164 164 165 166 167 168 169 169 170 171 172 173 174 174 175 176 177 178 177 173 168 164 159 155 150 146 141 137 133 128 124 119 115 110 106 101 97 92 88 84 84 88 92 96 100 104 108 112 117 121 125 129 133 137 141 146 151 159 166 174 181 188 196 203 210 218 225 232 240 246 246 246 246 247 247 247 247 247 247 247 247 248 248 248 248 248 248 248 249 249 249 249 249 249 249 249 250 250 250 250 250 250 250 251 251 251 251 251 251 251 252 252 252 252 251 248 246 243 240 238 235 234 237 240 244 247 250 148 95 248 246 243 241 239 236 234 231 229 226 224 222 219 217 214 212 210 208 207 205 204 203 201 200 198 197 195 194 193 191 190 188 187 185 184 183 181 180 178 177 175 174 173 171 170 168 167 166 161 156 152 147 143 138 134 129 125 120 116 111 106 102 97 93 88 84 82 89 96 103 110 117 124 132 139 146 153 160 167 175 182 122 84 85 86 86 87 88 88 89 89 90 91 91 92 93 97 101 105 -1 -1 -1 -1 -1 -1 -1 -1 -1 -1 -1 -1 -1 -1 -1 -1 -1 -1 -1 -1 -1 -1 -1 -1 -1 -1 -1 -1 -1 -1 -1 -1 -1 -1 -1 -1 -1 -1 -1 -1 -1 -1 -1 -1 -1 -1 -1 -1 -1 -1 -1 -1 -1 -1 -1 -1 -1 -1 -1 -1 -1 -1 -1 -1 -1 -1 -1 -1 -1 -1 -1 -1 -1 -1 -1 -1 -1 -1 -1 -1 -1 -1 -1 -1 -1 -1 -1 -1 -1 -1 -1 -1 -1 -1 -1 -1 -1 -1 -1 -1 -1 -1 -1 -1 -1 -1 -1 -1 -1 -1 -1 -1 -1 -1 -1 -1 -1 -1 -1 -1 -1 -1 -1 -1 -1 -1 -1 -1 -1 -1 -1 -1 -1 -1 -1 -1 -1 -1 -1 -1 -1 -1 -1 -1 -1 -1 -1 -1 -1 -1 -1 -1 -1 -1 -1 -1 -1 -1 -1 -1 
128 128 128 128 128 128 128 129 108 107 112 112 112 112 112 112 112 113 113 113 105 100 100 100 100 100 100 100 100 100 100 100 101 101 101 102 102 103 103 103 104 104 104 105 105 106 106 106 107 107 107 108 108 109 109 94 78 63 47 32 16 249 220 191 162 133 104 75 74 139 182 191 199 208 216 225 233 242 247 236 225 213 202 191 180 168 162 163 164 165 166 167 167 168 169 170 171 172 172 173 174 175 176 176 177 178 179 180 181 181 182 177 173 168 164 160 155 151 146 142 137 133 128 124 119 115 111 106 102 97 93 88 84 84 88 92 96 100 104 108 113 117 121 125 129 133 137 142 146 150 157 164 172 179 186 194 201 208 216 223 231 238 245 246 246 246 246 247 247 247 247 247 247 247 247 248 248 248 248 248 248 248 249 249 249 249 249 249 249 249 250 250 250 250 250 250 250 251 251 251 251 251 251 251 251 252 252 252 252 249 247 244 241 239 236 239 242 245 249 223 83 172 247 245 243 240 238 235 233 230 228 226 223 221 218 216 214 211 209 206 205 203 202 201 199 198 196 195 193 192 191 189 188 186 185 183 182 181 179 178 176 175 173 172 171 169 168 166 165 163 160 155 151 146 142 137 133 128 124 119 115 110 105 101 96 92 87 83 83 90 97 104 112 119 126 133 140 147 154 162 169 176 183 161 84 85 85 86 87 87 88 89 89 90 91 91 92 92 94 98 102 -1 -1 -1 -1 -1 -1 -1 -1 -1 -1 -1 -1 -1 -1 -1 -1 -1 -1 -1 -1 -1 -1 -1 -1 -1 -1 -1 -1 -1 -1 -1 -1 -1 -1 -1 -1 -1 -1 -1 -1 -1 -1 -1 -1 -1 -1 -1 -1 -1 -1 -1 -1 -1 -1 -1 -1 -1 -1 -1 -1 -1 -1 -1 -1 -1 -1 -1 -1 -1 -1 -1 -1 -1 -1 -1 -1 -1 -1 -1 -1 -1 -1 -1 -1 -1 -1 -1 -1 -1 -1 -1 -1 -1 -1 -1 -1 -1 -1 -1 -1 -1 -1 -1 -1 -1 -1 -1 -1 -1 -1 -1 -1 -1 -1 -1 -1 -1 -1 -1 -1 -1 -1 -1 -1 -1 -1 -1 -1 -1 -1 -1 -1 -1 -1 -1 -1 -1 -1 -1 -1 -1 -1 -1 -1 -1 -1 -1 -1 -1 -1 -1 -1 -1 -1 -1 -1 -1 -1 -1 -1 
97 97 97 97 97 98 98 98 98 98 98 98 98 98 98 99 99 99 99 99 99 99 99 99 99 99 99 99 99 99 99 99 100 100 101 101 101 102 102 102 103 103 104 104 104 105 105 106 106 106 107 107 107 108 130 150 170 173 157 142 251 246 238 209 180 151 122 93 64 108 173 182 190 199 207 216 224 233 241 248 237 225 214 203 192 180 169 168 169 170 170 171 172 173 174 174 175 176 177 178 179 179 180 181 182 183 184 184 185 186 182 178 173 169 164 160 155 151 146 142 138 133 129 124 120 115 111 106 102 98 93 89 84 84 88 92 96 100 104 109 113 117 121 125 129 133 138 142 146 150 155 162 170 177 184 192 199 207 214 221 229 236 243 246 246 246 246 246 246 247 247 247 247 247 247 247 248 248 248 248 248 248 248 248 249 249 249 249 249 249 249 250 250 250 250 250 250 250 250 251 251 251 251 251 251 251 252 252 252 252 250 248 245 242 239 240 244 247 250 158 18 249 247 244 242 239 237 234 232 230 227 225 222 220 218 215 213 210 208 205 203 201 200 198 197 196 194 193 191 190 188 187 186 184 183 181 180 178 177 176 174 173 171 170 168 167 166 164 163 161 159 154 150 145 141 136 132 127 123 118 114 109 105 100 95 91 86 82 84 91 99 106 113 120 127 134 141 149 156 163 170 177 184 192 84 85 85 86 87 87 88 89 89 90 90 91 92 92 93 95 99 -1 -1 -1 -1 -1 -1 -1 -1 -1 -1 -1 -1 -1 -1 -1 -1 -1 -1 -1 -1 -1 -1 -1 -1 -1 -1 -1 -1 -1 -1 -1 -1 -1 -1 -1 -1 -1 -1 -1 -1 -1 -1 -1 -1 -1 -1 -1 -1 -1 -1 -1 -1 -1 -1 -1 -1 -1 -1 -1 -1 -1 -1 -1 -1 -1 -1 -1 -1 -1 -1 -1 -1 -1 -1 -1 -1 -1 -1 -1 -1 -1 -1 -1 -1 -1 -1 -1 -1 -1 -1 -1 -1 -1 -1 -1 -1 -1 -1 -1 -1 -1 -1 -1 -1 -1 -1 -1 -1 -1 -1 -1 -1 -1 -1 -1 -1 -1 -1 -1 -1 -1 -1 -1 -1 -1 -1 -1 -1 -1 -1 -1 -1 -1 -1 -1 -1 -1 -1 -1 -1 -1 -1 -1 -1 -1 -1 -1 -1 -1 -1 -1 -1 -1 -1 -1 -1 -1 -1 -1 -1 
112 106 124 142 160 178 196 214 232 250 239 229 218 208 197 187 176 166 155 144 130 106 98 98 98 99 99 99 99 99 99 99 99 99 100 100 100 101 101 102 102 102 103 103 104 104 104 105 105 105 106 106 107 131 151 170 191 211 232 252 172 244 235 227 198 169 140 111 82 77 142 172 181 189 198 207 215 224 232 241 249 237 226 215 204 192 181 172 173 174 175 176 177 177 178 179 180 181 182 182 183 184 185 186 186 187 188 189 190 187 182 178 173 169 165 160 156 151 147 142 138 133 129 124 120 116 111 107 102 98 93 89 84 84 88 92 96 100 105 109 113 117 121 125 129 134 138 142 146 150 154 160 168 175 183 190 197 205 212 219 227 234 241 246 246 246 246 246 246 246 247 247 247 247 247 247 247 247 248 248 248 248 248 248 248 249 249 249 249 249 249 249 249 250 250 250 250 250 250 250 251 251 251 251 251 251 251 252 252 252 252 251 248 246 243 242 245 249 233 93 250 249 249 243 241 239 236 234 231 229 226 224 222 219 217 214 212 209 207 205 202 200 198 196 195 194 192 191 189 188 186 185 184 182 181 179 178 176 175 174 172 171 169 168 166 165 164 162 161 159 158 154 149 144 140 135 131 126 122 117 113 108 104 99 94 90 85 81 86 93 100 107 114 121 129 136 143 150 157 164 171 179 186 193 110 85 85 86 86 87 88 88 89 90 90 91 92 92 93 93 97 -1 -1 -1 -1 -1 -1 -1 -1 -1 -1 -1 -1 -1 -1 -1 -1 -1 -1 -1 -1 -1 -1 -1 -1 -1 -1 -1 -1 -1 -1 -1 -1 -1 -1 -1 -1 -1 -1 -1 -1 -1 -1 -1 -1 -1 -1 -1 -1 -1 -1 -1 -1 -1 -1 -1 -1 -1 -1 -1 -1 -1 -1 -1 -1 -1 -1 -1 -1 -1 -1 -1 -1 -1 -1 -1 -1 -1 -1 -1 -1 -1 -1 -1 -1 -1 -1 -1 -1 -1 -1 -1 -1 -1 -1 -1 -1 -1 -1 -1 -1 -1 -1 -1 -1 -1 -1 -1 -1 -1 -1 -1 -1 -1 -1 -1 -1 -1 -1 -1 -1 -1 -1 -1 -1 -1 -1 -1 -1 -1 -1 -1 -1 -1 -1 -1 -1 -1 -1 -1 -1 -1 -1 -1 -1 -1 -1 -1 -1 -1 -1 -1 -1 -1 -1 -1 -1 -1 -1 -1 -1 
127 96 114 132 150 168 186 204 221 233 239 244 248 243 232 222 211 200 190 179 162 137 113 98 98 98 98 98 98 98 98 98 98 99 99 99 100 100 100 101 101 102 102 102 103 103 103 104 104 105 105 105 129 152 172 191 211 232 252 18 249 241 233 225 216 187 158 129 100 71 111 163 172 180 189 197 206 215 223 232 240 249 238 227 216 204 193 182 178 179 180 180 181 182 183 184 185 185 186 187 188 189 189 190 191 192 193 194 192 187 183 178 174 169 165 160 156 151 147 143 138 134 129 125 120 116 111 107 103 98 94 89 85 84 88 92 96 101 105 109 113 117 121 125 130 134 138 142 146 150 154 159 166 173 181 188 195 203 210 217 225 232 240 245 246 246 246 246 246 246 246 247 247 247 247 247 247 247 247 248 248 248 248 248 248 248 249 249 249 249 249 249 249 249 250 250 250 250 250 250 250 251 251 251 251 251 251 251 251 252 252 252 252 249 247 244 247 250 168 250 203 249 249 249 249 238 235 233 230 228 226 223 221 218 216 214 211 209 206 204 201 199 197 194 193 191 190 189 187 186 184 183 181 180 179 177 176 174 173 171 170 169 167 166 164 163 162 160 159 157 156 153 148 143 139 134 130 125 121 116 112 107 103 98 93 89 84 80 87 94 101 108 116 123 130 137 144 151 159 166 173 180 187 194 148 84 85 86 86 87 88 88 89 90 90 91 91 92 93 93 94 -1 -1 -1 -1 -1 -1 -1 -1 -1 -1 -1 -1 -1 -1 -1 -1 -1 -1 -1 -1 -1 -1 -1 -1 -1 -1 -1 -1 -1 -1 -1 -1 -1 -1 -1 -1 -1 -1 -1 -1 -1 -1 -1 -1 -1 -1 -1 -1 -1 -1 -1 -1 -1 -1 -1 -1 -1 -1 -1 -1 -1 -1 -1 -1 -1 -1 -1 -1 -1 -1 -1 -1 -1 -1 -1 -1 -1 -1 -1 -1 -1 -1 -1 -1 -1 -1 -1 -1 -1 -1 -1 -1 -1 -1 -1 -1 -1 -1 -1 -1 -1 -1 -1 -1 -1 -1 -1 -1 -1 -1 -1 -1 -1 -1 -1 -1 -1 -1 -1 -1 -1 -1 -1 -1 -1 -1 -1 -1 -1 -1 -1 -1 -1 -1 -1 -1 -1 -1 -1 -1 -1 -1 -1 -1 -1 -1 -1 -1 -1 -1 -1 -1 -1 -1 -1 -1 -1 -1 -1 -1 
143 111 105 123 141 159 177 192 204 216 224 229 233 238 242 246 246 235 225 214 193 169 145 120 97 97 97 97 97 97 97 97 97 98 98 98 99 99 100 100 100 101 101 102 102 102 103 103 103 104 104 109 154 173 193 212 232 252 85 95 246 238 230 222 214 206 177 147 118 89 81 145 163 171 180 188 197 205 214 222 231 240 248 239 228 216 205 194 183 183 184 185 186 187 187 188 189 190 191 192 192 193 194 195 196 197 197 196 192 187 183 178 174 170 165 161 156 152 147 143 138 134 130 125 121 116 112 107 103 98 94 89 85 84 88 92 97 101 105 109 113 117 121 126 130 134 138 142 146 150 154 159 164 171 179 186 193 201 208 216 223 230 238 245 245 246 246 246 246 246 246 246 246 247 247 247 247 247 247 247 248 248 248 248 248 248 248 248 249 249 249 249 249 249 249 250 250 250 250 250 250 250 250 251 251 251 251 251 251 251 252 252 252 252 250 248 249 242 251 204 249 249 249 249 249 249 249 232 230 227 225 222 220 218 215 213 210 208 205 203 201 198 196 193 191 189 188 187 185 184 182 181 179 178 177 175 174 172 171 169 168 167 165 164 162 161 159 158 157 155 154 152 147 142 138 133 129 124 120 115 111 106 102 97 93 88 83 81 88 96 103 110 117 124 131 138 146 153 160 167 174 181 189 196 187 84 85 86 86 87 87 88 89 89 90 91 91 92 93 93 251 -1 -1 -1 -1 -1 -1 -1 -1 -1 -1 -1 -1 -1 -1 -1 -1 -1 -1 -1 -1 -1 -1 -1 -1 -1 -1 -1 -1 -1 -1 -1 -1 -1 -1 -1 -1 -1 -1 -1 -1 -1 -1 -1 -1 -1 -1 -1 -1 -1 -1 -1 -1 -1 -1 -1 -1 -1 -1 -1 -1 -1 -1 -1 -1 -1 -1 -1 -1 -1 -1 -1 -1 -1 -1 -1 -1 -1 -1 -1 -1 -1 -1 -1 -1 -1 -1 -1 -1 -1 -1 -1 -1 -1 -1 -1 -1 -1 -1 -1 -1 -1 -1 -1 -1 -1 -1 -1 -1 -1 -1 -1 -1 -1 -1 -1 -1 -1 -1 -1 -1 -1 -1 -1 -1 -1 -1 -1 -1 -1 -1 -1 -1 -1 -1 -1 -1 -1 -1 -1 -1 -1 -1 -1 -1 -1 -1 -1 -1 -1 -1 -1 -1 -1 -1 -1 -1 -1 -1 -1 -1 
158 126 95 113 131 149 163 175 187 199 209 214 218 223 227 231 236 240 245 249 225 200 176 152 127 103 97 97 97 97 97 97 97 97 97 98 98 98 99 99 100 100 100 101 101 101 102 102 103 103 103 156 175 194 213 233 252 153 53 172 244 235 227 219 211 203 195 166 137 108 78 115 154 162 171 179 188 196 205 213 222 230 239 248 240 228 217 206 195 188 189 190 190 191 192 193 194 195 195 196 197 198 199 199 200 201 201 197 192 188 183 179 174 170 165 161 157 152 148 143 139 134 130 125 121 116 112 108 103 99 94 90 85 84 88 93 97 101 105 109 113 117 122 126 130 134 138 142 146 150 155 159 163 169 177 184 191 199 206 214 221 228 236 243 245 245 245 246 246 246 246 246 246 246 247 247 247 247 247 247 247 247 248 248 248 248 248 248 248 249 249 249 249 249 249 249 249 250 250 250 250 250 250 250 251 251 251 251 251 251 251 252 252 252 252 251 250 251 205 158 249 249 249 249 249 249 249 249 249 226 224 222 219 217 214 212 209 207 205 202 200 197 195 193 190 188 186 184 183 182 180 179 177 176 174 173 172 170 169 167 166 165 163 162 160 159 157 156 155 153 152 150 146 142 137 132 128 123 119 114 110 105 101 96 92 87 82 83 90 97 104 111 118 126 133 140 147 154 161 168 176 183 190 197 204 97 85 85 86 87 87 88 89 89 90 91 91 92 92 193 219 -1 -1 -1 -1 -1 -1 -1 -1 -1 -1 -1 -1 -1 -1 -1 -1 -1 -1 -1 -1 -1 -1 -1 -1 -1 -1 -1 -1 -1 -1 -1 -1 -1 -1 -1 -1 -1 -1 -1 -1 -1 -1 -1 -1 -1 -1 -1 -1 -1 -1 -1 -1 -1 -1 -1 -1 -1 -1 -1 -1 -1 -1 -1 -1 -1 -1 -1 -1 -1 -1 -1 -1 -1 -1 -1 -1 -1 -1 -1 -1 -1 -1 -1 -1 -1 -1 -1 -1 -1 -1 -1 -1 -1 -1 -1 -1 -1 -1 -1 -1 -1 -1 -1 -1 -1 -1 -1 -1 -1 -1 -1 -1 -1 -1 -1 -1 -1 -1 -1 -1 -1 -1 -1 -1 -1 -1 -1 -1 -1 -1 -1 -1 -1 -1 -1 -1 -1 -1 -1 -1 -1 -1 -1 -1 -1 -1 -1 -1 -1 -1 -1 -1 -1 -1 -1 -1 -1 -1 -1 -1 
173 142 110 104 122 135 146 158 170 182 194 199 203 208 212 216 221 225 230 237 238 232 207 183 159 134 110 96 96 96 96 96 96 96 96 97 97 98 98 98 99 99 99 100 100 101 101 101 102 102 150 176 196 215 234 252 252 121 21 249 241 233 225 216 208 200 192 184 155 126 97 84 144 153 162 170 179 187 196 204 213 221 230 238 247 240 229 218 207 196 193 194 195 196 197 197 198 199 200 201 202 202 203 204 205 206 201 197 192 188 184 179 175 170 166 161 157 152 148 143 139 135 130 126 121 117 112 108 103 99 95 90 86 84 89 93 97 101 105 109 113 118 122 126 130 134 138 142 146 151 155 159 163 167 175 182 190 197 204 212 219 226 234 241 245 245 245 245 246 246 246 246 246 246 246 247 247 247 247 247 247 247 247 248 248 248 248 248 248 248 249 249 249 249 249 249 249 249 250 250 250 250 250 250 250 251 251 251 251 251 251 251 251 252 252 252 252 205 158 173 249 249 249 249 249 249 249 249 249 249 246 221 218 216 214 211 209 206 204 201 199 197 194 192 189 187 184 182 181 180 178 177 175 174 172 171 170 168 167 165 164 162 161 160 158 157 155 154 152 151 150 148 145 141 136 131 127 122 118 113 109 104 100 95 91 86 81 84 91 98 105 113 120 127 134 141 148 155 163 170 177 184 191 198 206 136 85 85 86 87 87 88 88 89 90 90 91 92 135 213 187 -1 -1 -1 -1 -1 -1 -1 -1 -1 -1 -1 -1 -1 -1 -1 -1 -1 -1 -1 -1 -1 -1 -1 -1 -1 -1 -1 -1 -1 -1 -1 -1 -1 -1 -1 -1 -1 -1 -1 -1 -1 -1 -1 -1 -1 -1 -1 -1 -1 -1 -1 -1 -1 -1 -1 -1 -1 -1 -1 -1 -1 -1 -1 -1 -1 -1 -1 -1 -1 -1 -1 -1 -1 -1 -1 -1 -1 -1 -1 -1 -1 -1 -1 -1 -1 -1 -1 -1 -1 -1 -1 -1 -1 -1 -1 -1 -1 -1 -1 -1 -1 -1 -1 -1 -1 -1 -1 -1 -1 -1 -1 -1 -1 -1 -1 -1 -1 -1 -1 -1 -1 -1 -1 -1 -1 -1 -1 -1 -1 -1 -1 -1 -1 -1 -1 -1 -1 -1 -1 -1 -1 -1 -1 -1 -1 -1 -1 -1 -1 -1 -1 -1 -1 -1 -1 -1 -1 -1 -1 -1 
188 157 125 94 106 118 129 141 153 165 177 184 188 193 197 201 206 210 209 224 230 227 224 214 190 166 141 117 96 96 96 96 96 96 96 96 96 97 97 97 98 98 99 99 99 100 100 101 101 130 178 197 217 236 252 252 252 89 98 246 238 230 222 214 206 197 189 181 173 144 115 86 118 144 152 161 169 178 187 195 204 212 221 229 238 246 241 230 219 208 198 199 200 200 201 202 203 204 205 205 206 207 208 209 210 206 202 197 193 188 184 179 175 170 166 162 157 153 148 144 139 135 130 126 122 117 113 108 104 99 95 90 86 85 89 93 97 101 105 109 114 118 122 126 130 134 138 142 147 151 155 159 163 167 173 180 188 195 202 210 217 224 232 239 245 245 245 245 245 246 246 246 246 246 246 246 246 247 247 247 247 247 247 247 248 248 248 248 248 248 248 248 249 249 249 249 249 249 249 250 250 250 250 250 250 250 250 251 251 251 251 251 251 251 252 251 219 159 112 249 249 249 249 249 249 249 249 249 249 249 249 250 233 215 213 210 208 205 203 201 198 196 193 191 189 186 184 181 179 177 176 175 173 172 170 169 167 166 165 163 162 160 159 158 156 155 153 152 150 149 148 146 144 140 135 130 126 121 117 112 108 103 99 94 90 85 81 85 92 100 107 114 121 128 135 143 150 157 164 171 178 185 193 200 207 174 85 85 86 86 87 88 88 89 90 90 91 92 206 181 156 -1 -1 -1 -1 -1 -1 -1 -1 -1 -1 -1 -1 -1 -1 -1 -1 -1 -1 -1 -1 -1 -1 -1 -1 -1 -1 -1 -1 -1 -1 -1 -1 -1 -1 -1 -1 -1 -1 -1 -1 -1 -1 -1 -1 -1 -1 -1 -1 -1 -1 -1 -1 -1 -1 -1 -1 -1 -1 -1 -1 -1 -1 -1 -1 -1 -1 -1 -1 -1 -1 -1 -1 -1 -1 -1 -1 -1 -1 -1 -1 -1 -1 -1 -1 -1 -1 -1 -1 -1 -1 -1 -1 -1 -1 -1 -1 -1 -1 -1 -1 -1 -1 -1 -1 -1 -1 -1 -1 -1 -1 -1 -1 -1 -1 -1 -1 -1 -1 -1 -1 -1 -1 -1 -1 -1 -1 -1 -1 -1 -1 -1 -1 -1 -1 -1 -1 -1 -1 -1 -1 -1 -1 -1 -1 -1 -1 -1 -1 -1 -1 -1 -1 -1 -1 -1 -1 -1 -1 -1 -1 
203 172 141 94 94 101 112 124 136 148 160 169 173 178 182 186 191 191 197 212 221 219 216 213 211 197 173 148 124 100 95 95 95 95 95 95 96 96 96 97 97 97 98 98 99 99 99 100 110 180 199 218 238 252 252 252 252 57 174 244 235 227 219 211 203 195 187 178 170 162 133 104 87 135 143 152 160 169 177 186 195 203 212 220 229 237 246 242 231 220 208 203 204 205 206 207 208 208 209 210 211 212 212 213 211 206 202 197 193 189 184 180 175 171 166 162 157 153 148 144 140 135 131 126 122 117 113 108 104 100 95 91 86 85 89 93 97 101 105 109 114 118 122 126 130 134 138 143 147 151 155 159 163 167 172 178 186 193 200 208 215 223 230 237 245 245 245 245 245 245 245 246 246 246 246 246 246 246 247 247 247 247 247 247 247 247 248 248 248 248 248 248 248 249 249 249 249 249 249 249 249 250 250 250 250 250 250 250 251 251 251 251 251 251 250 249 186 113 96 249 249 249 249 249 249 249 249 249 249 249 249 250 250 250 219 209 207 205 202 200 197 195 193 190 188 185 183 180 178 176 174 173 171 170 168 167 165 164 163 161 160 158 157 155 154 153 151 150 148 147 145 144 143 139 134 130 125 120 116 111 107 102 98 93 89 84 80 87 94 101 108 115 122 130 137 144 151 158 165 173 180 187 194 201 208 213 84 85 86 86 87 88 88 89 90 90 91 200 175 149 124 -1 -1 -1 -1 -1 -1 -1 -1 -1 -1 -1 -1 -1 -1 -1 -1 -1 -1 -1 -1 -1 -1 -1 -1 -1 -1 -1 -1 -1 -1 -1 -1 -1 -1 -1 -1 -1 -1 -1 -1 -1 -1 -1 -1 -1 -1 -1 -1 -1 -1 -1 -1 -1 -1 -1 -1 -1 -1 -1 -1 -1 -1 -1 -1 -1 -1 -1 -1 -1 -1 -1 -1 -1 -1 -1 -1 -1 -1 -1 -1 -1 -1 -1 -1 -1 -1 -1 -1 -1 -1 -1 -1 -1 -1 -1 -1 -1 -1 -1 -1 -1 -1 -1 -1 -1 -1 -1 -1 -1 -1 -1 -1 -1 -1 -1 -1 -1 -1 -1 -1 -1 -1 -1 -1 -1 -1 -1 -1 -1 -1 -1 -1 -1 -1 -1 -1 -1 -1 -1 -1 -1 -1 -1 -1 -1 -1 -1 -1 -1 -1 -1 -1 -1 -1 -1 -1 -1 -1 -1 -1 
219 187 146 94 95 95 95 107 119 131 143 154 158 162 167 171 172 170 184 199 213 210 208 205 202 200 197 180 155 131 107 95 95 95 95 95 95 95 95 96 96 97 97 97 98 98 99 99 170 201 220 239 252 252 252 251 251 25 249 241 233 225 216 208 200 192 184 176 168 159 151 122 93 121 134 143 151 160 168 177 185 194 202 211 220 228 237 245 243 232 220 209 209 210 210 211 212 213 214 215 215 216 217 216 211 207 202 198 193 189 184 180 175 171 167 162 158 153 149 144 140 135 131 127 122 118 113 109 104 100 95 91 86 85 89 93 97 101 105 110 114 118 122 126 130 134 139 143 147 151 155 159 163 168 172 176 184 191 199 206 213 221 228 235 243 245 245 245 245 245 245 245 246 246 246 246 246 246 246 247 247 247 247 247 247 247 247 248 248 248 248 248 248 248 249 249 249 249 249 249 249 249 250 250 250 250 250 250 250 251 251 251 250 249 248 247 153 66 173 249 249 249 249 249 249 249 249 249 249 249 250 250 250 250 250 250 206 204 201 199 197 194 192 189 187 184 182 180 177 175 172 170 169 168 166 165 163 162 161 159 158 156 155 153 152 151 149 148 146 145 143 142 141 138 133 129 124 119 115 110 106 101 97 92 88 83 81 88 95 102 110 117 124 131 138 145 152 160 167 174 181 188 195 203 210 217 123 85 86 86 87 87 88 89 89 90 176 168 143 117 92 -1 -1 -1 -1 -1 -1 -1 -1 -1 -1 -1 -1 -1 -1 -1 -1 -1 -1 -1 -1 -1 -1 -1 -1 -1 -1 -1 -1 -1 -1 -1 -1 -1 -1 -1 -1 -1 -1 -1 -1 -1 -1 -1 -1 -1 -1 -1 -1 -1 -1 -1 -1 -1 -1 -1 -1 -1 -1 -1 -1 -1 -1 -1 -1 -1 -1 -1 -1 -1 -1 -1 -1 -1 -1 -1 -1 -1 -1 -1 -1 -1 -1 -1 -1 -1 -1 -1 -1 -1 -1 -1 -1 -1 -1 -1 -1 -1 -1 -1 -1 -1 -1 -1 -1 -1 -1 -1 -1 -1 -1 -1 -1 -1 -1 -1 -1 -1 -1 -1 -1 -1 -1 -1 -1 -1 -1 -1 -1 -1 -1 -1 -1 -1 -1 -1 -1 -1 -1 -1 -1 -1 -1 -1 -1 -1 -1 -1 -1 -1 -1 -1 -1 -1 -1 -1 -1 -1 -1 -1 -1 
234 197 146 94 95 95 95 96 102 114 126 137 143 147 152 154 151 157 172 187 202 202 199 197 194 191 189 186 183 162 138 114 94 94 94 94 94 94 95 95 95 96 96 97 97 97 98 150 202 221 241 252 252 252 251 251 251 100 246 238 230 222 214 206 197 189 181 173 165 157 149 140 111 90 125 134 142 151 159 168 176 185 193 202 210 219 227 236 245 244 232 221 213 214 215 216 217 218 218 219 220 221 220 216 211 207 202 198 194 189 185 180 176 171 167 162 158 154 149 145 140 136 131 127 122 118 113 109 105 100 96 91 87 85 89 93 97 101 106 110 114 118 122 126 130 135 139 143 147 151 155 159 164 168 172 176 182 189 197 204 211 219 226 233 241 244 245 245 245 245 245 245 245 246 246 246 246 246 246 246 246 247 247 247 247 247 247 247 248 248 248 248 248 248 248 248 249 249 249 249 249 249 249 250 250 250 250 250 250 250 250 249 248 247 246 245 120 20 249 249 249 249 249 249 249 249 249 249 249 249 250 250 250 250 250 250 250 250 201 198 196 193 191 189 186 184 181 179 176 174 172 169 167 166 164 163 161 160 158 157 156 154 153 151 150 148 147 146 144 143 141 140 138 137 132 128 123 118 114 109 105 100 96 91 87 82 82 89 97 104 111 118 125 132 140 147 154 161 168 175 182 190 197 204 211 218 162 85 85 86 87 87 88 89 89 118 162 136 111 120 249 -1 -1 -1 -1 -1 -1 -1 -1 -1 -1 -1 -1 -1 -1 -1 -1 -1 -1 -1 -1 -1 -1 -1 -1 -1 -1 -1 -1 -1 -1 -1 -1 -1 -1 -1 -1 -1 -1 -1 -1 -1 -1 -1 -1 -1 -1 -1 -1 -1 -1 -1 -1 -1 -1 -1 -1 -1 -1 -1 -1 -1 -1 -1 -1 -1 -1 -1 -1 -1 -1 -1 -1 -1 -1 -1 -1 -1 -1 -1 -1 -1 -1 -1 -1 -1 -1 -1 -1 -1 -1 -1 -1 -1 -1 -1 -1 -1 -1 -1 -1 -1 -1 -1 -1 -1 -1 -1 -1 -1 -1 -1 -1 -1 -1 -1 -1 -1 -1 -1 -1 -1 -1 -1 -1 -1 -1 -1 -1 -1 -1 -1 -1 -1 -1 -1 -1 -1 -1 -1 -1 -1 -1 -1 -1 -1 -1 -1 -1 -1 -1 -1 -1 -1 -1 -1 -1 -1 -1 -1 -1 
249 197 146 94 95 95 96 96 96 97 108 120 128 132 135 132 130 145 159 174 189 194 191 188 186 183 180 178 175 172 170 145 121 96 93 93 93 93 94 94 95 95 95 96 96 96 130 204 223 242 252 252 252 251 251 251 251 174 244 235 227 219 211 203 195 187 178 170 162 154 146 138 130 101 116 124 133 141 150 159 167 176 184 193 201 210 218 227 235 244 244 233 222 219 220 221 221 222 223 224 225 225 221 216 212 207 203 198 194 189 185 181 176 172 167 163 158 154 149 145 140 136 132 127 123 118 114 109 105 100 96 92 87 85 89 93 97 102 106 110 114 118 122 126 131 135 139 143 147 151 155 160 164 168 172 176 180 187 195 202 209 217 224 232 239 244 244 245 245 245 245 245 245 245 245 246 246 246 246 246 246 246 247 247 247 247 247 247 247 247 248 248 248 248 248 248 248 249 249 249 249 249 249 249 249 250 250 250 249 249 248 247 246 245 244 243 87 96 249 249 249 249 249 249 249 249 249 249 249 249 250 250 250 250 250 250 250 250 250 242 195 193 190 188 185 183 180 178 176 173 171 168 166 164 162 161 159 158 156 155 154 152 151 149 148 146 145 144 142 141 139 138 136 135 131 127 122 118 113 108 104 99 95 90 86 81 84 91 98 105 112 119 127 134 141 148 155 162 170 177 184 191 198 205 212 220 200 85 85 86 87 87 88 88 89 155 130 105 148 225 217 -1 -1 -1 -1 -1 -1 -1 -1 -1 -1 -1 -1 -1 -1 -1 -1 -1 -1 -1 -1 -1 -1 -1 -1 -1 -1 -1 -1 -1 -1 -1 -1 -1 -1 -1 -1 -1 -1 -1 -1 -1 -1 -1 -1 -1 -1 -1 -1 -1 -1 -1 -1 -1 -1 -1 -1 -1 -1 -1 -1 -1 -1 -1 -1 -1 -1 -1 -1 -1 -1 -1 -1 -1 -1 -1 -1 -1 -1 -1 -1 -1 -1 -1 -1 -1 -1 -1 -1 -1 -1 -1 -1 -1 -1 -1 -1 -1 -1 -1 -1 -1 -1 -1 -1 -1 -1 -1 -1 -1 -1 -1 -1 -1 -1 -1 -1 -1 -1 -1 -1 -1 -1 -1 -1 -1 -1 -1 -1 -1 -1 -1 -1 -1 -1 -1 -1 -1 -1 -1 -1 -1 -1 -1 -1 -1 -1 -1 -1 -1 -1 -1 -1 -1 -1 -1 -1 -1 -1 -1 -1 
217 198 146 95 95 95 96 96 96 97 97 103 113 117 114 111 117 132 147 162 177 185 183 180 177 175 172 169 167 164 161 158 152 128 103 93 93 93 93 93 94 94 95 95 95 110 191 225 244 252 252 252 251 251 233 126 18 249 241 233 225 216 208 200 192 184 176 168 159 151 143 135 127 119 94 115 124 132 141 149 158 167 175 184 192 201 209 218 226 235 243 245 234 223 224 225 226 227 228 228 229 225 221 216 212 207 203 199 194 190 185 181 176 172 167 163 159 154 150 145 141 136 132 127 123 119 114 110 105 101 96 92 87 85 89 93 98 102 106 110 114 118 122 127 131 135 139 143 147 151 156 160 164 168 172 176 180 185 193 200 208 215 222 230 237 244 244 244 244 245 245 245 245 245 245 245 246 246 246 246 246 246 246 247 247 247 247 247 247 247 247 248 248 248 248 248 248 248 249 249 249 249 249 249 249 249 249 248 247 247 246 245 244 243 242 241 54 173 249 249 249 249 249 249 249 249 249 249 249 250 250 250 250 250 250 250 250 250 250 250 250 229 189 187 184 182 180 177 175 172 170 168 165 163 160 159 157 156 154 153 151 150 149 147 146 144 143 141 140 139 137 136 134 133 130 126 121 117 112 107 103 98 94 89 85 80 85 92 99 106 114 121 128 135 142 149 157 164 171 178 185 192 199 207 214 221 228 110 85 86 86 87 88 88 149 124 98 176 202 193 184 -1 -1 -1 -1 -1 -1 -1 -1 -1 -1 -1 -1 -1 -1 -1 -1 -1 -1 -1 -1 -1 -1 -1 -1 -1 -1 -1 -1 -1 -1 -1 -1 -1 -1 -1 -1 -1 -1 -1 -1 -1 -1 -1 -1 -1 -1 -1 -1 -1 -1 -1 -1 -1 -1 -1 -1 -1 -1 -1 -1 -1 -1 -1 -1 -1 -1 -1 -1 -1 -1 -1 -1 -1 -1 -1 -1 -1 -1 -1 -1 -1 -1 -1 -1 -1 -1 -1 -1 -1 -1 -1 -1 -1 -1 -1 -1 -1 -1 -1 -1 -1 -1 -1 -1 -1 -1 -1 -1 -1 -1 -1 -1 -1 -1 -1 -1 -1 -1 -1 -1 -1 -1 -1 -1 -1 -1 -1 -1 -1 -1 -1 -1 -1 -1 -1 -1 -1 -1 -1 -1 -1 -1 -1 -1 -1 -1 -1 -1 -1 -1 -1 -1 -1 -1 -1 -1 -1 -1 -1 -1 
185 187 146 95 95 95 96 96 97 97 97 98 98 95 93 90 105 120 135 149 164 177 174 172 169 166 164 161 158 156 153 150 147 145 135 111 92 92 92 93 93 93 94 94 94 171 226 246 252 252 252 251 215 108 53 32 111 246 238 230 222 214 206 197 189 181 173 165 157 149 140 132 124 116 108 106 115 123 132 140 149 157 166 174 183 192 200 209 217 226 234 243 246 235 229 230 231 231 232 233 230 226 221 217 212 208 203 199 194 190 186 181 177 172 168 163 159 154 150 146 141 137 132 128 123 119 114 110 105 101 97 92 88 85 89 94 98 102 106 110 114 118 123 127 131 135 139 143 147 152 156 160 164 168 172 176 180 185 191 198 206 213 220 228 235 242 244 244 244 244 245 245 245 245 245 245 245 246 246 246 246 246 246 246 246 247 247 247 247 247 247 247 248 248 248 248 248 248 248 248 249 249 249 249 249 248 247 246 246 245 244 243 242 241 240 186 21 249 249 249 249 249 249 249 249 249 249 249 249 250 250 250 250 250 250 250 250 250 250 250 250 250 250 216 184 181 179 176 174 172 169 167 164 162 159 157 155 154 152 151 149 148 147 145 144 142 141 139 138 137 135 134 132 131 129 125 120 116 111 106 102 97 93 88 84 79 86 94 101 108 115 122 129 136 144 151 158 165 172 179 187 194 201 208 215 222 229 149 85 86 86 87 88 142 117 92 186 178 169 160 152 -1 -1 -1 -1 -1 -1 -1 -1 -1 -1 -1 -1 -1 -1 -1 -1 -1 -1 -1 -1 -1 -1 -1 -1 -1 -1 -1 -1 -1 -1 -1 -1 -1 -1 -1 -1 -1 -1 -1 -1 -1 -1 -1 -1 -1 -1 -1 -1 -1 -1 -1 -1 -1 -1 -1 -1 -1 -1 -1 -1 -1 -1 -1 -1 -1 -1 -1 -1 -1 -1 -1 -1 -1 -1 -1 -1 -1 -1 -1 -1 -1 -1 -1 -1 -1 -1 -1 -1 -1 -1 -1 -1 -1 -1 -1 -1 -1 -1 -1 -1 -1 -1 -1 -1 -1 -1 -1 -1 -1 -1 -1 -1 -1 -1 -1 -1 -1 -1 -1 -1 -1 -1 -1 -1 -1 -1 -1 -1 -1 -1 -1 -1 -1 -1 -1 -1 -1 -1 -1 -1 -1 -1 -1 -1 -1 -1 -1 -1 -1 -1 -1 -1 -1 -1 -1 -1 -1 -1 -1 -1 
152 155 146 95 95 96 96 96 97 97 148 199 250 188 125 91 92 107 122 137 152 167 166 163 161 158 155 153 150 147 145 142 139 136 134 131 118 93 92 92 92 92 93 93 151 228 247 252 252 252 198 108 87 67 46 26 204 244 236 227 219 211 203 195 187 178 170 162 154 146 138 130 121 113 105 97 106 114 123 131 140 148 157 165 174 182 191 200 208 217 225 234 242 247 235 234 235 236 237 235 230 226 221 217 213 208 204 199 195 190 186 181 177 172 168 164 159 155 150 146 141 137 132 128 124 119 115 110 106 101 97 92 88 85 90 94 98 102 106 110 114 119 123 127 131 135 139 143 148 152 156 160 164 168 172 176 181 185 189 196 204 211 218 226 233 241 244 244 244 244 244 245 245 245 245 245 245 245 245 246 246 246 246 246 246 246 247 247 247 247 247 247 247 247 248 248 248 248 248 248 248 249 249 248 247 246 245 244 244 243 242 241 240 239 238 131 97 248 246 243 249 249 249 249 249 249 249 249 249 250 250 250 250 250 250 250 250 250 250 250 250 250 250 250 250 203 178 176 173 171 168 166 164 161 159 156 154 152 150 149 147 146 144 143 142 140 139 137 136 134 133 132 130 129 127 124 119 115 110 106 101 96 92 87 83 81 88 95 102 109 116 124 131 138 145 152 159 166 174 181 188 195 202 209 217 224 231 187 85 86 86 87 102 111 102 163 154 145 137 128 119 -1 -1 -1 -1 -1 -1 -1 -1 -1 -1 -1 -1 -1 -1 -1 -1 -1 -1 -1 -1 -1 -1 -1 -1 -1 -1 -1 -1 -1 -1 -1 -1 -1 -1 -1 -1 -1 -1 -1 -1 -1 -1 -1 -1 -1 -1 -1 -1 -1 -1 -1 -1 -1 -1 -1 -1 -1 -1 -1 -1 -1 -1 -1 -1 -1 -1 -1 -1 -1 -1 -1 -1 -1 -1 -1 -1 -1 -1 -1 -1 -1 -1 -1 -1 -1 -1 -1 -1 -1 -1 -1 -1 -1 -1 -1 -1 -1 -1 -1 -1 -1 -1 -1 -1 -1 -1 -1 -1 -1 -1 -1 -1 -1 -1 -1 -1 -1 -1 -1 -1 -1 -1 -1 -1 -1 -1 -1 -1 -1 -1 -1 -1 -1 -1 -1 -1 -1 -1 -1 -1 -1 -1 -1 -1 -1 -1 -1 -1 -1 -1 -1 -1 -1 -1 -1 -1 -1 -1 -1 -1 
120 123 125 95 95 96 96 147 180 196 211 223 223 160 98 91 91 95 110 125 139 154 158 155 152 150 147 144 142 139 136 134 131 128 125 123 120 117 100 91 91 92 92 130 211 249 252 252 180 142 122 101 81 60 40 20 249 241 233 225 217 208 200 192 184 176 168 160 151 143 135 127 119 112 108 105 110 116 123 129 135 141 148 156 165 173 182 190 199 207 216 225 233 242 247 239 240 241 240 235 231 226 222 217 213 208 204 199 195 191 186 182 177 173 168 164 159 155 151 146 142 137 133 128 124 119 115 110 106 102 97 93 88 86 90 94 98 102 106 110 115 119 123 127 131 135 139 144 148 152 156 160 164 168 172 177 181 185 189 194 202 209 217 224 231 239 244 244 244 244 244 244 244 245 245 245 245 245 245 245 246 246 246 246 246 246 246 247 247 247 247 247 247 247 247 248 248 248 248 248 248 248 247 246 245 244 243 242 242 241 240 239 238 237 236 76 173 247 245 243 240 238 235 249 249 249 249 249 250 250 250 250 250 250 250 250 250 250 250 250 250 250 250 250 250 250 250 190 172 170 168 165 163 160 158 155 153 151 148 147 145 144 142 141 140 138 137 135 134 132 131 130 128 127 125 123 118 114 109 105 100 95 91 86 82 82 89 96 103 111 118 125 132 139 146 154 161 168 175 182 189 196 204 211 218 225 232 226 98 85 86 87 104 130 139 130 122 113 104 96 87 -1 -1 -1 -1 -1 -1 -1 -1 -1 -1 -1 -1 -1 -1 -1 -1 -1 -1 -1 -1 -1 -1 -1 -1 -1 -1 -1 -1 -1 -1 -1 -1 -1 -1 -1 -1 -1 -1 -1 -1 -1 -1 -1 -1 -1 -1 -1 -1 -1 -1 -1 -1 -1 -1 -1 -1 -1 -1 -1 -1 -1 -1 -1 -1 -1 -1 -1 -1 -1 -1 -1 -1 -1 -1 -1 -1 -1 -1 -1 -1 -1 -1 -1 -1 -1 -1 -1 -1 -1 -1 -1 -1 -1 -1 -1 -1 -1 -1 -1 -1 -1 -1 -1 -1 -1 -1 -1 -1 -1 -1 -1 -1 -1 -1 -1 -1 -1 -1 -1 -1 -1 -1 -1 -1 -1 -1 -1 -1 -1 -1 -1 -1 -1 -1 -1 -1 -1 -1 -1 -1 -1 -1 -1 -1 -1 -1 -1 -1 -1 -1 -1 -1 -1 -1 -1 -1 -1 -1 -1 -1 
88 90 93 95 111 126 142 157 173 187 196 205 196 133 92 92 92 92 97 112 127 142 150 147 144 141 139 136 133 131 128 125 123 120 117 114 112 109 106 104 91 91 110 191 250 252 197 177 156 136 115 95 74 54 34 136 247 238 230 222 214 206 198 189 181 173 165 157 149 140 132 126 123 119 116 112 117 123 129 136 142 148 154 161 167 173 180 186 192 198 207 215 224 233 241 248 244 244 240 235 231 226 222 218 213 209 204 200 195 191 186 182 178 173 169 164 160 155 151 146 142 137 133 129 124 120 115 111 106 102 97 93 89 86 90 94 98 102 106 111 115 119 123 127 131 135 139 144 148 152 156 160 164 168 173 177 181 185 189 193 200 207 215 222 229 237 244 244 244 244 244 244 244 244 245 245 245 245 245 245 245 246 246 246 246 246 246 246 246 247 247 247 247 247 247 247 248 248 248 248 247 246 245 244 243 242 241 240 240 239 238 237 236 235 234 21 249 247 244 242 239 237 235 232 230 228 249 249 250 250 250 250 250 250 250 250 250 250 250 250 250 250 250 250 250 250 250 250 239 177 167 164 162 159 157 155 152 150 147 145 143 142 140 139 137 136 135 133 132 130 129 127 126 125 123 122 117 113 108 104 99 94 90 85 81 83 90 98 105 112 119 126 133 141 148 155 162 169 176 184 191 198 205 212 219 226 234 241 136 85 86 98 124 115 107 98 89 116 160 205 249 -1 -1 -1 -1 -1 -1 -1 -1 -1 -1 -1 -1 -1 -1 -1 -1 -1 -1 -1 -1 -1 -1 -1 -1 -1 -1 -1 -1 -1 -1 -1 -1 -1 -1 -1 -1 -1 -1 -1 -1 -1 -1 -1 -1 -1 -1 -1 -1 -1 -1 -1 -1 -1 -1 -1 -1 -1 -1 -1 -1 -1 -1 -1 -1 -1 -1 -1 -1 -1 -1 -1 -1 -1 -1 -1 -1 -1 -1 -1 -1 -1 -1 -1 -1 -1 -1 -1 -1 -1 -1 -1 -1 -1 -1 -1 -1 -1 -1 -1 -1 -1 -1 -1 -1 -1 -1 -1 -1 -1 -1 -1 -1 -1 -1 -1 -1 -1 -1 -1 -1 -1 -1 -1 -1 -1 -1 -1 -1 -1 -1 -1 -1 -1 -1 -1 -1 -1 -1 -1 -1 -1 -1 -1 -1 -1 -1 -1 -1 -1 -1 -1 -1 -1 -1 -1 -1 -1 -1 -1 -1 
251 250 249 248 103 119 134 150 160 169 178 186 168 106 92 93 93 93 93 100 115 129 141 139 136 133 130 128 125 122 120 117 114 112 109 106 103 101 98 95 93 90 171 252 232 211 191 170 150 129 109 89 68 48 27 252 244 236 228 219 211 203 195 187 179 170 162 154 146 141 137 134 130 127 124 120 124 130 136 142 149 155 161 168 174 180 186 193 199 205 211 218 224 230 236 243 249 245 240 236 231 227 222 218 213 209 205 200 196 191 187 182 178 173 169 164 160 156 151 147 142 138 133 129 124 120 116 111 107 102 98 93 89 86 90 94 98 102 107 111 115 119 123 127 131 135 140 144 148 152 156 160 164 169 173 177 181 185 189 193 198 205 213 220 227 235 242 243 244 244 244 244 244 244 244 245 245 245 245 245 245 245 245 246 246 246 246 246 246 246 247 247 247 247 247 247 247 247 247 246 245 244 243 242 241 240 239 238 238 237 236 235 234 233 232 97 248 246 243 241 239 236 234 232 229 227 224 222 225 250 250 250 250 250 250 250 250 250 250 250 250 250 250 250 250 250 250 250 250 250 226 164 161 159 156 154 151 149 147 144 142 140 138 137 135 134 133 131 130 128 127 125 124 123 121 120 116 112 107 103 98 94 89 84 80 85 92 99 106 113 120 128 135 142 149 156 163 171 178 185 192 199 206 213 221 228 235 242 175 85 91 100 91 100 145 167 168 169 170 170 171 -1 -1 -1 -1 -1 -1 -1 -1 -1 -1 -1 -1 -1 -1 -1 -1 -1 -1 -1 -1 -1 -1 -1 -1 -1 -1 -1 -1 -1 -1 -1 -1 -1 -1 -1 -1 -1 -1 -1 -1 -1 -1 -1 -1 -1 -1 -1 -1 -1 -1 -1 -1 -1 -1 -1 -1 -1 -1 -1 -1 -1 -1 -1 -1 -1 -1 -1 -1 -1 -1 -1 -1 -1 -1 -1 -1 -1 -1 -1 -1 -1 -1 -1 -1 -1 -1 -1 -1 -1 -1 -1 -1 -1 -1 -1 -1 -1 -1 -1 -1 -1 -1 -1 -1 -1 -1 -1 -1 -1 -1 -1 -1 -1 -1 -1 -1 -1 -1 -1 -1 -1 -1 -1 -1 -1 -1 -1 -1 -1 -1 -1 -1 -1 -1 -1 -1 -1 -1 -1 -1 -1 -1 -1 -1 -1 -1 -1 -1 -1 -1 -1 -1 -1 -1 -1 -1 -1 -1 -1 -1 
171 170 169 168 96 111 124 133 142 150 159 168 141 93 93 93 93 93 94 94 102 117 132 130 128 125 122 119 117 114 111 109 106 103 101 98 95 92 99 113 126 140 198 245 225 205 184 164 143 123 103 82 62 41 21 249 241 233 225 217 208 200 192 184 176 168 159 155 152 148 145 141 138 135 131 128 130 137 143 149 155 162 168 174 181 187 193 199 206 212 218 224 231 237 243 249 249 249 244 238 232 227 223 218 214 209 205 200 196 191 187 183 178 174 169 165 160 156 151 147 143 138 134 129 125 120 116 111 107 102 98 94 89 86 90 94 98 103 107 111 115 119 123 127 131 136 140 144 148 152 156 160 165 169 173 177 181 185 189 194 198 203 211 218 226 233 240 243 243 244 244 244 244 244 244 244 244 245 245 245 245 245 245 245 246 246 246 246 246 246 246 247 247 247 247 247 247 246 245 244 243 242 241 240 239 238 237 236 236 235 234 233 232 231 230 173 247 245 243 240 238 235 233 231 228 226 224 221 219 216 214 226 250 250 250 250 250 250 250 250 250 250 250 250 250 250 250 250 250 250 250 251 213 158 155 153 151 148 146 143 141 138 136 135 133 132 130 129 128 126 125 123 122 120 119 118 115 111 106 102 97 93 88 83 79 86 93 100 108 115 122 129 136 143 150 158 165 172 179 186 193 201 208 215 222 229 236 243 213 85 86 86 87 88 89 89 90 91 92 92 93 -1 -1 -1 -1 -1 -1 -1 -1 -1 -1 -1 -1 -1 -1 -1 -1 -1 -1 -1 -1 -1 -1 -1 -1 -1 -1 -1 -1 -1 -1 -1 -1 -1 -1 -1 -1 -1 -1 -1 -1 -1 -1 -1 -1 -1 -1 -1 -1 -1 -1 -1 -1 -1 -1 -1 -1 -1 -1 -1 -1 -1 -1 -1 -1 -1 -1 -1 -1 -1 -1 -1 -1 -1 -1 -1 -1 -1 -1 -1 -1 -1 -1 -1 -1 -1 -1 -1 -1 -1 -1 -1 -1 -1 -1 -1 -1 -1 -1 -1 -1 -1 -1 -1 -1 -1 -1 -1 -1 -1 -1 -1 -1 -1 -1 -1 -1 -1 -1 -1 -1 -1 -1 -1 -1 -1 -1 -1 -1 -1 -1 -1 -1 -1 -1 -1 -1 -1 -1 -1 -1 -1 -1 -1 -1 -1 -1 -1 -1 -1 -1 -1 -1 -1 -1 -1 -1 -1 -1 -1 -1 
91 90 90 89 88 97 106 114 123 132 141 150 114 93 94 94 94 94 94 94 95 105 119 122 119 117 114 111 108 106 103 100 98 95 95 109 122 136 149 162 176 189 225 239 218 198 178 157 137 117 96 76 55 35 113 246 238 230 222 214 206 197 189 181 173 170 166 163 159 156 153 149 146 142 139 136 137 143 150 156 162 169 175 181 187 194 200 206 212 219 225 231 237 244 249 249 249 249 249 244 238 232 226 220 214 210 205 201 196 192 187 183 178 174 169 165 161 156 152 147 143 138 134 129 125 121 116 112 107 103 98 94 89 86 90 94 99 103 107 111 115 119 123 127 132 136 140 144 148 152 156 161 165 169 173 177 181 185 190 194 198 202 209 216 224 231 238 243 243 243 244 244 244 244 244 244 244 244 245 245 245 245 245 245 245 246 246 246 246 246 246 246 246 247 247 246 245 244 243 242 241 240 239 238 237 236 235 235 234 233 232 231 231 231 164 249 247 244 242 239 237 235 232 230 228 225 223 220 218 216 213 211 208 206 226 250 250 250 250 250 250 250 250 250 250 250 250 250 250 250 251 251 251 251 200 152 150 147 145 143 140 138 135 133 131 130 128 127 126 124 123 121 120 118 117 116 114 110 105 101 96 92 87 82 80 87 95 102 109 116 123 130 138 145 152 159 166 173 180 188 195 202 209 216 223 231 238 245 252 177 102 99 115 132 149 166 183 200 217 234 251 -1 -1 -1 -1 -1 -1 -1 -1 -1 -1 -1 -1 -1 -1 -1 -1 -1 -1 -1 -1 -1 -1 -1 -1 -1 -1 -1 -1 -1 -1 -1 -1 -1 -1 -1 -1 -1 -1 -1 -1 -1 -1 -1 -1 -1 -1 -1 -1 -1 -1 -1 -1 -1 -1 -1 -1 -1 -1 -1 -1 -1 -1 -1 -1 -1 -1 -1 -1 -1 -1 -1 -1 -1 -1 -1 -1 -1 -1 -1 -1 -1 -1 -1 -1 -1 -1 -1 -1 -1 -1 -1 -1 -1 -1 -1 -1 -1 -1 -1 -1 -1 -1 -1 -1 -1 -1 -1 -1 -1 -1 -1 -1 -1 -1 -1 -1 -1 -1 -1 -1 -1 -1 -1 -1 -1 -1 -1 -1 -1 -1 -1 -1 -1 -1 -1 -1 -1 -1 -1 -1 -1 -1 -1 -1 -1 -1 -1 -1 -1 -1 -1 -1 -1 -1 -1 -1 -1 -1 -1 -1 
243 245 247 248 250 153 102 96 105 114 123 132 94 94 94 94 95 95 95 95 95 95 107 114 111 108 106 103 100 97 95 105 118 132 145 158 172 185 199 212 225 239 252 232 212 191 171 151 131 110 90 69 49 28 205 244 236 227 219 211 203 195 188 184 181 177 174 170 167 164 160 157 153 150 147 143 144 150 157 163 169 175 182 188 194 200 207 213 219 225 232 238 244 249 249 249 249 249 249 249 244 239 233 227 221 215 209 203 197 192 188 183 179 174 170 165 161 156 152 148 143 139 134 130 125 121 116 112 107 103 99 94 90 86 90 94 99 103 107 111 115 119 123 128 132 136 140 144 148 152 157 161 165 169 173 177 181 186 190 194 198 202 207 214 222 229 236 243 243 243 243 243 244 244 244 244 244 244 244 245 245 245 245 245 245 245 245 246 246 246 246 246 246 246 245 244 243 242 241 240 239 238 237 236 235 234 233 233 232 232 232 232 233 233 97 248 246 243 241 239 236 234 232 229 227 224 222 220 217 215 212 210 208 205 203 201 202 226 250 250 250 250 250 250 250 250 250 250 250 250 251 251 251 251 251 249 186 147 144 142 139 137 134 132 130 128 126 125 123 122 121 119 118 116 115 113 112 109 104 100 95 91 86 82 82 89 96 103 110 117 125 132 139 146 153 160 168 175 182 189 196 203 210 218 225 232 239 252 252 247 194 119 95 112 129 146 163 180 197 214 231 -1 -1 -1 -1 -1 -1 -1 -1 -1 -1 -1 -1 -1 -1 -1 -1 -1 -1 -1 -1 -1 -1 -1 -1 -1 -1 -1 -1 -1 -1 -1 -1 -1 -1 -1 -1 -1 -1 -1 -1 -1 -1 -1 -1 -1 -1 -1 -1 -1 -1 -1 -1 -1 -1 -1 -1 -1 -1 -1 -1 -1 -1 -1 -1 -1 -1 -1 -1 -1 -1 -1 -1 -1 -1 -1 -1 -1 -1 -1 -1 -1 -1 -1 -1 -1 -1 -1 -1 -1 -1 -1 -1 -1 -1 -1 -1 -1 -1 -1 -1 -1 -1 -1 -1 -1 -1 -1 -1 -1 -1 -1 -1 -1 -1 -1 -1 -1 -1 -1 -1 -1 -1 -1 -1 -1 -1 -1 -1 -1 -1 -1 -1 -1 -1 -1 -1 -1 -1 -1 -1 -1 -1 -1 -1 -1 -1 -1 -1 -1 -1 -1 -1 -1 -1 -1 -1 -1 -1 -1 -1 
167 153 139 125 111 195 218 152 116 96 104 113 95 95 95 95 95 95 96 96 96 96 96 105 103 100 97 101 114 128 141 154 168 178 186 194 201 209 217 225 232 240 248 242 205 185 164 144 124 104 83 63 42 22 249 241 233 225 216 208 202 199 195 192 188 185 182 178 175 171 168 165 161 158 154 151 151 157 163 170 176 182 188 195 201 207 213 220 226 232 239 245 250 250 250 250 250 250 250 250 250 245 239 233 227 221 215 209 203 197 192 186 180 175 170 166 161 157 152 148 143 139 134 130 126 121 117 112 108 103 99 94 90 86 90 95 99 103 107 111 115 119 124 128 132 136 140 144 148 153 157 161 165 169 173 177 182 186 190 194 198 202 206 212 220 227 235 242 243 243 243 243 243 244 244 244 244 244 244 244 244 245 245 245 245 245 245 245 246 246 246 245 244 244 243 242 241 240 239 238 237 236 235 234 233 232 232 233 233 233 234 234 234 184 173 247 245 243 240 238 235 233 231 228 226 224 221 219 216 214 212 209 207 205 202 200 197 195 193 202 226 250 250 250 250 250 250 250 250 250 251 251 251 251 251 251 251 236 173 141 138 136 134 131 129 126 124 123 121 120 119 117 116 114 113 111 110 108 103 99 94 90 85 81 83 90 97 104 112 119 126 133 140 147 155 162 169 176 183 190 198 205 212 219 226 252 252 252 252 252 241 211 136 92 109 126 142 159 176 193 210 -1 -1 -1 -1 -1 -1 -1 -1 -1 -1 -1 -1 -1 -1 -1 -1 -1 -1 -1 -1 -1 -1 -1 -1 -1 -1 -1 -1 -1 -1 -1 -1 -1 -1 -1 -1 -1 -1 -1 -1 -1 -1 -1 -1 -1 -1 -1 -1 -1 -1 -1 -1 -1 -1 -1 -1 -1 -1 -1 -1 -1 -1 -1 -1 -1 -1 -1 -1 -1 -1 -1 -1 -1 -1 -1 -1 -1 -1 -1 -1 -1 -1 -1 -1 -1 -1 -1 -1 -1 -1 -1 -1 -1 -1 -1 -1 -1 -1 -1 -1 -1 -1 -1 -1 -1 -1 -1 -1 -1 -1 -1 -1 -1 -1 -1 -1 -1 -1 -1 -1 -1 -1 -1 -1 -1 -1 -1 -1 -1 -1 -1 -1 -1 -1 -1 -1 -1 -1 -1 -1 -1 -1 -1 -1 -1 -1 -1 -1 -1 -1 -1 -1 -1 -1 -1 -1 -1 -1 -1 -1 
91 106 121 136 112 135 166 223 202 166 131 95 95 95 96 96 96 96 96 96 97 97 97 97 105 112 120 128 136 143 151 159 166 174 182 190 197 205 213 220 228 236 243 251 233 178 158 138 117 97 77 56 36 98 246 238 230 222 217 213 210 206 203 200 196 193 189 186 182 179 176 172 169 165 162 159 158 164 170 176 183 189 195 201 208 214 220 226 233 239 245 250 250 250 250 250 250 250 250 250 250 250 245 239 234 228 222 216 210 204 198 192 186 180 174 168 162 157 153 148 144 139 135 130 126 121 117 113 108 104 99 95 90 86 91 95 99 103 107 111 115 120 124 128 132 136 140 144 149 153 157 161 165 169 173 178 182 186 190 194 198 202 206 211 218 225 233 240 243 243 243 243 243 243 244 244 244 244 244 244 244 244 245 245 245 245 245 245 245 245 244 243 242 242 241 240 239 238 237 236 235 234 233 233 233 234 234 234 235 235 235 236 236 191 249 247 244 242 239 237 235 232 230 228 225 223 220 218 216 213 211 208 206 204 201 199 197 194 192 189 187 185 202 226 250 250 250 250 250 251 251 251 251 251 251 251 251 251 251 223 160 135 133 130 128 126 123 121 119 118 116 115 114 112 111 109 108 106 102 98 93 89 84 80 84 92 99 106 113 120 127 134 142 149 156 163 170 177 185 192 199 206 213 252 252 252 252 252 252 252 252 236 250 153 88 105 122 139 156 173 190 -1 -1 -1 -1 -1 -1 -1 -1 -1 -1 -1 -1 -1 -1 -1 -1 -1 -1 -1 -1 -1 -1 -1 -1 -1 -1 -1 -1 -1 -1 -1 -1 -1 -1 -1 -1 -1 -1 -1 -1 -1 -1 -1 -1 -1 -1 -1 -1 -1 -1 -1 -1 -1 -1 -1 -1 -1 -1 -1 -1 -1 -1 -1 -1 -1 -1 -1 -1 -1 -1 -1 -1 -1 -1 -1 -1 -1 -1 -1 -1 -1 -1 -1 -1 -1 -1 -1 -1 -1 -1 -1 -1 -1 -1 -1 -1 -1 -1 -1 -1 -1 -1 -1 -1 -1 -1 -1 -1 -1 -1 -1 -1 -1 -1 -1 -1 -1 -1 -1 -1 -1 -1 -1 -1 -1 -1 -1 -1 -1 -1 -1 -1 -1 -1 -1 -1 -1 -1 -1 -1 -1 -1 -1 -1 -1 -1 -1 -1 -1 -1 -1 -1 -1 -1 -1 -1 -1 -1 -1 -1 
