P2
#CREATOR : MyProgram
120 100
255
251 251 251 251 251 251 251 251 251 251 251 251 251 251 251 251 251 251 251 251 251 251 251 251 251 251 251 251 195 140 84 84 84 85 85 85 85 85 86 86 86 86 86 86 87 87 87 87 87 88 88 88 88 88 89 89 89 89 89 89 90 90 90 90 90 91 91 91 91 91 92 92 92 92 92 92 93 93 93 93 93 94 94 94 94 94 95 95 95 95 95 95 96 96 96 96 96 97 97 97 -1 -1 -1 -1 -1 -1 -1 -1 -1 -1 -1 -1 -1 -1 -1 -1 -1 -1 -1 -1 
98 98 98 98 98 98 98 98 98 98 98 98 98 98 98 98 98 98 98 98 149 200 251 251 252 252 253 253 253 253 253 253 253 239 225 211 197 183 169 155 141 127 167 206 246 234 222 210 197 185 173 161 149 137 124 112 100 100 99 99 99 99 98 98 98 98 97 97 97 96 96 96 96 95 95 95 95 94 94 94 93 93 93 93 92 92 95 100 105 111 116 122 127 132 138 143 149 96 97 98 -1 -1 -1 -1 -1 -1 -1 -1 -1 -1 -1 -1 -1 -1 -1 -1 -1 -1 -1 -1 
94 97 98 98 98 98 99 99 99 99 99 99 99 99 99 99 98 94 93 98 98 98 98 98 98 98 98 98 98 98 98 98 98 98 98 98 98 98 98 98 249 132 172 198 207 188 170 158 146 134 121 109 97 98 99 100 97 99 176 182 189 196 203 209 216 223 230 236 243 250 196 141 87 92 98 103 109 114 119 125 130 136 141 146 152 157 163 168 173 179 184 190 195 200 120 94 96 97 98 99 -1 -1 -1 -1 -1 -1 -1 -1 -1 -1 -1 -1 -1 -1 -1 -1 -1 -1 -1 -1 
90 93 96 98 98 98 99 99 99 99 99 99 99 97 94 91 88 88 93 98 98 98 120 120 120 120 113 100 113 99 99 99 99 99 121 94 103 103 103 102 98 124 150 176 167 149 131 112 94 95 96 97 98 99 100 97 94 96 97 137 251 251 251 251 252 252 252 252 252 211 171 130 89 90 91 92 119 170 176 183 189 195 202 208 214 220 227 233 239 246 252 172 92 93 94 96 97 98 99 101 -1 -1 -1 -1 -1 -1 -1 -1 -1 -1 -1 -1 -1 -1 -1 -1 -1 -1 -1 -1 
86 89 92 95 98 98 99 99 100 100 97 94 90 87 84 81 83 88 93 97 97 127 142 142 142 129 116 103 169 128 100 100 100 143 147 89 109 109 109 105 127 102 129 146 128 109 91 93 95 96 97 98 100 101 97 94 91 92 94 96 98 98 98 98 98 98 98 98 156 214 173 132 92 92 93 94 95 97 98 99 150 202 253 242 231 220 209 198 187 177 209 174 94 99 96 97 98 99 101 102 -1 -1 -1 -1 -1 -1 -1 -1 -1 -1 -1 -1 -1 -1 -1 -1 -1 -1 -1 -1 
165 135 138 141 99 106 112 140 190 240 207 174 140 107 74 79 83 88 92 97 126 156 163 157 144 131 118 105 152 184 142 101 166 200 142 85 104 114 112 134 157 121 107 106 88 90 92 94 95 171 99 100 101 97 94 91 87 89 91 94 97 132 132 132 132 132 130 122 133 118 176 135 94 95 95 96 97 99 97 94 95 97 98 99 99 100 100 101 101 133 165 175 95 132 106 98 99 101 102 103 -1 -1 -1 -1 -1 -1 -1 -1 -1 -1 -1 -1 -1 -1 -1 -1 -1 -1 -1 -1 
244 214 183 132 100 107 113 120 126 133 123 112 102 92 81 82 85 119 185 251 218 185 172 159 146 133 120 107 134 240 244 249 253 195 138 80 100 119 141 164 186 179 85 87 89 91 92 94 96 153 173 101 98 94 91 88 84 86 89 93 96 166 166 166 166 162 154 145 156 167 116 137 97 97 97 98 99 95 88 89 91 93 96 97 98 98 99 111 130 108 122 154 97 144 139 113 101 102 103 104 -1 -1 -1 -1 -1 -1 -1 -1 -1 -1 -1 -1 -1 -1 -1 -1 -1 -1 -1 -1 
99 127 155 123 101 107 114 121 124 125 125 120 109 99 89 86 89 93 96 99 128 158 164 155 146 136 123 110 117 169 169 171 175 199 222 246 250 253 249 246 242 238 95 88 90 91 93 95 97 136 248 191 135 129 157 119 81 85 88 92 95 165 200 200 194 185 177 169 180 191 202 150 99 99 100 100 93 86 83 85 88 91 94 96 97 103 121 140 158 137 115 111 98 145 171 146 120 103 104 106 -1 -1 -1 -1 -1 -1 -1 -1 -1 -1 -1 -1 -1 -1 -1 -1 -1 -1 -1 -1 
102 98 126 114 102 108 115 116 116 117 117 117 117 106 96 91 94 97 114 94 101 130 152 143 134 126 117 108 99 99 98 98 97 98 100 101 102 177 202 178 153 129 105 90 91 93 94 96 97 118 199 207 188 169 112 156 251 249 247 245 241 238 234 226 217 209 201 192 203 214 225 236 195 190 219 249 163 77 80 83 86 89 92 95 113 132 150 168 187 165 143 122 100 147 194 178 153 127 106 107 -1 -1 -1 -1 -1 -1 -1 -1 -1 -1 -1 -1 -1 -1 -1 -1 -1 -1 -1 -1 
106 102 98 106 103 106 107 107 108 108 108 108 108 108 103 95 99 129 174 88 96 103 132 131 122 113 105 113 129 108 107 107 106 100 99 100 101 101 176 152 127 120 115 91 93 94 96 97 99 100 150 185 166 147 128 108 89 91 94 96 131 167 202 188 174 177 196 216 192 168 168 167 167 251 219 188 199 252 227 203 178 154 129 105 172 170 179 197 215 194 172 174 176 173 195 211 185 160 134 108 -1 -1 -1 -1 -1 -1 -1 -1 -1 -1 -1 -1 -1 -1 -1 -1 -1 -1 -1 -1 
109 105 101 97 98 98 99 99 100 100 100 100 100 100 100 100 145 189 169 83 90 98 105 119 110 110 126 143 159 117 116 116 116 109 103 99 101 100 100 125 109 111 112 101 94 96 97 99 113 125 100 150 144 125 106 102 129 95 97 135 99 135 170 156 142 128 114 100 100 99 99 98 98 97 96 96 95 205 228 204 185 164 139 115 250 249 247 246 244 246 248 249 251 249 246 244 244 245 245 245 -1 -1 -1 -1 -1 -1 -1 -1 -1 -1 -1 -1 -1 -1 -1 -1 -1 -1 -1 -1 
252 250 247 245 242 223 204 185 175 175 175 176 176 176 176 200 225 249 163 77 85 92 100 107 124 140 157 173 190 126 125 125 125 119 112 106 100 100 99 99 100 102 103 105 96 97 105 126 147 150 125 101 123 103 115 142 169 98 118 175 115 103 138 124 110 96 116 123 111 107 107 106 106 105 105 104 114 158 246 204 175 157 138 119 100 100 100 100 100 99 99 98 95 93 90 87 92 97 102 107 -1 -1 -1 -1 -1 -1 -1 -1 -1 -1 -1 -1 -1 -1 -1 -1 -1 -1 -1 -1 
176 174 174 199 250 250 250 250 250 250 250 250 251 251 243 236 228 221 171 246 249 252 223 193 179 179 187 203 220 135 135 134 134 151 167 186 208 229 251 224 198 171 146 122 97 118 139 160 182 175 150 126 101 128 155 182 209 101 157 214 154 94 106 92 95 131 158 146 134 122 115 115 114 114 113 123 134 144 221 222 180 147 128 109 96 96 97 101 102 101 101 111 108 105 102 112 96 95 100 105 -1 -1 -1 -1 -1 -1 -1 -1 -1 -1 -1 -1 -1 -1 -1 -1 -1 -1 -1 -1 
100 100 100 100 100 100 100 100 175 194 157 121 84 142 199 208 200 193 153 92 252 176 201 225 250 250 250 250 250 250 250 250 251 251 244 237 230 222 221 223 228 233 238 243 220 197 174 195 216 200 176 176 177 161 191 220 249 250 252 253 193 134 74 110 147 183 181 169 157 144 132 123 123 122 132 143 153 163 174 240 198 155 118 99 93 95 98 102 104 103 113 123 120 118 150 137 121 106 97 102 -1 -1 -1 -1 -1 -1 -1 -1 -1 -1 -1 -1 -1 -1 -1 -1 -1 -1 -1 -1 
130 147 147 123 98 98 98 100 175 138 102 101 117 101 90 147 172 165 136 96 98 100 100 100 100 100 103 106 109 101 92 129 167 204 208 201 194 191 191 191 195 200 205 207 212 222 231 241 250 251 251 252 252 215 222 251 201 202 209 219 233 249 206 163 199 216 204 192 180 167 155 143 131 141 152 162 172 183 193 236 216 174 131 89 92 96 99 103 106 116 126 136 133 177 176 162 146 131 115 100 -1 -1 -1 -1 -1 -1 -1 -1 -1 -1 -1 -1 -1 -1 -1 -1 -1 -1 -1 -1 
160 185 194 145 96 96 98 100 119 100 117 134 151 130 119 107 95 137 118 99 100 100 149 149 149 120 103 106 105 96 126 104 120 157 172 165 161 161 161 161 161 166 172 172 172 181 191 200 97 95 92 90 87 170 253 151 155 165 175 184 196 212 187 200 251 251 251 251 252 252 252 252 252 237 222 207 192 202 212 222 234 192 195 245 195 172 175 179 124 179 163 148 192 214 201 187 171 156 185 237 -1 -1 -1 -1 -1 -1 -1 -1 -1 -1 -1 -1 -1 -1 -1 -1 -1 -1 -1 -1 
189 215 241 168 94 96 98 100 117 134 151 167 184 160 148 136 124 113 101 101 100 100 197 197 169 141 113 105 101 172 161 141 115 110 137 131 131 131 131 130 130 133 136 136 136 141 150 95 92 97 97 95 92 97 101 111 121 130 140 150 160 175 150 126 101 211 211 211 211 211 211 212 81 102 124 145 167 188 209 231 252 199 173 173 173 199 251 196 142 142 251 252 252 239 227 212 219 222 192 192 -1 -1 -1 -1 -1 -1 -1 -1 -1 -1 -1 -1 -1 -1 -1 -1 -1 -1 -1 -1 
219 245 215 208 247 223 200 176 176 176 184 201 218 193 177 165 153 159 199 239 241 244 246 218 190 161 133 105 176 206 195 178 152 127 101 101 101 101 100 100 100 100 100 100 100 100 92 85 86 92 97 100 98 102 144 133 121 108 106 116 126 138 113 130 140 113 171 171 171 171 171 100 121 115 94 95 96 97 99 100 101 101 101 101 101 101 101 102 104 105 100 96 91 172 252 207 162 147 147 147 -1 -1 -1 -1 -1 -1 -1 -1 -1 -1 -1 -1 -1 -1 -1 -1 -1 -1 -1 -1 
249 219 189 158 175 200 226 252 252 252 251 251 251 226 206 194 217 238 241 244 247 249 249 249 220 192 193 222 252 241 229 215 189 176 176 163 151 171 191 211 231 251 248 246 243 240 158 75 81 86 92 97 103 198 187 177 166 154 140 127 114 101 159 192 178 164 124 130 130 131 118 166 160 155 149 106 107 108 109 110 121 131 131 131 131 131 131 111 95 97 94 89 90 94 98 102 102 102 102 102 -1 -1 -1 -1 -1 -1 -1 -1 -1 -1 -1 -1 -1 -1 -1 -1 -1 -1 -1 -1 
102 102 102 102 102 102 103 103 127 150 174 198 199 177 235 238 241 244 246 249 252 252 252 251 251 214 177 198 202 192 222 252 251 251 250 238 226 214 202 222 242 251 250 247 245 246 244 239 242 244 247 249 252 241 230 220 209 198 186 173 160 175 245 231 217 202 182 136 90 137 184 205 200 194 189 184 140 118 120 126 142 158 161 161 161 161 161 161 121 88 87 86 90 127 147 143 138 111 111 111 -1 -1 -1 -1 -1 -1 -1 -1 -1 -1 -1 -1 -1 -1 -1 -1 -1 -1 -1 -1 
111 105 102 102 102 102 102 149 97 121 144 168 146 124 102 102 102 102 102 102 102 102 102 102 102 123 145 166 152 103 99 95 91 152 214 199 184 187 209 230 252 251 250 249 250 251 252 225 198 172 174 177 202 251 229 240 252 241 230 219 206 249 249 248 248 241 227 193 186 218 250 245 239 234 229 223 218 174 130 146 162 179 192 192 192 191 191 191 181 131 81 151 197 192 188 183 179 174 120 120 -1 -1 -1 -1 -1 -1 -1 -1 -1 -1 -1 -1 -1 -1 -1 -1 -1 -1 -1 -1 
120 114 107 101 101 101 101 194 143 91 115 116 94 149 133 140 140 140 140 140 135 121 102 102 102 102 112 133 102 126 97 93 94 116 177 162 147 133 118 103 103 102 102 102 103 103 158 212 185 158 131 104 152 201 249 194 206 217 229 240 252 252 252 252 252 251 251 251 224 198 171 186 200 211 221 231 242 252 195 138 160 199 215 222 222 221 221 221 221 191 246 242 237 233 228 224 219 215 210 129 -1 -1 -1 -1 -1 -1 -1 -1 -1 -1 -1 -1 -1 -1 -1 -1 -1 -1 -1 -1 
129 136 144 151 240 240 240 240 188 137 85 141 196 164 164 173 177 177 177 174 167 158 139 120 101 101 101 101 177 149 95 93 96 99 141 126 111 103 103 102 102 102 123 132 132 129 111 118 173 145 118 107 125 151 200 248 176 171 183 194 187 143 98 98 98 98 98 98 96 94 92 107 121 136 151 161 171 176 176 175 146 129 190 252 252 251 251 251 251 251 168 178 188 197 205 214 222 230 238 246 -1 -1 -1 -1 -1 -1 -1 -1 -1 -1 -1 -1 -1 -1 -1 -1 -1 -1 -1 -1 
191 191 194 202 246 246 246 246 220 168 206 243 211 187 196 204 212 215 213 206 200 193 177 158 192 252 252 251 251 172 93 96 99 101 104 104 103 103 102 102 101 123 144 162 162 155 138 120 102 133 106 109 128 146 165 198 247 175 137 148 122 108 123 129 129 129 129 139 100 98 98 99 99 100 100 101 101 100 100 99 98 98 97 97 98 98 94 89 85 80 90 100 109 119 129 139 149 157 165 173 -1 -1 -1 -1 -1 -1 -1 -1 -1 -1 -1 -1 -1 -1 -1 -1 -1 -1 -1 -1 
252 252 252 252 252 251 251 251 251 248 246 243 226 218 227 235 244 252 245 239 232 226 214 222 243 224 214 214 217 229 242 242 243 243 243 229 214 200 185 171 156 151 165 187 192 181 164 146 128 111 93 112 130 149 167 186 204 245 174 102 117 132 147 159 159 159 163 179 196 101 105 105 106 106 118 131 129 137 136 136 135 134 128 128 128 129 124 120 115 89 101 115 101 89 91 92 94 96 98 100 -1 -1 -1 -1 -1 -1 -1 -1 -1 -1 -1 -1 -1 -1 -1 -1 -1 -1 -1 -1 
96 101 105 110 105 100 95 90 200 188 176 209 241 215 189 185 202 211 195 179 203 228 252 233 215 196 177 177 183 195 206 215 215 215 215 208 200 226 240 226 211 202 201 208 221 207 190 172 195 219 242 242 243 243 243 243 244 244 244 209 175 157 172 187 190 190 203 220 236 253 111 123 136 148 160 159 157 166 173 173 172 163 159 159 159 159 155 150 90 98 107 121 136 150 165 123 95 97 99 101 -1 -1 -1 -1 -1 -1 -1 -1 -1 -1 -1 -1 -1 -1 -1 -1 -1 -1 -1 -1 
127 114 113 118 116 111 106 98 150 138 125 113 101 118 135 152 169 170 154 138 122 106 126 147 167 168 149 139 149 159 170 181 187 188 188 180 172 165 157 166 209 252 252 251 251 224 196 169 185 200 213 215 215 215 215 216 216 216 216 223 235 248 213 211 220 227 244 248 241 248 204 165 178 190 188 187 185 191 206 209 204 190 190 190 189 190 185 91 99 108 116 128 142 157 171 186 200 186 144 102 -1 -1 -1 -1 -1 -1 -1 -1 -1 -1 -1 -1 -1 -1 -1 -1 -1 -1 -1 -1 
158 146 133 126 127 122 114 107 99 99 99 99 100 101 102 119 136 128 112 111 125 134 129 123 118 113 107 102 113 123 134 145 156 160 160 152 145 137 129 121 114 106 103 99 96 112 127 143 159 174 185 187 187 187 188 188 188 188 188 190 203 215 227 239 251 244 237 230 236 242 248 207 219 218 216 215 213 215 231 246 228 221 221 220 220 220 171 100 109 117 125 134 148 163 177 192 206 221 235 250 -1 -1 -1 -1 -1 -1 -1 -1 -1 -1 -1 -1 -1 -1 -1 -1 -1 -1 -1 -1 
190 177 164 151 138 142 147 150 150 150 124 98 99 100 101 102 103 116 130 143 156 162 157 152 146 141 139 139 133 121 109 109 120 130 133 125 117 109 121 152 143 138 153 103 100 97 101 117 133 148 156 159 159 160 160 160 160 160 160 160 170 182 194 202 202 100 218 224 230 237 243 249 248 246 245 243 242 240 165 89 252 252 252 251 251 251 101 109 118 126 135 143 154 169 183 198 213 227 242 221 -1 -1 -1 -1 -1 -1 -1 -1 -1 -1 -1 -1 -1 -1 -1 -1 -1 -1 -1 -1 
221 208 195 195 195 199 200 200 200 200 200 175 190 206 221 237 252 178 162 175 188 190 185 180 177 177 177 177 177 165 153 141 129 117 105 136 167 197 188 179 170 170 186 201 103 101 99 97 106 122 127 130 132 132 132 132 132 132 132 132 137 149 153 153 152 161 178 163 148 133 118 103 103 103 103 103 103 103 99 96 148 188 166 145 123 102 110 119 127 135 144 152 161 175 190 204 219 233 248 191 -1 -1 -1 -1 -1 -1 -1 -1 -1 -1 -1 -1 -1 -1 -1 -1 -1 -1 -1 -1 
252 252 252 251 251 251 251 251 251 251 251 251 220 188 187 216 222 235 252 207 220 219 214 214 214 214 214 214 214 208 196 184 163 134 104 243 234 225 216 206 197 203 218 233 248 218 187 157 126 96 99 101 104 104 104 104 104 104 104 104 104 104 104 103 103 121 138 123 108 114 140 140 140 140 140 140 137 136 147 103 99 145 123 102 146 134 128 128 136 145 153 161 170 181 196 210 225 239 218 162 -1 -1 -1 -1 -1 -1 -1 -1 -1 -1 -1 -1 -1 -1 -1 -1 -1 -1 -1 -1 
103 103 103 103 103 102 100 99 97 96 94 93 122 151 181 192 192 202 219 235 252 252 252 252 252 251 251 251 251 251 222 192 163 133 104 203 222 239 243 234 225 235 250 208 241 230 240 250 219 189 188 216 245 245 246 246 246 246 247 247 247 245 243 241 239 237 98 124 151 177 177 177 177 177 177 172 162 169 180 191 174 102 174 190 178 166 159 154 150 154 162 171 179 187 202 216 231 246 189 132 -1 -1 -1 -1 -1 -1 -1 -1 -1 -1 -1 -1 -1 -1 -1 -1 -1 -1 -1 -1 
133 133 133 133 133 115 102 101 99 98 96 96 116 145 163 162 162 169 185 202 103 103 102 102 101 101 100 100 99 99 130 161 162 132 103 162 183 200 218 235 252 177 169 197 234 203 212 222 232 241 251 197 192 238 245 246 246 246 246 247 218 217 215 213 211 204 244 188 214 214 214 214 214 214 206 196 190 202 213 224 235 246 234 222 210 199 190 185 181 176 172 180 188 197 208 223 237 216 160 103 -1 -1 -1 -1 -1 -1 -1 -1 -1 -1 -1 -1 -1 -1 -1 -1 -1 -1 -1 -1 
163 162 162 162 162 144 126 108 101 100 99 99 109 133 133 132 132 135 152 119 151 150 150 149 149 148 148 141 135 129 127 121 115 108 102 122 142 162 179 196 103 129 156 190 227 175 185 194 204 214 154 94 139 185 230 246 246 246 246 247 190 189 188 186 184 171 154 251 251 251 251 251 251 241 231 221 223 234 246 236 226 218 213 219 243 231 220 216 211 207 202 198 197 206 214 229 243 187 173 246 -1 -1 -1 -1 -1 -1 -1 -1 -1 -1 -1 -1 -1 -1 -1 -1 -1 -1 -1 -1 
192 192 192 192 192 174 156 138 120 102 102 103 103 103 103 102 102 102 134 166 198 198 197 197 190 184 177 170 164 160 160 155 149 143 143 150 102 122 141 103 103 116 147 183 220 197 157 167 177 117 132 127 128 132 177 223 246 246 246 246 161 161 160 158 153 137 121 105 126 147 168 188 209 88 167 245 235 225 215 205 196 190 189 180 159 191 251 246 242 237 233 228 224 219 223 235 214 244 231 218 -1 -1 -1 -1 -1 -1 -1 -1 -1 -1 -1 -1 -1 -1 -1 -1 -1 -1 -1 -1 
222 222 222 221 221 203 185 177 177 177 211 245 245 245 245 245 245 245 246 246 246 239 233 226 219 213 206 200 193 190 191 190 183 177 184 191 198 150 102 102 103 103 140 176 213 220 130 139 117 170 165 159 159 163 166 170 215 246 246 246 133 132 132 131 120 104 139 140 123 105 126 147 168 94 98 103 160 195 185 175 165 161 161 161 148 126 104 119 134 150 165 180 195 211 226 241 228 215 202 189 -1 -1 -1 -1 -1 -1 -1 -1 -1 -1 -1 -1 -1 -1 -1 -1 -1 -1 -1 -1 
252 252 252 251 251 251 251 251 251 251 251 251 210 169 216 240 240 198 198 198 214 210 201 218 249 242 235 229 222 221 221 221 218 218 225 232 239 246 246 246 189 132 123 163 202 242 102 155 208 203 197 192 190 194 197 201 204 208 246 246 104 104 103 103 138 174 150 176 158 140 123 105 126 99 104 143 147 132 133 145 135 133 133 133 132 115 103 129 130 127 123 119 115 111 107 103 172 187 174 161 -1 -1 -1 -1 -1 -1 -1 -1 -1 -1 -1 -1 -1 -1 -1 -1 -1 -1 -1 -1 
103 103 104 104 104 133 163 192 176 136 97 96 94 93 140 187 234 150 150 166 183 184 175 166 157 161 191 221 251 251 252 252 252 223 194 166 189 213 217 217 218 161 104 143 183 217 232 246 241 235 230 225 221 225 228 232 235 239 242 246 246 246 190 166 204 243 102 211 193 176 158 140 123 105 178 182 187 192 197 161 105 105 105 104 104 104 103 128 153 161 157 153 149 145 141 144 148 104 145 132 -1 -1 -1 -1 -1 -1 -1 -1 -1 -1 -1 -1 -1 -1 -1 -1 -1 -1 -1 -1 
132 147 104 104 104 133 140 101 110 120 118 100 98 122 114 110 106 102 118 135 151 157 148 139 130 121 112 103 105 106 108 109 97 85 109 132 156 179 189 189 189 190 133 124 163 193 207 209 172 192 212 232 252 231 210 188 167 186 206 231 249 249 221 228 237 216 231 246 235 224 212 201 190 179 217 222 227 232 236 241 246 245 244 244 243 242 102 127 152 178 191 187 183 179 180 185 189 194 174 104 -1 -1 -1 -1 -1 -1 -1 -1 -1 -1 -1 -1 -1 -1 -1 -1 -1 -1 -1 -1 
161 177 192 177 104 114 124 133 143 153 139 104 122 151 140 136 131 135 149 103 119 131 122 113 104 116 128 116 107 109 110 108 99 91 91 99 122 146 160 160 161 161 161 104 144 168 181 173 135 97 95 93 90 88 107 127 146 166 185 217 252 252 252 231 209 188 203 214 200 186 173 199 226 252 247 241 236 230 225 220 218 227 242 249 248 247 177 177 177 177 202 222 218 216 221 225 230 235 239 244 -1 -1 -1 -1 -1 -1 -1 -1 -1 -1 -1 -1 -1 -1 -1 -1 -1 -1 -1 -1 
191 206 221 236 251 192 157 166 176 186 159 108 165 180 165 161 157 168 182 197 150 104 116 128 141 153 157 128 110 111 109 107 101 97 97 97 97 113 132 132 132 133 133 133 124 143 154 136 98 128 127 125 123 117 99 106 125 145 167 202 152 102 153 203 182 161 176 181 168 154 140 126 113 99 215 209 204 199 193 189 189 193 207 222 237 252 252 252 252 252 252 252 252 246 240 235 229 223 217 216 -1 -1 -1 -1 -1 -1 -1 -1 -1 -1 -1 -1 -1 -1 -1 -1 -1 -1 -1 -1 
220 235 250 251 251 252 252 222 209 219 180 180 209 209 194 186 186 200 215 229 244 153 153 166 178 190 169 141 112 110 108 105 103 103 103 103 103 103 103 103 104 104 104 105 105 116 127 99 149 159 159 157 155 146 128 110 104 124 153 103 118 131 140 104 155 133 150 149 135 122 108 104 118 126 107 178 172 167 161 161 161 161 173 188 203 102 101 100 99 98 97 96 95 214 208 202 196 190 188 188 -1 -1 -1 -1 -1 -1 -1 -1 -1 -1 -1 -1 -1 -1 -1 -1 -1 -1 -1 -1 
249 250 250 251 251 252 252 252 252 252 252 252 252 237 223 212 219 233 242 244 246 201 202 203 215 211 182 182 182 198 213 229 244 211 178 145 112 137 191 245 224 203 182 161 189 241 100 150 190 190 190 190 187 176 157 139 121 103 119 135 151 161 162 178 171 106 124 117 103 108 123 137 152 153 133 114 140 135 132 132 133 133 139 154 117 145 99 98 97 96 95 113 122 98 175 169 163 160 160 160 -1 -1 -1 -1 -1 -1 -1 -1 -1 -1 -1 -1 -1 -1 -1 -1 -1 -1 -1 -1 
104 104 104 104 104 104 104 104 104 104 105 105 106 106 172 237 239 241 244 246 248 250 251 251 252 252 252 252 252 215 178 175 172 155 122 118 172 189 207 212 198 238 217 220 247 247 247 201 221 221 221 221 220 205 187 170 156 246 151 167 183 190 191 196 217 237 98 113 127 142 156 171 185 179 160 141 122 103 103 104 104 105 105 133 161 189 98 97 96 113 130 147 148 125 101 137 132 132 132 132 -1 -1 -1 -1 -1 -1 -1 -1 -1 -1 -1 -1 -1 -1 -1 -1 -1 -1 -1 -1 
104 104 104 110 122 134 117 106 106 106 106 107 107 131 122 105 122 139 156 173 190 188 147 106 107 108 109 110 111 108 106 103 101 98 116 133 151 168 186 178 165 151 252 252 252 252 252 252 252 252 252 252 252 237 223 208 246 211 226 200 216 220 221 222 234 175 175 175 175 175 190 204 219 206 187 145 123 184 246 226 207 187 167 165 199 232 96 113 131 148 165 182 175 151 128 104 104 104 104 104 -1 -1 -1 -1 -1 -1 -1 -1 -1 -1 -1 -1 -1 -1 -1 -1 -1 -1 -1 -1 
104 116 128 140 151 163 146 130 113 107 108 108 132 155 154 143 148 133 113 130 147 125 152 138 136 137 138 139 139 138 135 132 130 129 111 112 130 148 159 145 131 118 104 103 102 102 101 100 99 98 96 95 93 92 169 246 211 176 166 207 248 249 250 251 252 252 252 252 252 252 252 252 252 187 123 142 184 205 215 206 198 249 229 210 225 243 244 216 188 183 200 217 202 178 120 144 177 177 200 245 -1 -1 -1 -1 -1 -1 -1 -1 -1 -1 -1 -1 -1 -1 -1 -1 -1 -1 -1 -1 
245 190 157 169 181 193 176 159 143 126 109 133 156 180 187 181 186 191 197 161 104 199 184 170 165 166 167 167 167 167 164 162 160 159 153 123 109 127 126 112 111 122 134 133 132 131 131 130 129 129 128 126 125 121 113 105 105 105 105 105 104 104 104 105 105 105 103 100 98 98 99 99 100 100 121 143 164 185 183 175 167 159 151 201 252 174 214 194 174 200 226 252 194 136 119 185 250 196 185 217 -1 -1 -1 -1 -1 -1 -1 -1 -1 -1 -1 -1 -1 -1 -1 -1 -1 -1 -1 -1 
217 206 218 221 211 222 206 189 181 181 181 181 181 204 219 219 224 229 235 240 245 231 216 202 194 195 196 196 196 196 194 191 190 190 190 166 136 106 117 129 140 152 163 163 162 161 160 160 159 160 159 158 156 150 142 142 142 142 138 134 134 134 134 134 134 134 132 130 129 129 129 129 130 122 102 123 144 160 152 144 135 127 119 111 103 144 184 164 144 124 104 101 97 94 94 94 94 126 158 189 -1 -1 -1 -1 -1 -1 -1 -1 -1 -1 -1 -1 -1 -1 -1 -1 -1 -1 -1 -1 
189 178 166 155 191 252 252 252 252 252 252 252 252 252 252 220 188 156 181 207 217 203 249 234 223 224 224 224 224 224 223 221 221 221 221 208 179 178 164 158 170 181 193 192 192 191 190 189 189 190 191 189 186 179 179 179 179 179 170 164 163 163 163 163 164 164 161 160 159 159 159 160 160 144 124 103 125 128 120 112 104 113 122 131 153 114 154 134 114 102 106 102 99 98 98 98 98 98 130 162 -1 -1 -1 -1 -1 -1 -1 -1 -1 -1 -1 -1 -1 -1 -1 -1 -1 -1 -1 -1 
161 150 138 127 115 104 101 98 96 93 90 84 78 72 66 92 117 143 169 189 189 175 161 177 252 252 252 252 252 252 252 252 252 251 251 251 251 250 236 222 208 211 222 222 221 221 220 219 220 220 221 221 215 215 215 215 215 211 203 195 193 193 193 193 193 193 191 190 190 189 189 190 186 166 145 125 105 114 123 132 141 150 159 178 203 124 124 104 100 104 107 104 103 102 102 101 102 102 102 134 -1 -1 -1 -1 -1 -1 -1 -1 -1 -1 -1 -1 -1 -1 -1 -1 -1 -1 -1 -1 
133 122 110 105 105 102 98 96 93 97 116 115 91 85 79 79 105 130 156 161 161 147 133 119 105 126 148 169 191 212 143 73 74 74 75 75 168 241 197 186 208 230 252 251 251 250 250 249 250 251 251 252 252 252 252 252 252 244 236 228 222 222 222 222 222 223 221 221 220 220 220 220 208 188 191 219 246 177 160 169 178 187 203 228 253 174 94 98 102 105 109 108 107 107 106 105 105 106 106 106 -1 -1 -1 -1 -1 -1 -1 -1 -1 -1 -1 -1 -1 -1 -1 -1 -1 -1 -1 -1 
105 105 105 105 105 100 96 93 104 123 141 160 139 98 92 92 92 118 133 133 133 119 105 130 154 108 129 151 172 103 116 92 84 85 85 85 178 231 188 144 101 102 102 103 103 102 102 101 97 93 89 85 89 93 96 100 104 141 178 215 252 252 252 252 252 252 252 251 251 251 250 250 227 203 198 212 208 193 249 206 215 227 253 200 220 231 238 245 245 246 246 246 246 247 247 247 247 248 248 248 -1 -1 -1 -1 -1 -1 -1 -1 -1 -1 -1 -1 -1 -1 -1 -1 -1 -1 -1 -1 
248 249 251 252 253 173 93 111 130 148 167 185 204 164 105 105 105 105 105 105 105 130 154 179 204 123 111 132 104 159 135 111 95 95 95 95 200 222 178 138 103 103 103 104 99 99 98 99 101 100 96 92 92 95 99 103 105 106 107 108 109 104 100 95 91 86 95 103 112 120 129 137 151 165 179 186 171 155 139 196 252 200 148 167 186 202 209 214 215 215 217 201 194 194 195 195 195 195 205 220 -1 -1 -1 -1 -1 -1 -1 -1 -1 -1 -1 -1 -1 -1 -1 -1 -1 -1 -1 -1 
220 213 214 215 223 253 173 183 194 205 216 226 237 248 248 248 247 247 247 248 248 249 251 252 253 173 92 147 202 178 154 129 105 105 105 105 223 212 175 140 105 105 105 105 174 95 95 96 99 102 102 98 98 98 102 105 106 107 107 107 107 105 101 96 122 114 93 102 110 119 137 159 131 145 159 149 133 117 102 86 91 95 114 134 153 173 180 184 184 186 189 177 156 142 142 143 148 162 177 191 -1 -1 -1 -1 -1 -1 -1 -1 -1 -1 -1 -1 -1 -1 -1 -1 -1 -1 -1 -1 
192 182 177 178 194 223 252 244 236 228 220 212 204 212 220 219 219 219 219 219 221 222 224 225 226 231 238 245 246 246 247 247 248 248 247 247 246 247 247 248 248 248 249 249 249 170 91 94 97 99 102 105 105 105 105 105 105 105 106 106 106 106 132 159 185 142 92 101 114 136 159 182 147 125 127 111 96 96 96 96 101 131 109 100 120 139 150 153 155 158 160 154 132 111 90 105 119 134 148 163 -1 -1 -1 -1 -1 -1 -1 -1 -1 -1 -1 -1 -1 -1 -1 -1 -1 -1 -1 -1 
163 153 143 142 164 190 212 200 188 176 167 159 151 175 191 191 191 191 191 192 193 195 197 198 199 202 209 215 217 218 218 219 219 219 219 218 218 218 219 219 214 213 213 213 220 236 251 251 250 250 249 249 248 247 246 246 246 246 247 247 247 247 247 248 248 170 91 114 136 159 181 204 198 105 105 105 106 106 106 106 190 167 145 123 100 106 121 123 126 129 132 130 109 108 128 134 110 105 120 134 -1 -1 -1 -1 -1 -1 -1 -1 -1 -1 -1 -1 -1 -1 -1 -1 -1 -1 -1 -1 
135 125 115 105 128 150 173 160 148 136 124 111 99 139 162 163 163 162 163 164 166 168 169 171 172 174 180 185 187 189 190 190 191 191 191 190 190 190 191 187 181 178 178 183 192 207 219 224 223 223 222 221 220 219 218 218 218 218 218 218 219 219 219 219 219 229 240 242 243 245 246 248 249 218 187 156 126 166 207 248 226 203 181 159 137 114 92 95 98 100 103 106 126 147 167 187 178 154 130 106 -1 -1 -1 -1 -1 -1 -1 -1 -1 -1 -1 -1 -1 -1 -1 -1 -1 -1 -1 -1 
107 153 171 159 130 110 133 121 108 96 116 136 102 102 134 134 134 134 135 137 139 140 142 144 145 147 152 156 157 159 161 162 162 162 162 162 161 162 160 153 147 142 145 154 163 179 187 195 196 196 195 193 192 191 190 190 190 190 190 190 190 191 191 191 190 200 208 213 215 216 218 219 220 220 212 199 186 172 159 146 160 174 188 203 217 231 245 246 247 247 248 249 248 248 247 247 246 247 247 248 -1 -1 -1 -1 -1 -1 -1 -1 -1 -1 -1 -1 -1 -1 -1 -1 -1 -1 -1 -1 
248 236 224 212 200 155 93 113 133 153 173 192 105 105 105 105 106 106 108 109 111 113 115 116 118 120 123 126 128 129 131 133 134 134 134 134 133 132 126 120 113 107 116 125 135 146 155 163 169 169 168 165 163 163 162 162 162 162 162 162 162 162 163 162 160 171 177 182 186 188 189 191 191 191 191 188 175 162 148 135 136 147 161 175 189 203 228 229 230 231 232 224 210 193 176 158 141 133 124 116 -1 -1 -1 -1 -1 -1 -1 -1 -1 -1 -1 -1 -1 -1 -1 -1 -1 -1 -1 -1 
110 136 163 189 216 242 243 244 246 247 248 249 250 251 251 252 250 247 230 213 196 179 162 145 128 111 94 96 98 100 101 103 105 105 105 105 105 120 134 149 163 178 154 130 106 114 122 131 139 142 140 138 135 135 135 135 134 134 134 134 134 134 134 133 131 139 145 151 156 159 161 162 162 162 162 162 161 151 138 125 125 126 133 147 161 176 212 212 213 214 206 198 188 171 154 137 132 129 121 113 -1 -1 -1 -1 -1 -1 -1 -1 -1 -1 -1 -1 -1 -1 -1 -1 -1 -1 -1 -1 
249 240 231 222 213 212 214 215 216 217 219 220 221 222 223 189 131 194 218 205 188 171 154 137 120 103 155 253 253 253 252 252 252 249 245 248 250 250 250 249 249 249 250 251 252 119 118 117 116 115 112 110 107 107 107 107 107 107 106 106 106 106 106 104 102 108 113 119 124 130 132 133 133 133 133 132 132 132 127 114 114 115 116 120 134 168 195 196 197 189 181 173 165 149 132 123 123 122 118 110 -1 -1 -1 -1 -1 -1 -1 -1 -1 -1 -1 -1 -1 -1 -1 -1 -1 -1 -1 -1 
201 201 192 183 174 181 185 186 187 188 190 192 193 194 183 125 125 140 190 190 180 163 146 129 112 118 216 227 234 234 233 233 228 199 158 118 175 217 198 179 161 142 140 138 135 133 162 191 220 249 240 231 222 224 226 228 230 233 235 237 239 241 243 248 252 227 203 178 153 129 104 104 104 104 104 103 103 103 103 103 104 104 105 105 106 160 178 179 171 163 155 147 139 128 115 114 114 113 113 106 -1 -1 -1 -1 -1 -1 -1 -1 -1 -1 -1 -1 -1 -1 -1 -1 -1 -1 -1 -1 
153 153 154 145 144 151 155 157 158 160 161 163 165 165 120 119 119 118 149 162 161 154 137 120 103 179 187 200 215 214 214 214 203 186 146 122 131 157 184 165 146 133 134 132 130 127 128 130 131 132 133 135 136 199 201 203 205 207 209 211 214 216 216 172 127 147 166 186 205 225 244 226 207 189 171 152 134 116 104 104 246 248 249 251 252 152 162 154 146 138 130 122 114 106 106 105 105 104 104 103 -1 -1 -1 -1 -1 -1 -1 -1 -1 -1 -1 -1 -1 -1 -1 -1 -1 -1 -1 -1 
105 105 106 106 113 120 126 127 129 131 133 135 136 114 113 113 112 112 112 133 133 133 129 112 141 150 158 174 196 195 195 190 179 168 133 126 153 143 139 151 132 123 125 126 124 122 123 124 125 127 128 135 149 137 176 178 180 182 184 186 188 189 189 145 143 135 155 174 194 213 217 202 184 165 147 129 110 104 104 104 218 220 221 223 188 144 155 166 177 188 199 210 221 232 235 237 240 243 245 248 -1 -1 -1 -1 -1 -1 -1 -1 -1 -1 -1 -1 -1 -1 -1 -1 -1 -1 -1 -1 
248 249 250 251 252 175 97 99 101 103 104 106 108 108 107 107 106 106 105 105 105 105 104 104 112 121 129 148 169 176 176 165 154 143 121 131 157 184 156 121 117 114 115 117 118 116 117 118 120 121 134 148 161 175 139 152 155 157 159 161 161 162 163 118 160 124 143 163 182 190 189 178 160 142 123 105 105 105 105 105 190 192 193 167 135 135 136 144 155 166 177 188 199 207 207 209 212 214 217 220 -1 -1 -1 -1 -1 -1 -1 -1 -1 -1 -1 -1 -1 -1 -1 -1 -1 -1 -1 -1 
219 214 249 250 251 174 174 175 176 178 180 208 236 238 240 242 244 246 248 250 250 250 251 251 251 176 100 121 143 157 152 141 130 119 108 135 162 188 215 168 103 104 106 107 109 110 111 113 120 134 147 160 174 187 176 140 129 131 133 134 135 135 136 134 176 144 132 151 163 162 162 154 136 118 106 106 105 105 105 105 162 164 147 125 125 126 127 129 132 143 154 165 176 183 182 182 183 186 189 191 -1 -1 -1 -1 -1 -1 -1 -1 -1 -1 -1 -1 -1 -1 -1 -1 -1 -1 -1 -1 
191 185 179 194 250 251 251 252 252 239 226 213 209 210 212 214 216 218 220 219 219 219 220 220 218 216 165 173 156 138 152 166 180 211 241 242 243 244 245 246 245 244 243 241 240 239 106 119 133 146 160 173 187 200 213 178 142 106 107 107 108 108 109 151 192 197 120 136 136 135 135 131 112 106 106 106 106 106 106 106 134 126 116 116 116 116 118 119 121 123 132 143 154 158 158 157 157 157 160 163 -1 -1 -1 -1 -1 -1 -1 -1 -1 -1 -1 -1 -1 -1 -1 -1 -1 -1 -1 -1 
162 156 151 145 139 163 187 211 217 204 191 181 181 182 184 186 188 190 189 188 188 188 189 187 185 183 181 154 246 249 252 240 228 217 219 209 210 211 212 213 212 211 210 209 212 235 168 111 130 150 169 186 199 213 226 215 179 137 165 194 222 250 250 250 250 250 109 109 108 108 107 107 107 107 107 107 106 106 106 106 106 106 106 107 107 107 109 110 112 113 115 120 131 133 133 132 132 132 132 134 -1 -1 -1 -1 -1 -1 -1 -1 -1 -1 -1 -1 -1 -1 -1 -1 -1 -1 -1 -1 
134 128 122 123 125 146 170 194 181 168 155 153 154 154 156 158 160 159 158 158 157 157 157 154 152 150 148 145 143 174 205 204 192 185 197 198 178 179 180 181 180 178 177 186 208 231 208 96 116 135 155 174 194 213 233 252 140 168 197 215 233 244 249 251 251 251 252 252 234 215 197 179 177 176 174 173 172 172 172 172 154 174 193 213 233 253 232 212 191 171 150 130 109 109 108 108 107 107 106 106 -1 -1 -1 -1 -1 -1 -1 -1 -1 -1 -1 -1 -1 -1 -1 -1 -1 -1 -1 -1 
105 106 108 109 110 130 153 159 146 133 125 126 126 127 128 130 129 128 128 127 126 126 124 121 119 162 169 166 169 127 158 168 156 164 176 188 167 146 147 148 147 146 159 182 204 227 227 158 101 121 140 160 179 199 187 143 161 180 198 216 232 238 243 248 251 251 251 252 224 232 241 250 249 247 246 244 243 241 240 238 201 221 241 242 225 207 187 166 145 125 118 118 118 180 180 179 179 196 213 230 -1 -1 -1 -1 -1 -1 -1 -1 -1 -1 -1 -1 -1 -1 -1 -1 -1 -1 -1 -1 
229 235 241 247 250 253 136 123 110 97 98 98 99 99 100 99 98 98 97 96 95 138 181 206 195 186 189 192 194 197 112 132 130 142 154 166 156 135 115 116 114 132 155 178 200 223 246 177 87 106 126 145 165 121 153 144 163 181 199 217 226 231 236 241 247 251 251 252 252 195 204 211 211 209 208 206 205 203 202 136 249 232 215 198 181 161 141 127 127 127 127 127 127 252 229 206 183 195 207 219 -1 -1 -1 -1 -1 -1 -1 -1 -1 -1 -1 -1 -1 -1 -1 -1 -1 -1 -1 -1 
240 246 248 248 249 251 193 210 226 243 209 175 175 176 175 174 173 172 186 214 243 232 221 209 209 212 214 217 220 222 225 96 108 120 132 144 145 124 104 83 106 128 151 174 196 219 241 196 127 92 111 99 194 162 145 146 164 182 200 215 220 225 230 235 240 245 250 251 252 158 167 172 172 172 170 169 167 166 129 151 249 221 193 164 136 136 136 136 136 136 136 136 136 136 148 160 172 183 195 207 -1 -1 -1 -1 -1 -1 -1 -1 -1 -1 -1 -1 -1 -1 -1 -1 -1 -1 -1 -1 
250 250 249 249 248 249 250 240 229 219 221 231 242 252 250 248 235 222 209 196 247 235 230 232 235 237 240 243 245 248 250 253 229 205 182 158 134 156 159 144 139 139 147 170 192 215 237 214 146 77 172 203 172 141 163 147 165 183 202 209 214 219 224 229 234 239 244 249 252 252 130 132 132 132 132 131 129 122 144 166 249 221 193 164 148 135 159 159 159 159 159 159 159 155 147 148 160 172 184 196 -1 -1 -1 -1 -1 -1 -1 -1 -1 -1 -1 -1 -1 -1 -1 -1 -1 -1 -1 -1 
138 138 137 137 136 136 170 204 205 194 188 198 209 186 131 132 133 133 134 135 250 240 230 220 210 200 200 212 224 236 247 217 208 198 205 228 251 236 220 205 194 195 195 195 196 211 233 233 165 244 213 182 151 147 153 148 166 185 197 202 207 213 218 223 228 233 238 243 248 252 93 93 93 93 93 93 115 137 159 181 249 221 193 173 160 147 134 182 182 182 182 182 182 175 166 157 149 160 172 184 -1 -1 -1 -1 -1 -1 -1 -1 -1 -1 -1 -1 -1 -1 -1 -1 -1 -1 -1 -1 
160 160 159 159 158 159 159 124 158 170 159 166 176 121 155 154 155 156 157 157 136 148 160 171 183 195 207 218 230 242 243 182 172 162 153 143 133 162 192 221 250 250 251 251 251 251 252 252 189 212 192 160 129 194 143 149 168 186 191 196 201 206 211 216 222 227 232 237 242 247 252 251 250 248 247 246 185 152 174 197 249 221 199 185 172 159 146 133 193 205 205 205 203 194 186 177 168 159 161 173 -1 -1 -1 -1 -1 -1 -1 -1 -1 -1 -1 -1 -1 -1 -1 -1 -1 -1 -1 -1 
182 182 181 181 181 181 181 182 147 112 135 133 110 192 179 178 177 178 179 180 158 134 166 177 189 201 213 224 236 248 208 146 136 127 117 147 156 153 146 140 133 133 133 133 134 134 134 134 157 180 170 139 149 183 133 151 169 180 185 190 195 200 205 210 215 220 225 231 236 241 251 221 189 187 186 196 217 237 217 212 249 224 211 197 184 171 158 145 131 192 228 228 223 214 205 196 187 179 170 161 -1 -1 -1 -1 -1 -1 -1 -1 -1 -1 -1 -1 -1 -1 -1 -1 -1 -1 -1 -1 
204 204 203 203 204 204 204 204 204 170 135 100 181 216 204 203 202 201 201 202 180 156 132 184 195 207 219 231 242 233 172 111 101 111 161 180 179 179 173 167 161 157 156 156 157 157 157 160 125 148 149 118 195 173 134 152 168 174 179 184 189 194 199 204 209 214 219 224 230 239 250 224 191 158 125 146 166 187 208 228 249 236 223 209 196 183 170 157 143 130 191 251 240 229 218 207 196 185 174 167 -1 -1 -1 -1 -1 -1 -1 -1 -1 -1 -1 -1 -1 -1 -1 -1 -1 -1 -1 -1 
226 226 226 226 226 226 227 227 227 227 192 201 252 240 228 227 226 225 224 225 201 177 153 130 191 213 225 237 248 198 136 75 125 175 204 203 203 202 200 193 188 185 181 179 180 180 180 187 204 115 127 151 214 163 135 153 162 167 172 177 183 188 193 198 203 208 213 218 227 238 249 226 193 160 136 135 132 129 126 124 121 122 123 123 124 125 126 127 127 128 129 234 242 231 220 209 198 187 176 174 -1 -1 -1 -1 -1 -1 -1 -1 -1 -1 -1 -1 -1 -1 -1 -1 -1 -1 -1 -1 
248 248 248 249 249 249 249 249 250 250 250 188 209 231 252 251 250 249 248 247 223 199 175 151 127 189 231 243 223 162 163 163 188 228 227 227 226 225 224 220 216 212 208 205 203 203 203 213 231 248 106 197 203 153 136 151 156 161 166 171 176 181 187 192 197 202 207 215 226 237 248 228 195 163 148 147 144 141 139 136 137 146 147 147 148 149 150 151 151 152 134 216 244 233 222 211 200 189 181 180 -1 -1 -1 -1 -1 -1 -1 -1 -1 -1 -1 -1 -1 -1 -1 -1 -1 -1 -1 -1 
129 129 128 128 127 127 126 126 125 125 124 123 122 120 119 118 119 120 120 121 139 158 176 173 149 125 187 249 250 250 251 251 252 251 251 250 249 248 248 247 243 240 236 232 229 226 226 240 206 219 231 244 193 142 138 145 150 155 160 165 170 175 181 186 191 196 203 214 225 236 247 231 198 165 159 159 156 154 151 148 153 164 171 171 172 173 174 175 176 158 140 199 245 234 223 212 201 190 188 186 -1 -1 -1 -1 -1 -1 -1 -1 -1 -1 -1 -1 -1 -1 -1 -1 -1 -1 -1 -1 
153 152 152 151 151 150 150 149 149 148 148 147 146 145 144 144 145 145 146 143 139 137 134 131 128 126 123 123 122 122 121 121 120 120 121 121 121 121 122 122 140 158 176 195 213 231 249 164 177 183 183 183 183 132 133 138 144 149 154 159 164 169 175 180 185 191 202 213 224 235 246 233 200 170 171 171 169 166 163 161 170 180 191 195 196 197 198 199 201 125 145 181 247 236 225 214 203 195 194 193 -1 -1 -1 -1 -1 -1 -1 -1 -1 -1 -1 -1 -1 -1 -1 -1 -1 -1 -1 -1 
177 177 176 175 175 174 174 173 173 173 172 172 171 169 169 170 170 171 171 165 160 158 155 152 150 147 147 147 146 146 145 141 123 141 147 147 147 147 148 144 138 135 132 130 127 125 122 122 122 122 122 122 122 122 127 132 138 143 148 153 158 163 169 174 179 189 200 211 222 233 244 235 202 182 182 183 181 178 176 175 186 196 207 217 220 221 222 224 187 130 151 171 249 238 227 216 205 202 200 199 -1 -1 -1 -1 -1 -1 -1 -1 -1 -1 -1 -1 -1 -1 -1 -1 -1 -1 -1 -1 
202 201 200 199 199 198 198 197 197 197 196 196 195 194 194 195 196 197 193 187 182 179 176 173 171 171 171 171 170 170 162 143 125 136 162 173 173 174 174 165 156 153 151 148 145 144 144 145 145 145 145 145 145 138 121 126 132 137 142 147 152 157 163 168 177 188 199 210 221 232 243 238 205 193 193 194 193 191 188 192 202 213 223 234 244 246 247 249 153 135 156 177 251 240 229 218 209 208 206 205 -1 -1 -1 -1 -1 -1 -1 -1 -1 -1 -1 -1 -1 -1 -1 -1 -1 -1 -1 -1 
226 225 224 223 223 222 222 221 221 221 221 220 220 219 220 221 222 220 215 209 204 200 197 194 195 195 195 195 194 183 164 146 128 132 158 184 199 200 200 187 174 172 169 166 165 166 166 167 167 167 167 167 167 154 137 120 126 131 136 141 146 151 157 165 176 187 198 209 220 231 242 240 207 204 205 205 206 203 200 208 218 229 239 229 228 124 123 121 120 141 162 182 234 242 231 220 215 214 213 211 -1 -1 -1 -1 -1 -1 -1 -1 -1 -1 -1 -1 -1 -1 -1 -1 -1 -1 -1 -1 
250 249 248 248 247 246 246 246 245 245 245 244 244 245 246 247 248 242 237 231 226 221 218 218 219 219 219 219 204 185 167 149 130 127 153 179 205 226 226 208 192 190 187 187 187 188 188 189 189 190 190 190 186 170 153 136 120 125 130 135 140 145 153 164 175 186 197 208 219 230 241 242 215 216 216 217 217 215 214 224 235 245 215 224 211 149 147 146 146 146 167 188 216 244 233 223 222 220 219 218 -1 -1 -1 -1 -1 -1 -1 -1 -1 -1 -1 -1 -1 -1 -1 -1 -1 -1 -1 -1 
123 123 122 122 121 121 121 121 121 121 121 121 121 122 122 122 220 205 190 195 218 242 242 242 243 243 243 225 206 188 170 151 133 122 148 174 200 226 252 230 211 208 208 209 209 210 210 211 211 212 212 212 202 186 169 152 135 119 124 129 134 141 152 163 174 185 196 207 218 229 240 244 227 227 228 228 229 227 230 240 241 200 196 230 195 173 172 172 172 172 172 193 214 245 234 229 228 227 225 224 -1 -1 -1 -1 -1 -1 -1 -1 -1 -1 -1 -1 -1 -1 -1 -1 -1 -1 -1 -1 
148 147 147 146 147 147 147 147 147 147 147 147 126 127 127 127 193 178 163 148 133 118 117 116 114 113 112 113 113 114 115 116 116 117 117 116 116 115 115 114 229 230 230 231 231 232 232 233 233 234 234 235 218 202 185 168 151 135 118 123 129 140 151 162 173 184 195 206 217 228 239 247 238 239 239 240 240 240 246 226 185 169 203 237 199 198 198 198 198 198 199 199 219 247 237 236 234 233 232 230 -1 -1 -1 -1 -1 -1 -1 -1 -1 -1 -1 -1 -1 -1 -1 -1 -1 -1 -1 -1 
172 172 171 171 172 173 173 173 173 173 173 173 173 152 132 132 165 150 135 133 144 147 144 143 142 141 140 140 141 141 142 143 144 144 144 143 143 142 141 137 232 222 211 201 190 179 169 158 148 137 127 116 116 116 116 117 117 117 117 117 128 139 150 161 172 183 194 205 216 227 238 249 250 250 251 251 252 252 211 170 142 176 210 243 224 224 224 224 224 225 225 225 225 249 243 242 241 239 238 237 -1 -1 -1 -1 -1 -1 -1 -1 -1 -1 -1 -1 -1 -1 -1 -1 -1 -1 -1 -1 
197 196 196 197 198 198 199 200 200 200 199 199 199 198 178 157 137 148 159 170 181 177 172 171 169 168 168 167 168 169 169 170 171 171 171 170 170 168 164 160 236 225 215 204 193 183 172 162 151 143 143 143 143 143 144 144 144 144 133 116 138 136 133 131 129 127 125 123 120 118 116 114 113 112 112 111 110 112 113 115 149 183 216 250 250 250 250 250 251 251 251 251 251 251 250 248 247 246 244 243 -1 -1 -1 -1 -1 -1 -1 -1 -1 -1 -1 -1 -1 -1 -1 -1 -1 -1 -1 -1 
221 221 222 222 223 224 224 225 226 226 226 225 225 225 224 204 193 191 196 207 210 206 202 198 197 196 195 195 195 196 197 197 198 198 198 197 195 191 187 183 239 228 218 207 197 186 176 169 170 170 170 170 171 171 171 171 167 150 132 114 161 158 156 154 152 150 148 145 143 131 124 142 141 140 139 138 138 140 141 114 133 127 122 116 116 116 116 116 116 115 115 115 115 115 116 116 117 117 118 118 -1 -1 -1 -1 -1 -1 -1 -1 -1 -1 -1 -1 -1 -1 -1 -1 -1 -1 -1 -1 
246 247 247 248 249 249 250 251 251 252 252 251 251 251 250 250 249 247 246 244 240 235 231 227 224 224 223 223 223 223 224 224 225 225 225 221 218 214 210 206 242 232 221 211 200 196 196 197 197 197 197 198 198 198 198 184 166 148 131 113 183 181 179 177 175 173 170 147 116 134 152 169 168 168 167 167 167 168 169 112 156 150 145 142 142 142 141 141 141 141 141 141 141 141 141 141 142 142 143 143 -1 -1 -1 -1 -1 -1 -1 -1 -1 -1 -1 -1 -1 -1 -1 -1 -1 -1 -1 -1 
107 107 108 108 109 109 110 110 111 111 112 112 113 113 114 114 115 116 116 117 174 193 213 232 252 252 251 251 250 250 251 251 252 252 248 245 241 237 233 230 246 235 225 223 223 223 223 224 224 224 225 225 225 218 200 183 165 147 129 112 206 204 202 200 198 164 109 126 144 161 179 197 196 195 195 195 195 196 183 111 179 174 169 169 168 168 167 167 167 167 167 167 167 167 167 167 167 168 168 169 -1 -1 -1 -1 -1 -1 -1 -1 -1 -1 -1 -1 -1 -1 -1 -1 -1 -1 -1 -1 
136 135 135 136 136 137 137 138 138 138 116 117 117 118 118 118 119 119 120 114 109 103 103 104 104 104 106 108 109 110 111 111 112 113 132 152 171 191 210 230 249 249 250 250 250 250 251 251 251 251 252 252 234 217 199 181 163 146 128 110 229 227 225 180 125 118 136 154 171 189 207 224 224 224 224 224 224 224 182 110 202 197 195 195 194 194 193 193 193 193 193 192 192 193 193 193 193 193 194 194 -1 -1 -1 -1 -1 -1 -1 -1 -1 -1 -1 -1 -1 -1 -1 -1 -1 -1 -1 -1 
165 164 163 163 164 164 165 165 165 166 149 121 122 122 122 122 122 123 117 123 140 115 103 103 103 112 135 137 137 137 138 139 140 141 136 131 126 121 116 111 106 107 107 108 108 109 109 110 110 111 111 112 112 111 111 111 110 110 109 109 252 197 142 111 128 146 164 181 199 217 234 252 252 252 252 252 252 252 180 108 226 222 222 221 221 220 220 219 219 218 218 218 218 218 219 219 219 219 219 220 -1 -1 -1 -1 -1 -1 -1 -1 -1 -1 -1 -1 -1 -1 -1 -1 -1 -1 -1 -1 
194 193 192 192 191 192 192 193 193 193 182 154 126 126 126 126 126 143 160 178 153 128 103 103 103 121 163 165 165 165 166 167 167 168 163 158 153 148 143 125 135 135 135 135 136 136 137 137 138 139 139 112 140 139 139 139 138 138 137 133 119 103 104 104 105 106 107 107 108 109 109 110 110 110 110 110 110 109 108 107 249 249 248 248 247 247 246 246 245 245 244 244 244 244 244 245 245 245 245 245 -1 -1 -1 -1 -1 -1 -1 -1 -1 -1 -1 -1 -1 -1 -1 -1 -1 -1 -1 -1 
223 222 221 221 220 219 220 220 220 220 215 187 216 244 228 213 197 198 215 190 165 140 115 103 103 129 182 194 194 194 194 194 195 196 191 186 181 167 143 120 163 163 163 163 163 164 165 165 166 166 167 113 147 167 167 167 166 166 163 157 145 132 133 133 134 135 135 136 137 138 138 138 138 138 138 138 138 134 123 112 101 102 102 103 103 104 105 105 106 106 107 107 107 107 107 106 106 106 106 106 -1 -1 -1 -1 -1 -1 -1 -1 -1 -1 -1 -1 -1 -1 -1 -1 -1 -1 -1 -1 
252 251 250 250 249 248 247 247 248 248 248 224 199 175 194 213 233 252 227 202 177 152 127 102 103 138 190 222 222 222 222 222 223 223 218 209 185 162 138 115 192 192 192 192 192 192 192 193 193 194 181 113 147 182 195 195 194 192 187 182 171 162 162 162 163 164 164 165 166 166 166 166 166 166 166 166 166 166 158 147 131 131 131 131 132 133 133 134 134 135 135 136 136 136 136 135 135 135 135 135 -1 -1 -1 -1 -1 -1 -1 -1 -1 -1 -1 -1 -1 -1 -1 -1 -1 -1 -1 -1 
104 105 105 106 107 107 108 107 106 105 105 105 105 105 106 107 107 108 128 147 167 165 140 115 102 146 199 251 251 251 251 251 251 251 227 204 180 157 133 110 220 220 220 220 220 220 220 220 221 221 181 182 182 182 216 223 222 216 211 206 197 191 191 191 192 193 193 194 195 194 194 194 195 195 195 195 195 195 192 181 160 160 160 160 160 161 162 162 163 163 164 164 164 164 165 164 164 164 164 164 -1 -1 -1 -1 -1 -1 -1 -1 -1 -1 -1 -1 -1 -1 -1 -1 -1 -1 -1 -1 
133 134 134 135 135 136 137 120 114 113 112 112 112 112 111 112 112 113 111 110 108 107 105 104 102 102 103 103 103 103 103 104 104 104 104 104 105 105 105 105 249 249 249 249 249 249 249 249 249 249 250 250 251 251 251 251 246 241 235 230 223 220 220 221 221 221 222 223 222 221 222 222 223 223 223 223 223 223 223 216 190 190 190 190 190 190 190 191 191 192 192 193 193 193 193 193 193 193 193 193 -1 -1 -1 -1 -1 -1 -1 -1 -1 -1 -1 -1 -1 -1 -1 -1 -1 -1 -1 -1 
162 163 163 164 164 165 166 149 132 120 120 120 119 119 118 117 117 118 116 115 113 116 123 130 113 132 132 132 133 115 109 110 110 115 130 134 134 134 134 134 96 97 99 100 101 103 104 105 107 108 108 107 107 106 106 214 199 183 190 220 249 249 250 250 250 251 251 250 250 249 250 250 251 251 251 251 251 251 251 251 219 219 219 219 219 219 219 219 220 220 221 221 221 221 222 222 222 222 222 222 -1 -1 -1 -1 -1 -1 -1 -1 -1 -1 -1 -1 -1 -1 -1 -1 -1 -1 -1 -1 
