P2
120 100
255
251 250 250 252 252 249 253 253 244 239 251 253 250 247 251 251 251 252 253 243 253 204 197 234 250 244 247 251 154 113 84 92 105 103 100 106 100 100 100 100 100 100 100 100 100 100 99 99 99 98 98 98 99 99 98 98 98 97 97 97 97 97 97 97 97 97 97 97 99 99 99 99 99 99 99 99 98 98 98 98 98 98 98 98 98 98 98 98 98 98 98 98 97 97 97 97 97 97 97 97 98 98 98 98 98 98 98 98 98 98 98 98 98 98 98 98 98 98 98 98 
251 249 251 252 253 245 248 253 253 253 253 243 253 253 253 253 249 241 219 186 139 127 142 200 246 240 234 252 251 164 96 98 112 101 94 106 100 101 101 100 100 100 100 100 100 100 100 100 99 99 99 99 100 99 99 98 98 98 98 98 97 97 97 97 97 97 97 97 99 99 99 99 99 99 99 99 98 98 98 98 98 98 98 98 98 98 98 98 98 98 98 98 97 97 97 97 97 97 97 97 98 98 98 98 98 98 98 98 98 98 98 98 98 98 98 98 98 98 98 98 
249 251 252 252 251 250 248 250 253 253 252 250 253 236 213 193 169 142 121 113 103 111 118 137 188 243 253 247 253 250 181 100 87 106 108 102 101 98 99 106 106 98 95 100 98 98 98 99 99 100 100 100 99 100 99 99 100 99 99 99 100 99 99 99 99 99 99 99 99 99 99 99 99 99 99 99 99 99 99 99 99 99 99 99 99 99 99 99 99 99 99 99 99 99 99 99 99 99 99 99 98 98 98 98 98 98 98 98 94 96 97 98 99 98 97 96 98 99 100 100 
251 249 247 245 250 251 253 253 252 230 199 176 166 152 136 127 119 113 114 119 119 128 124 114 134 187 237 253 244 253 252 181 92 90 117 99 96 97 109 103 86 98 111 96 98 98 97 99 99 100 100 100 99 99 99 99 100 99 99 99 100 99 99 99 99 99 99 99 99 99 99 99 99 99 99 99 99 99 99 99 99 99 99 99 99 99 99 99 99 99 99 99 99 99 99 99 99 99 99 99 98 98 98 98 98 98 98 98 100 100 100 100 99 98 97 98 102 102 100 99 
253 253 253 252 245 219 184 160 149 146 142 137 122 121 125 132 137 141 148 156 184 146 124 130 127 128 167 220 253 240 247 253 205 108 74 108 109 103 95 97 103 102 99 101 99 99 99 99 100 100 100 101 100 100 99 99 100 100 99 99 100 99 99 99 99 99 99 99 99 99 99 99 99 99 99 99 99 99 99 99 99 99 99 99 99 99 99 99 99 99 99 99 99 99 99 99 99 99 99 99 98 98 98 98 98 98 98 98 101 100 100 99 97 97 97 97 97 96 96 95 
244 217 183 159 152 145 136 133 134 133 128 123 129 133 142 156 176 203 231 251 250 185 140 143 143 123 126 153 200 240 249 251 253 213 127 80 95 119 99 91 117 105 85 108 99 100 100 100 100 101 101 101 100 99 99 99 100 100 100 100 99 99 99 99 99 99 99 99 99 99 99 99 99 99 99 99 99 99 99 99 99 99 99 99 99 99 99 99 99 99 99 99 99 99 99 99 99 99 99 99 99 99 99 99 99 99 99 99 99 98 98 96 96 97 98 99 99 99 99 99 
153 146 143 141 129 129 128 128 130 137 147 154 146 174 214 246 253 253 246 237 253 238 187 139 129 146 144 123 141 194 248 250 242 253 228 128 81 108 112 97 95 101 102 104 101 100 100 100 100 100 100 100 99 100 100 100 99 99 99 99 99 99 99 99 99 99 99 99 99 99 99 99 99 99 99 99 99 99 99 99 99 99 99 99 99 99 99 99 99 99 99 99 99 99 99 99 99 99 99 99 99 99 99 99 99 99 99 99 99 98 98 97 97 99 101 102 102 103 104 103 
132 129 124 120 144 139 131 127 137 164 201 228 249 252 253 252 251 251 249 245 244 253 234 183 149 147 146 133 137 143 184 236 253 244 243 249 151 77 82 115 96 99 117 95 101 101 101 101 100 100 100 101 100 100 100 100 99 99 99 99 99 99 99 99 99 99 99 99 99 99 99 99 99 99 99 99 99 99 99 99 99 99 99 99 99 99 99 99 99 99 99 99 99 99 99 99 99 99 99 99 100 100 100 100 100 100 100 100 101 100 100 100 100 101 102 102 89 90 93 96 
117 127 139 147 137 158 189 216 236 247 252 253 247 251 250 247 248 252 249 243 245 246 250 242 209 166 143 143 131 150 144 165 223 244 244 253 239 133 86 108 109 103 105 97 102 102 102 101 101 100 100 101 100 99 100 100 99 100 99 99 99 99 99 99 99 99 99 99 99 99 99 99 99 99 99 99 99 99 99 99 99 99 99 99 99 99 99 99 99 99 99 99 99 99 99 99 99 99 99 99 100 100 100 100 100 100 100 100 101 101 101 100 99 97 96 95 95 95 95 95 
162 184 206 222 250 249 248 245 244 246 248 249 251 252 248 244 248 252 252 245 252 249 247 249 242 215 174 143 139 139 140 137 164 231 252 223 253 249 154 77 97 109 93 107 102 102 103 101 101 100 100 101 100 100 100 99 100 100 99 99 100 99 99 99 99 99 99 99 99 99 99 99 99 99 99 99 99 99 99 99 99 99 99 99 99 99 99 99 99 99 99 99 99 99 99 99 99 99 99 99 100 100 100 100 100 100 100 100 99 99 99 98 94 91 89 87 132 127 116 107 
244 252 252 251 250 250 250 250 250 250 250 250 252 251 251 252 252 251 249 246 249 252 250 245 248 246 218 183 147 135 139 139 134 163 218 250 223 253 251 175 102 85 100 111 97 106 100 95 104 109 100 95 101 101 101 100 101 101 100 100 100 99 99 99 99 99 99 99 99 99 99 99 99 99 99 99 100 100 100 100 100 100 100 100 100 100 100 100 100 100 100 100 100 100 100 100 100 100 100 100 100 100 100 100 100 100 100 100 97 96 106 102 84 118 194 237 242 250 218 92 
252 249 245 242 250 250 250 250 250 250 250 250 252 251 251 252 252 251 250 246 249 251 247 243 247 251 244 230 163 164 139 135 150 138 156 225 249 233 245 253 209 114 74 93 115 94 100 112 99 94 104 106 100 100 100 100 101 100 100 100 100 99 99 99 99 99 99 99 99 99 99 99 99 99 99 99 100 100 100 100 100 100 100 100 100 100 100 100 100 100 100 100 100 100 100 100 100 100 100 100 100 100 100 100 100 100 100 100 109 101 92 94 97 156 239 242 236 246 220 131 
245 249 252 252 250 250 250 250 250 251 251 250 252 251 251 252 252 252 249 247 251 249 245 242 241 243 247 250 232 167 150 155 131 132 154 151 232 231 238 253 253 226 153 89 93 98 96 97 106 104 98 103 100 100 100 100 101 100 100 100 100 99 99 99 99 99 99 99 99 99 99 99 99 99 99 99 100 100 100 100 100 100 100 100 100 100 100 100 100 100 100 100 100 100 100 100 100 100 100 100 100 100 100 100 100 100 100 100 97 107 96 97 87 152 253 235 222 241 237 186 
249 252 252 252 251 251 251 251 251 251 251 251 252 251 251 252 252 252 249 247 250 245 243 245 241 234 236 244 251 232 183 148 149 147 134 132 148 217 253 237 238 253 241 184 94 102 99 100 109 96 92 110 101 101 101 101 101 101 101 101 101 100 100 100 100 100 100 100 100 100 100 100 100 100 100 100 100 100 100 100 100 100 100 100 100 100 100 100 100 100 100 100 101 101 101 101 101 101 101 101 101 101 101 101 101 101 101 102 88 107 102 108 81 134 253 226 248 229 220 188 
252 252 249 247 251 251 251 251 251 251 251 251 252 251 251 252 252 251 249 246 250 241 239 246 247 242 242 248 244 252 235 191 164 142 134 142 128 155 200 239 252 247 246 253 217 114 83 105 100 108 116 87 101 101 101 101 101 101 101 101 101 100 100 100 100 100 100 100 100 100 100 100 100 100 100 100 100 100 100 100 100 100 100 100 100 100 100 100 100 100 100 100 101 101 101 101 101 101 101 101 101 101 101 101 101 101 101 102 103 105 91 111 91 139 252 230 245 225 236 192 
249 251 252 252 252 252 252 252 252 252 252 252 251 251 251 252 252 251 249 247 252 244 236 238 242 242 242 246 252 233 250 248 192 161 157 134 143 128 138 184 233 251 247 242 253 240 139 75 111 111 84 110 103 102 102 102 102 102 101 102 102 101 101 101 101 101 101 101 101 101 101 101 101 101 101 101 100 100 100 100 100 100 100 100 100 100 100 100 100 100 100 100 102 102 102 102 102 102 102 102 102 102 102 102 102 102 102 103 109 105 94 106 85 126 235 237 224 222 252 217 
252 251 251 252 251 251 252 252 252 252 252 252 251 250 250 251 252 251 249 247 252 248 240 239 239 240 239 239 241 252 236 234 252 218 161 154 130 149 149 137 159 212 245 246 242 244 254 204 90 77 121 110 102 102 102 102 102 102 101 102 102 101 101 101 101 101 101 101 101 101 101 101 101 101 101 101 100 100 100 100 100 100 100 100 100 100 100 100 100 100 100 100 102 102 102 102 102 102 102 102 102 102 102 102 102 102 102 103 103 103 102 103 91 136 220 234 239 222 224 211 
252 252 250 249 251 251 252 252 252 252 252 252 251 250 250 251 252 251 249 247 244 246 247 245 246 248 246 243 240 242 250 249 243 245 217 165 162 142 130 136 149 171 211 249 243 242 249 254 230 134 81 107 103 102 103 102 102 102 102 102 102 101 101 101 101 101 101 101 101 101 101 101 101 101 101 101 100 100 100 100 100 100 100 100 100 100 100 100 100 100 100 100 103 102 103 102 102 103 103 103 102 102 102 103 102 103 102 102 105 96 96 104 127 189 237 231 232 237 229 209 
252 252 252 252 251 251 251 251 251 251 251 251 252 252 251 252 252 252 249 246 250 247 245 246 245 243 243 246 246 246 246 244 243 243 243 243 178 165 143 129 129 139 171 210 240 248 244 240 254 190 85 112 104 104 104 103 104 102 102 102 101 101 101 101 101 101 101 101 103 102 100 99 99 100 102 103 101 101 101 101 101 101 101 101 101 101 101 101 101 101 101 101 100 100 100 100 101 101 101 100 99 103 98 106 106 105 103 98 107 107 92 118 197 182 229 223 236 219 228 236 
252 252 252 252 251 251 251 251 251 251 251 251 252 252 251 252 252 252 249 246 250 247 245 246 244 242 242 246 245 244 243 243 243 243 243 244 246 178 148 157 146 132 143 157 217 252 252 238 251 212 93 93 104 104 104 103 104 102 102 102 101 101 101 101 101 101 101 101 102 101 101 100 100 101 101 102 101 101 101 101 101 101 101 101 101 101 101 101 101 101 101 100 100 100 101 100 101 101 101 101 106 105 97 100 98 98 107 103 85 80 88 139 210 193 224 237 216 243 230 208 
252 252 252 252 251 251 251 251 251 251 251 251 252 252 251 252 252 252 249 246 250 247 245 246 244 242 242 246 243 243 242 242 242 243 243 244 245 252 208 153 146 143 130 135 161 202 240 252 254 232 93 98 104 104 104 103 103 102 102 102 101 101 101 101 101 101 101 101 100 101 101 102 102 101 101 100 101 101 101 101 101 101 101 101 101 101 101 101 101 101 101 100 100 100 101 100 101 101 101 100 96 103 106 110 101 88 101 90 109 130 170 213 241 219 217 231 209 238 231 223 
252 252 252 252 251 251 251 251 251 251 251 251 252 252 251 252 252 252 249 246 250 247 245 246 244 242 242 247 242 242 242 241 241 242 245 244 252 237 244 227 166 139 144 132 132 143 178 220 249 253 111 102 104 104 104 103 103 102 102 102 102 102 102 102 102 102 102 102 99 100 102 103 103 102 100 99 102 102 102 102 102 102 102 102 102 102 102 102 102 102 102 102 101 101 101 102 102 102 102 101 105 106 100 98 98 111 185 200 219 228 234 221 216 225 215 214 222 220 235 246 
252 252 252 252 251 251 251 251 251 251 251 251 252 252 251 252 252 252 249 246 250 247 245 246 244 242 242 247 242 241 241 242 242 242 245 245 236 252 244 238 245 201 145 137 138 135 137 156 194 247 128 87 104 104 104 103 103 103 102 102 102 102 102 102 102 102 102 102 99 100 102 103 103 102 100 99 102 102 102 102 102 102 102 102 102 102 102 102 102 102 102 102 101 101 101 102 102 102 102 101 105 106 102 96 96 117 232 253 236 227 224 214 219 240 230 215 231 237 233 203 
252 252 252 252 251 251 251 251 251 251 251 251 252 252 251 252 252 252 249 246 250 247 245 246 244 242 242 247 244 242 242 242 243 244 244 245 244 242 252 250 240 252 235 172 138 130 130 145 145 161 102 98 104 105 105 104 103 102 102 102 104 103 103 103 103 103 103 103 100 101 101 102 102 101 101 100 103 103 103 103 103 103 103 103 103 103 103 103 103 103 103 103 102 103 102 103 103 103 103 102 97 102 110 104 97 100 218 232 224 221 241 249 241 220 229 230 228 240 166 89 
252 252 252 252 251 251 251 251 251 251 251 251 252 252 251 252 252 252 249 246 250 247 245 246 244 242 242 247 245 244 243 243 243 243 243 245 252 244 233 248 252 243 237 252 173 135 119 141 121 90 85 114 104 105 105 104 104 102 102 102 104 103 103 103 103 103 103 103 102 101 101 100 100 101 101 102 103 103 103 103 103 103 103 103 103 103 103 103 103 103 103 103 102 102 103 103 103 103 102 102 108 102 100 94 94 102 236 245 248 233 225 202 174 138 209 235 228 248 215 184 
252 252 252 252 251 251 251 251 251 251 251 251 252 252 251 252 252 252 249 246 250 247 245 246 244 242 242 247 247 246 245 244 243 243 243 243 244 242 245 245 241 245 248 243 248 174 99 94 101 96 111 100 104 104 104 104 104 102 102 102 104 103 103 103 103 103 103 103 103 102 100 99 99 100 102 103 103 103 103 103 103 103 103 103 103 103 103 103 103 103 103 103 102 102 102 103 103 103 102 102 103 98 101 102 103 99 217 207 173 150 120 93 107 112 218 224 235 231 227 225 
252 252 252 252 251 251 251 251 251 251 251 251 251 251 252 252 252 251 250 250 249 246 245 248 247 244 245 249 246 246 246 245 245 244 245 245 243 244 246 247 247 246 244 243 248 237 98 97 104 103 104 105 103 102 102 101 102 102 102 103 103 102 102 102 102 102 102 102 102 102 102 102 102 102 102 102 102 102 102 102 102 102 102 102 103 103 103 103 103 103 103 103 102 102 102 103 103 103 102 102 103 100 98 97 99 104 108 111 107 99 102 113 195 197 218 232 238 238 233 172 
252 252 252 252 251 251 251 251 251 251 251 251 251 251 252 252 252 251 250 249 249 246 245 248 247 244 245 249 246 246 246 245 245 244 245 245 244 245 246 246 246 246 245 244 250 238 99 99 104 102 104 104 103 102 102 101 102 103 102 103 103 102 102 102 102 102 102 102 102 102 102 102 102 102 102 102 102 102 102 102 102 102 102 102 103 103 103 103 103 103 103 102 102 102 102 103 103 103 102 102 103 101 99 99 101 103 107 109 99 102 101 94 137 132 201 238 221 234 224 148 
252 252 252 252 251 251 251 251 251 251 251 251 251 252 252 252 252 251 250 249 249 246 245 248 247 244 245 249 246 246 245 245 245 245 244 244 245 245 246 246 246 246 245 245 250 241 100 100 104 102 103 103 103 104 102 103 103 102 102 103 103 102 102 102 102 102 102 102 102 102 102 102 102 102 102 102 102 102 102 102 102 102 102 102 103 103 103 103 103 103 103 102 102 102 102 103 102 103 102 102 103 102 101 102 101 103 104 105 102 108 102 92 100 88 202 245 230 243 235 172 
252 252 252 252 251 251 251 251 251 251 251 251 252 252 252 252 251 250 249 248 249 246 246 248 247 244 244 248 245 245 245 245 245 245 246 245 245 246 246 246 246 246 246 245 252 242 101 101 106 102 103 102 104 104 102 103 102 102 102 104 104 103 103 103 103 103 103 103 102 102 102 102 102 102 102 102 103 103 103 103 103 103 103 103 103 103 103 103 103 103 103 102 102 102 102 103 102 102 102 103 103 102 102 104 104 103 104 102 110 108 99 104 104 90 216 241 233 235 233 205 
252 252 252 252 251 251 251 251 251 251 251 251 252 252 252 252 251 250 249 248 250 247 246 248 246 243 244 247 245 245 245 245 245 245 246 246 247 246 246 246 246 246 246 247 251 242 102 101 106 103 104 103 104 105 103 103 102 103 103 103 104 103 103 103 103 103 103 103 102 102 102 102 102 102 102 102 103 103 103 103 103 103 103 103 103 103 103 103 103 103 103 102 102 102 102 103 102 102 102 102 103 103 104 104 104 103 103 102 105 98 97 109 110 93 218 233 234 234 233 222 
252 252 252 252 251 251 251 251 251 251 251 251 252 252 252 252 251 250 248 247 250 247 246 248 246 243 243 246 244 244 245 245 245 245 246 246 247 247 246 246 246 246 247 247 251 243 102 101 107 104 105 104 104 105 103 104 103 103 104 103 105 104 104 104 104 104 104 104 102 102 102 102 102 102 102 102 104 104 104 104 104 104 104 104 103 103 103 103 103 103 103 103 102 102 102 103 102 102 102 102 103 103 104 104 104 104 103 103 102 95 107 109 101 85 205 238 237 242 235 221 
252 252 252 252 251 251 251 251 251 251 251 251 252 252 252 252 251 249 248 247 251 248 246 248 246 243 243 246 244 244 244 244 244 245 246 246 247 246 245 245 246 246 247 248 250 242 102 101 107 105 106 105 105 105 104 104 103 104 104 104 105 104 104 104 104 104 104 104 102 102 102 102 102 102 102 102 104 104 104 104 104 104 104 104 103 103 103 103 103 103 103 103 102 102 103 102 102 102 103 102 103 103 103 103 104 104 104 105 107 97 117 106 100 88 193 245 233 233 218 213 
252 252 252 252 251 251 251 251 251 251 251 251 252 252 252 252 251 249 248 247 251 248 247 248 246 244 243 246 244 244 244 245 244 246 246 246 248 247 246 244 245 246 248 249 251 241 102 101 109 106 108 108 105 105 104 104 104 104 104 105 105 104 104 104 104 104 104 104 102 102 102 102 102 102 102 102 104 104 103 104 103 104 103 104 103 103 102 102 103 103 103 102 102 102 102 102 102 103 102 102 103 102 102 103 103 103 105 106 108 93 117 102 105 99 186 243 240 225 209 231 
250 251 251 252 252 252 252 252 252 252 252 252 252 252 252 251 251 250 250 250 252 250 249 247 246 246 246 247 244 244 244 244 244 244 244 244 245 245 244 244 244 245 245 246 249 245 101 101 112 105 104 111 103 104 103 103 103 103 103 103 103 104 104 105 105 106 106 106 103 103 103 103 103 103 103 103 102 102 102 102 102 102 101 102 103 103 104 104 104 105 105 105 105 104 105 104 104 104 104 104 102 102 103 102 103 102 102 102 101 105 106 104 95 102 168 251 234 238 213 233 
249 250 250 251 252 252 252 252 252 252 252 252 252 252 252 251 251 250 250 250 251 250 249 246 245 245 245 246 243 244 244 244 244 244 244 245 246 245 245 245 245 245 245 246 249 241 100 102 111 105 104 110 103 104 103 103 103 103 103 103 103 104 104 105 105 106 106 106 103 103 103 103 103 103 103 103 102 102 102 102 102 102 102 102 103 104 104 104 104 105 105 105 105 104 104 104 105 104 104 104 104 103 104 103 104 104 103 103 110 104 102 105 103 106 161 237 210 230 219 223 
250 250 251 252 252 252 252 252 252 252 252 252 252 252 252 251 250 250 250 250 250 249 248 246 244 244 245 245 243 243 243 244 244 245 245 245 246 246 246 246 246 246 246 246 250 237 98 103 111 105 106 109 103 104 103 103 103 103 103 103 103 104 105 105 105 105 106 106 103 103 103 103 103 103 103 103 102 102 102 103 102 102 101 101 103 103 103 103 103 104 104 104 104 105 105 105 105 105 105 105 105 105 105 106 106 106 105 105 111 104 103 105 99 98 154 233 220 233 234 226 
251 251 252 252 252 252 252 252 252 252 252 252 252 252 252 251 250 250 250 250 250 249 247 245 244 243 244 244 242 242 243 244 244 245 246 246 245 245 246 246 246 246 245 245 249 232 96 106 110 105 107 107 104 105 104 104 104 104 104 104 104 105 105 105 105 105 105 105 104 104 104 104 104 104 104 103 104 104 104 104 104 103 103 103 103 103 103 103 103 103 103 104 104 105 105 104 104 104 105 105 104 104 104 105 105 104 104 105 99 102 106 109 96 92 157 246 230 217 225 223 
248 249 251 252 252 252 252 252 252 252 252 252 252 252 252 251 250 250 250 250 250 249 247 245 244 243 244 244 243 243 243 244 244 245 245 245 243 244 245 245 245 245 244 243 250 226 93 108 109 104 109 105 104 105 104 104 104 104 104 104 104 105 105 105 105 105 105 105 104 104 104 104 104 104 104 104 104 104 104 103 103 103 103 103 102 103 103 103 102 102 102 103 104 104 104 105 105 104 105 104 104 104 104 104 104 105 104 104 98 102 110 115 106 100 148 221 226 211 216 210 
245 246 248 249 252 252 252 252 252 252 252 252 252 252 252 251 250 250 250 250 250 249 248 246 244 244 245 245 245 244 244 244 244 244 244 244 242 243 244 245 245 244 243 242 250 220 91 110 108 104 111 104 105 106 105 105 105 106 105 106 106 106 105 105 105 105 104 104 105 105 105 105 105 105 105 105 105 105 105 104 105 105 104 104 102 102 102 103 102 102 102 103 105 104 105 105 104 104 105 104 104 103 104 104 103 103 103 103 113 108 104 107 108 94 102 129 94 106 131 130 
245 247 249 250 252 252 252 252 252 252 252 252 252 252 252 251 251 250 250 250 251 250 249 246 245 245 245 246 246 246 246 245 245 244 243 243 244 245 246 247 247 246 245 243 251 216 89 112 108 104 113 103 105 106 105 105 105 106 105 106 106 106 106 105 105 104 104 104 105 105 105 105 105 105 105 105 105 105 105 104 105 104 104 104 103 103 103 103 103 103 103 103 105 105 105 105 105 104 104 104 106 105 105 105 104 104 104 104 111 102 90 88 93 82 66 66 97 114 129 126 
249 250 252 252 252 252 252 252 252 252 252 252 252 252 252 251 251 250 250 250 252 250 249 247 246 246 246 247 247 247 246 246 244 243 242 242 245 246 247 248 248 247 246 244 251 214 88 112 107 103 113 102 105 105 105 105 105 105 105 106 106 106 106 105 105 104 104 104 105 105 105 105 105 105 105 105 104 104 104 104 104 104 104 104 103 104 103 103 103 103 103 104 105 105 105 105 104 105 104 104 106 106 106 105 105 105 105 104 86 86 77 73 81 80 74 75 81 88 101 118 
252 252 252 252 252 251 250 249 250 252 252 252 248 249 252 252 252 251 251 252 245 249 251 250 248 247 245 244 246 246 246 246 246 246 246 246 246 247 247 248 248 247 247 246 253 192 94 106 107 102 109 108 105 105 105 105 106 105 105 106 105 105 105 105 105 105 105 105 106 106 106 106 106 106 106 105 104 103 103 103 103 104 104 104 106 106 104 105 105 106 105 106 100 103 105 106 105 103 103 103 101 102 103 103 103 103 102 101 71 78 85 85 79 79 84 91 104 105 113 129 
252 252 252 252 252 252 252 252 251 250 250 250 252 252 252 251 250 249 249 250 252 247 245 249 249 241 239 245 245 245 246 246 246 247 247 247 246 247 247 248 248 247 247 246 253 190 93 105 108 103 108 107 105 105 105 105 106 105 106 106 105 105 105 105 105 105 105 105 106 106 106 106 106 106 106 105 103 103 103 103 103 104 104 104 103 102 101 101 103 104 105 106 106 107 108 107 105 105 108 109 109 106 103 98 92 86 81 78 78 94 116 137 152 165 177 185 181 180 184 189 
252 252 252 252 250 251 252 252 252 252 252 252 250 249 248 248 250 252 252 252 245 246 247 249 250 250 247 242 245 246 246 247 247 248 248 248 246 247 247 248 248 247 247 246 253 187 92 106 109 104 108 106 105 105 105 105 105 105 106 106 105 105 105 105 105 105 105 105 106 106 106 106 106 106 106 105 103 102 103 103 103 104 104 104 108 109 110 109 109 107 105 103 103 105 106 104 98 92 89 86 89 95 109 126 144 161 174 179 195 198 199 196 189 183 176 173 175 172 172 173 
251 252 251 252 250 252 252 252 252 252 252 252 252 252 250 249 250 250 249 249 243 252 252 241 240 252 252 245 248 248 248 248 248 247 247 247 246 247 247 248 248 247 247 246 249 184 91 107 110 104 108 105 105 105 105 105 105 106 106 106 106 106 106 106 106 106 106 106 106 106 106 106 106 106 106 105 104 104 104 104 105 105 105 105 101 103 107 109 109 109 108 107 101 96 90 90 99 121 146 162 185 185 185 183 182 180 179 177 166 165 166 167 171 175 179 180 176 175 175 177 
252 251 252 251 252 252 252 250 251 249 250 251 248 248 251 252 252 252 252 252 242 246 246 240 237 244 251 252 250 250 249 249 248 247 246 246 246 247 247 248 248 247 247 246 248 183 91 107 110 105 108 105 105 105 105 106 105 106 106 106 106 106 106 106 106 106 106 106 106 106 106 106 106 106 106 105 104 105 104 104 104 105 105 105 108 108 104 97 93 93 96 100 99 118 147 173 186 188 184 180 182 182 182 181 180 178 177 176 180 175 170 166 167 168 168 167 162 164 164 164 
252 252 252 252 250 251 252 252 253 253 253 253 253 253 252 252 251 246 236 229 187 186 211 249 252 243 240 252 251 251 250 249 249 248 247 246 246 247 247 248 248 247 247 246 248 184 92 107 110 105 109 106 105 105 105 106 105 106 106 106 107 107 107 107 107 107 107 107 106 106 106 106 106 106 106 106 106 106 106 107 106 106 106 106 98 98 98 99 105 118 135 147 188 188 186 183 180 179 180 181 168 168 168 167 166 165 164 163 160 159 159 159 159 157 154 152 164 166 165 161 
251 252 251 252 247 250 252 253 253 250 245 243 252 244 229 213 197 178 159 146 122 131 165 215 246 248 245 248 249 249 249 249 249 249 249 249 246 247 247 248 248 247 247 246 251 187 93 108 110 105 109 107 105 105 105 106 105 106 106 106 107 107 107 107 107 107 107 107 106 106 106 106 106 106 106 105 107 107 106 107 106 107 106 105 89 101 120 139 158 176 193 205 179 182 182 180 174 169 165 162 172 171 170 168 165 162 159 158 161 163 164 166 165 165 165 166 162 166 164 156 
251 251 251 251 253 253 253 248 237 221 206 197 169 163 153 147 141 133 123 116 110 126 137 151 192 242 252 246 247 247 248 249 250 251 252 252 246 247 247 248 248 247 247 245 253 188 94 109 110 105 110 108 105 105 105 105 105 105 106 106 106 106 106 106 106 107 107 106 105 105 105 106 106 106 106 106 106 106 107 106 106 105 105 104 152 166 186 196 193 183 171 165 168 168 169 168 166 166 167 169 161 162 162 162 160 159 158 157 163 160 156 151 148 149 156 160 156 160 159 152 
249 248 248 248 202 194 181 167 155 148 144 143 139 145 133 126 131 118 112 130 137 122 136 139 142 172 212 253 246 244 238 245 252 252 245 246 250 249 247 246 246 249 250 252 252 188 91 113 107 115 104 109 107 107 107 106 105 105 104 104 107 106 106 104 102 104 106 110 102 104 105 103 99 101 105 110 110 103 95 95 110 137 167 188 197 188 174 165 163 165 170 173 169 167 165 164 163 163 164 165 158 158 159 159 159 159 158 158 156 153 150 151 155 156 156 154 158 158 157 158 
220 197 172 155 143 143 143 141 137 132 127 123 129 135 125 118 127 131 148 180 171 142 145 140 125 133 163 209 230 249 243 220 222 244 252 252 249 249 248 247 245 244 243 242 252 193 92 113 106 113 104 108 107 107 107 106 106 105 104 103 101 103 106 106 106 106 105 105 106 108 110 111 110 108 106 105 84 106 136 161 178 185 190 192 170 169 167 167 168 167 165 163 165 164 162 159 158 158 157 156 156 157 157 156 156 155 155 155 153 151 149 150 153 155 155 153 161 159 158 159 
142 140 136 133 135 132 129 127 129 132 137 140 136 156 169 180 192 203 221 249 224 161 136 131 127 128 134 158 204 236 244 218 209 230 250 250 248 247 248 247 246 246 246 246 252 201 93 110 105 112 105 106 107 106 106 106 105 105 104 103 105 105 104 106 105 105 101 99 108 102 96 100 107 108 99 89 151 168 189 198 191 178 167 163 161 162 165 169 171 170 164 159 161 160 160 159 158 155 154 152 154 154 153 153 153 152 151 150 150 149 148 149 151 153 154 153 154 152 150 150 
130 129 127 125 132 131 129 130 136 144 153 159 213 231 248 253 253 245 241 247 253 194 163 149 144 144 134 137 175 201 233 244 235 232 238 239 251 250 249 248 248 248 249 251 252 214 97 108 105 109 106 106 108 108 107 107 107 105 105 105 107 105 103 104 106 108 108 107 104 112 112 96 83 102 149 189 191 189 185 175 163 159 160 165 168 166 164 164 164 163 162 160 159 159 160 160 160 158 156 155 150 150 150 148 147 146 146 146 147 147 147 147 149 151 152 152 147 145 143 142 
123 126 132 137 154 167 188 212 232 246 253 253 253 253 253 253 249 244 240 233 253 237 232 202 170 158 142 138 147 162 201 232 236 239 241 231 240 243 247 250 250 249 247 244 251 226 100 107 105 107 108 106 108 108 108 107 107 106 105 105 103 104 105 108 110 110 108 107 104 91 89 115 157 187 193 186 172 169 165 162 164 164 164 163 167 163 159 156 156 157 157 156 159 160 160 159 157 154 153 151 146 146 144 143 143 143 143 144 145 145 146 146 146 147 149 151 149 146 144 144 
152 170 195 213 250 252 252 252 252 248 243 239 238 232 236 243 243 251 250 235 251 251 252 241 213 202 174 153 138 138 158 173 185 220 241 225 210 219 233 246 252 252 249 245 252 239 106 105 105 106 111 107 109 108 108 108 107 106 106 106 102 106 109 109 104 99 96 94 90 122 162 187 187 176 168 164 168 166 166 169 171 166 157 147 160 157 156 156 157 157 155 153 157 156 156 153 149 146 143 141 143 142 140 139 139 140 141 143 144 145 146 145 144 144 146 148 148 146 144 144 
245 249 252 252 252 252 248 245 246 250 252 252 247 239 248 252 251 252 246 220 252 240 249 247 245 248 221 199 176 147 142 143 143 180 222 224 213 219 228 238 246 250 251 251 252 250 109 105 106 105 114 107 109 109 108 107 107 106 106 106 106 108 107 104 102 107 118 128 181 183 185 181 174 169 167 167 163 162 161 161 162 163 162 159 156 154 152 152 153 154 153 151 149 148 146 144 142 140 140 139 139 138 137 136 137 139 141 143 143 145 146 144 141 141 143 145 143 142 141 141 
251 252 252 252 249 249 250 250 250 249 249 249 249 240 248 252 246 252 251 227 252 235 246 248 246 252 249 252 231 172 154 160 143 152 200 229 250 246 239 234 234 238 245 250 252 253 112 105 106 106 115 108 109 109 109 107 108 106 105 106 105 104 102 100 110 136 173 199 181 177 173 169 166 166 166 165 163 161 159 154 149 148 151 155 156 150 143 139 139 142 145 147 140 139 137 137 138 140 142 143 137 136 135 135 136 139 141 143 143 144 145 143 139 138 140 143 141 140 140 140 
248 249 249 250 250 251 251 252 252 251 251 250 252 252 248 246 248 251 246 238 249 248 244 243 242 242 240 238 250 233 208 181 154 139 146 162 177 217 237 230 229 235 240 247 239 253 136 86 123 97 106 114 110 101 100 109 112 108 108 112 95 96 112 146 183 197 183 164 173 171 171 171 170 167 165 162 157 157 158 157 157 156 154 153 151 149 146 143 140 139 139 139 137 137 138 138 140 141 142 142 138 136 132 130 130 132 135 137 134 135 138 140 142 142 142 141 137 137 137 136 
249 249 250 250 249 250 250 251 251 250 250 249 252 252 249 247 249 252 248 241 251 249 246 245 244 244 242 240 249 243 247 248 214 163 145 159 164 165 180 216 243 239 237 252 252 240 187 97 88 129 116 96 98 116 117 101 99 112 106 83 112 139 172 188 182 173 172 177 172 170 168 168 167 164 160 157 154 155 156 156 153 150 147 145 141 141 140 140 140 141 141 142 139 137 135 134 134 136 138 140 140 139 137 136 136 138 141 143 136 136 136 137 136 136 135 135 137 137 136 136 
250 250 251 251 248 249 250 250 250 250 249 248 251 252 250 248 250 252 250 244 252 249 247 246 246 245 244 242 238 232 240 253 245 201 158 138 134 147 158 174 195 204 212 227 231 253 235 194 117 77 106 125 113 104 107 116 103 86 101 134 168 177 186 185 175 170 173 180 170 168 166 163 162 159 155 152 152 154 154 153 149 145 141 139 141 141 142 144 144 145 145 145 141 138 134 131 131 133 135 138 138 137 136 136 136 136 137 138 134 133 133 132 131 131 131 131 136 135 135 135 
250 251 251 252 249 250 250 251 251 250 250 249 250 252 251 249 251 252 252 247 251 249 247 246 246 246 244 243 240 244 242 239 247 247 218 180 150 158 150 139 146 163 187 212 220 252 231 253 238 142 93 105 106 111 104 93 100 130 161 177 191 180 168 165 171 174 172 168 167 164 161 160 159 157 153 151 154 153 151 148 145 143 141 140 143 144 144 144 143 141 139 137 138 136 134 132 132 134 136 137 136 136 136 135 134 133 132 131 130 129 128 128 128 130 132 133 133 132 132 132 
250 251 251 252 251 252 252 252 252 252 252 251 249 252 252 250 250 252 252 249 249 248 245 244 245 245 244 242 241 252 252 241 238 251 252 246 218 176 139 139 149 149 173 217 235 231 241 237 254 253 119 104 108 104 100 112 146 183 195 189 168 172 175 175 169 163 161 159 161 158 155 154 154 155 152 150 151 147 144 141 139 140 142 144 137 137 137 136 134 131 128 126 129 131 132 133 134 134 134 134 133 134 134 135 136 135 134 134 132 131 129 128 128 130 131 132 130 130 129 129 
250 250 251 251 252 252 252 252 252 252 252 252 248 252 252 250 249 252 252 249 249 247 245 244 245 245 244 243 245 239 239 243 243 238 241 251 251 226 187 161 150 142 152 178 206 209 244 249 231 250 144 100 106 107 137 179 194 178 174 187 172 174 175 170 161 155 155 158 156 154 150 149 150 150 148 147 144 141 137 135 134 136 139 141 132 132 132 132 131 130 128 128 121 123 126 129 130 130 129 128 123 125 126 129 131 133 134 134 134 133 131 129 127 126 125 125 126 126 126 126 
249 249 250 250 251 252 252 252 252 252 252 251 248 251 252 249 249 250 250 248 250 248 246 245 246 246 245 243 252 238 234 248 252 246 239 241 243 252 244 204 179 165 147 135 157 168 183 249 253 242 127 75 119 163 193 185 174 178 176 163 181 170 158 151 153 156 156 154 153 149 146 144 143 143 142 140 138 137 136 135 135 135 136 137 131 132 130 130 129 130 130 130 121 122 123 124 126 125 125 125 121 121 123 124 126 128 129 129 130 129 129 127 125 122 120 119 123 123 123 123 
248 249 249 250 250 251 250 252 251 251 250 250 248 252 252 249 248 249 249 247 251 249 247 246 247 247 246 246 239 247 249 245 240 241 245 245 241 242 243 252 253 219 169 143 153 144 144 153 214 248 106 155 197 181 170 174 175 169 167 170 153 153 153 152 152 150 148 147 152 148 143 140 139 137 135 134 138 139 140 141 140 138 134 134 130 129 127 125 124 124 125 126 126 125 124 122 123 124 125 125 129 129 128 127 127 127 127 126 122 123 124 124 123 121 119 118 122 121 121 121 
229 232 245 252 249 249 249 249 250 250 250 249 252 249 248 251 252 252 249 247 251 249 245 242 243 245 247 247 247 246 245 244 242 244 244 246 243 248 245 241 247 249 214 168 157 140 143 125 135 182 188 186 180 178 176 174 171 168 163 159 152 154 153 152 153 156 155 149 138 135 134 134 137 138 139 139 141 139 137 137 137 135 133 132 130 126 126 128 127 122 121 123 126 128 128 128 128 126 124 123 130 128 126 124 123 123 123 123 122 123 123 122 120 120 122 123 127 126 124 122 
244 243 243 244 244 247 249 247 245 245 248 251 250 248 247 249 252 252 251 249 252 249 246 245 245 247 248 248 247 246 245 244 244 244 245 245 242 245 242 238 247 252 246 227 176 144 138 134 151 181 178 179 175 173 170 169 167 163 158 155 151 153 152 149 150 150 147 140 145 143 141 140 140 141 141 140 135 132 130 128 126 124 121 119 130 124 120 120 120 120 123 129 126 126 126 126 125 124 123 123 125 124 123 122 122 122 122 123 123 124 125 124 122 122 123 125 123 123 123 122 
241 223 225 238 242 246 250 247 242 241 246 251 251 250 248 249 250 251 250 248 252 249 247 246 246 248 248 248 247 246 246 245 245 245 245 246 245 246 243 239 240 247 251 252 222 177 158 162 177 183 169 172 169 168 165 164 162 159 155 151 155 156 155 150 149 149 143 136 143 141 138 136 136 135 134 132 127 124 121 119 119 117 115 112 125 120 118 119 120 119 122 127 120 120 120 120 121 123 124 125 123 123 122 122 122 123 124 124 122 123 124 124 122 122 123 124 122 123 124 125 
252 245 239 240 244 247 250 249 246 243 243 244 251 252 251 248 248 249 248 245 251 249 246 245 246 247 247 247 246 246 245 245 244 244 244 244 245 245 246 245 240 236 240 246 252 223 192 183 186 177 163 165 167 164 162 160 158 156 152 149 153 153 151 146 144 144 140 135 135 133 130 129 129 128 126 124 122 120 119 119 121 121 120 118 117 117 120 126 126 120 117 118 114 114 114 116 118 122 125 127 125 125 124 124 123 124 124 124 120 122 123 123 122 122 122 124 123 123 124 124 
250 242 240 245 246 246 247 249 249 245 238 231 244 250 251 248 248 251 251 247 249 247 245 244 244 245 245 244 244 244 244 244 243 243 242 242 239 238 242 247 247 242 242 246 252 244 208 178 171 163 158 162 164 162 159 156 154 153 149 147 144 143 138 133 133 136 135 131 131 129 128 128 129 129 127 124 124 123 122 123 124 125 124 123 120 119 121 126 125 119 115 115 117 117 116 117 118 121 123 124 123 123 123 122 121 120 119 119 117 119 121 122 121 120 121 122 120 119 117 115 
243 242 242 243 247 244 243 246 249 246 235 226 235 245 251 249 250 252 252 249 248 246 244 244 244 245 244 243 242 243 243 243 243 242 241 240 241 237 237 241 244 244 245 246 235 244 202 163 158 156 163 165 159 157 153 150 150 149 146 144 137 137 133 129 130 135 134 131 127 126 125 127 127 128 126 124 126 125 123 123 123 123 121 119 127 121 118 118 116 114 116 120 125 124 122 121 119 118 118 118 118 118 117 117 116 114 112 111 112 115 118 119 118 117 118 118 120 118 116 114 
229 252 252 244 249 247 245 247 248 246 240 235 233 246 252 251 250 252 252 245 248 247 245 245 245 246 244 243 243 243 244 244 244 243 241 240 244 243 240 238 239 242 242 239 232 242 192 158 162 159 164 162 152 150 145 144 143 141 140 139 133 135 134 132 133 136 134 129 124 123 122 124 125 125 123 121 122 120 119 119 120 120 118 117 124 118 114 114 113 111 115 121 121 121 120 119 117 114 112 111 112 112 113 113 113 111 110 109 108 111 115 116 115 114 114 115 117 117 117 117 
167 180 226 252 250 250 250 249 248 248 248 249 236 250 252 252 250 252 247 238 249 248 246 246 247 247 245 244 243 244 245 246 245 244 242 241 241 246 247 244 244 247 246 240 242 244 184 158 169 158 157 152 148 144 140 137 137 136 134 133 125 129 132 132 133 134 129 122 126 125 125 126 127 126 123 121 116 115 114 116 118 120 120 119 115 112 113 117 116 113 113 116 110 112 113 114 112 111 109 108 109 110 112 113 113 113 112 111 105 109 112 114 114 113 112 113 110 111 113 115 
222 209 225 250 250 245 242 246 249 250 252 252 247 251 252 251 252 252 250 243 249 246 243 243 244 242 234 227 244 243 243 244 246 246 244 242 242 242 243 243 243 242 241 240 232 243 183 154 160 148 152 147 138 138 139 138 136 133 129 127 130 130 128 126 125 124 122 122 120 122 124 124 122 121 122 122 121 120 119 119 119 117 114 111 113 107 106 113 118 116 112 110 118 112 107 109 114 115 110 104 116 112 112 116 116 111 111 115 110 111 112 113 114 115 115 115 111 115 118 118 
246 235 243 252 252 238 226 233 249 252 250 244 248 251 252 250 251 252 250 244 251 249 246 246 245 243 239 234 245 244 243 244 246 246 244 242 242 243 244 245 245 245 245 244 240 248 186 155 159 146 149 143 142 140 138 136 133 131 130 128 121 122 123 124 124 123 122 121 117 117 117 117 118 118 118 118 118 116 113 113 115 116 116 115 118 112 109 113 116 114 110 109 114 111 109 108 109 108 107 106 107 104 104 108 108 104 104 108 110 111 112 113 114 115 115 114 115 117 118 117 
245 233 232 239 252 242 230 237 250 252 251 247 250 252 251 249 250 252 251 245 250 249 248 246 244 243 242 242 245 244 244 245 246 246 245 243 241 241 243 245 246 246 246 246 241 245 180 147 151 139 143 136 141 138 134 129 127 127 127 129 118 120 123 125 125 122 120 117 121 117 114 115 119 121 121 119 118 114 110 109 109 112 113 114 123 116 112 114 115 111 108 108 110 110 110 107 103 102 104 107 105 103 103 106 106 104 105 108 109 110 111 112 113 113 113 113 115 114 113 113 
249 240 237 241 248 248 250 251 250 247 250 252 251 252 251 248 249 252 251 246 249 249 247 245 241 241 243 246 245 244 244 245 246 246 245 243 240 240 242 243 244 244 244 243 238 241 173 139 147 138 143 137 133 131 128 125 124 125 127 128 127 127 127 125 122 119 115 113 124 118 113 114 120 124 123 120 120 116 112 110 109 110 109 108 124 117 112 113 113 110 108 109 110 109 108 105 102 101 103 106 106 106 106 107 108 109 109 111 109 109 111 112 112 112 112 111 111 109 107 109 
252 251 251 252 237 245 252 252 247 239 244 252 251 252 251 248 249 252 251 246 249 249 247 245 242 242 246 248 244 243 243 244 245 245 244 242 242 243 244 244 244 243 243 242 241 242 172 138 148 141 145 138 126 125 125 126 126 127 128 127 131 129 125 120 117 114 113 113 121 116 111 111 117 120 119 117 117 115 113 113 113 112 109 107 119 114 110 111 111 108 108 110 111 108 105 104 105 106 105 104 101 103 103 104 105 106 107 107 108 108 109 110 110 110 110 109 110 107 105 107 
249 249 248 247 243 244 248 252 251 246 244 246 250 252 251 249 250 252 251 245 251 249 248 246 245 247 248 249 243 242 241 242 244 244 242 240 246 246 246 246 246 245 244 243 243 241 168 133 143 134 136 126 124 125 125 126 127 128 129 128 125 122 118 114 112 112 114 115 121 118 115 115 118 119 119 117 113 112 113 114 116 115 113 110 113 109 108 110 109 105 105 108 108 106 104 105 108 109 107 104 101 104 104 102 103 106 107 104 106 107 107 108 108 108 107 107 111 109 107 106 
252 252 250 248 251 247 247 251 252 250 248 247 248 251 252 250 251 252 250 244 252 249 246 246 247 249 247 245 241 240 240 241 242 242 241 239 245 245 246 246 246 246 246 245 243 240 163 127 136 126 125 113 126 125 123 122 122 123 125 126 118 116 115 114 113 114 116 117 121 120 119 119 118 118 117 117 115 113 111 112 113 114 113 112 109 107 107 109 107 102 100 104 101 104 107 108 108 107 106 106 104 107 108 104 104 108 108 104 104 105 105 106 106 105 105 104 108 108 107 106 
248 251 251 251 250 249 250 251 247 244 247 252 247 251 252 251 252 252 250 243 251 247 242 243 246 249 245 241 241 239 239 240 241 242 240 238 240 241 243 244 245 246 246 245 243 240 161 126 137 127 124 111 128 124 119 115 113 116 119 121 116 117 117 118 117 117 117 116 115 116 117 116 113 111 111 111 120 116 112 109 109 110 110 110 107 106 106 108 105 99 96 98 94 102 110 111 106 103 104 109 102 107 107 102 102 106 106 101 103 104 104 105 104 104 103 102 102 104 106 105 
249 249 249 249 252 252 251 250 249 249 248 247 251 251 251 251 251 251 251 251 249 245 242 242 244 245 243 240 237 239 242 244 244 242 240 238 244 243 243 245 246 247 246 244 243 241 143 125 122 116 127 126 126 124 121 120 119 120 118 116 116 114 111 110 112 113 113 112 112 114 116 118 118 117 115 113 115 114 112 112 112 111 108 106 103 105 106 105 102 100 99 99 98 104 108 109 110 111 107 102 96 99 103 106 108 106 104 102 103 108 109 105 101 103 106 106 104 106 108 109 
249 249 249 249 252 252 251 251 250 249 248 248 251 251 251 251 251 251 251 251 252 249 245 244 245 245 243 241 242 244 245 246 246 246 244 243 245 244 244 245 246 246 246 244 244 240 140 122 123 118 127 125 124 124 123 124 124 123 120 116 113 111 110 110 110 110 107 105 111 112 114 115 114 112 110 109 110 109 107 107 107 106 104 102 108 107 104 100 98 99 103 106 102 106 107 105 106 110 110 107 100 100 101 101 102 103 103 103 100 103 104 100 99 102 104 102 105 107 108 108 
249 249 249 249 252 252 251 251 250 249 249 249 251 251 251 251 251 251 251 251 251 249 245 244 244 245 244 243 246 246 246 246 246 246 246 246 246 245 245 246 246 246 245 243 245 239 136 120 124 121 128 124 122 123 123 125 125 124 119 114 111 110 110 110 110 108 104 100 103 104 106 107 107 106 104 103 107 105 103 103 103 103 101 99 106 106 104 102 100 101 104 107 104 106 104 101 102 108 112 111 103 102 99 97 97 99 102 104 102 104 103 100 102 107 107 104 105 106 107 106 
250 250 250 250 252 252 252 251 251 250 250 249 251 251 251 251 250 251 251 251 247 246 244 243 244 245 246 246 246 245 244 243 243 243 244 245 247 246 246 246 246 246 244 242 245 237 133 118 125 124 129 122 123 121 120 121 120 117 114 110 111 110 109 110 110 109 106 103 101 102 103 105 106 106 106 105 107 105 103 103 103 103 102 100 97 101 105 108 106 103 100 99 102 103 101 98 99 106 110 110 105 103 100 98 97 99 101 102 103 103 101 100 104 110 109 104 104 104 104 103 
250 250 250 250 252 252 252 251 251 251 251 250 251 251 251 251 250 250 250 251 248 248 248 247 246 246 246 246 246 246 244 242 241 242 243 244 247 246 246 246 247 246 245 243 246 237 131 117 125 123 129 120 127 123 119 115 113 112 110 108 112 110 108 108 109 111 111 111 108 108 108 108 108 108 107 107 107 104 102 101 102 103 102 101 93 98 103 105 104 101 98 97 97 100 99 97 98 103 105 104 104 103 102 102 101 100 100 100 99 99 97 95 100 105 104 99 102 102 102 100 
251 251 251 251 252 252 252 252 252 251 251 250 251 251 251 251 251 250 250 250 250 251 252 252 249 247 245 245 249 247 246 245 244 244 245 246 247 246 246 246 247 247 246 244 245 236 131 117 124 122 127 119 129 124 118 114 111 111 110 109 111 108 106 105 108 111 112 112 110 109 107 105 102 100 99 98 104 101 98 97 98 100 100 99 100 100 99 97 95 96 99 102 94 98 98 96 97 100 101 98 101 102 103 104 103 102 100 98 99 101 99 97 99 104 104 100 100 101 101 100 
250 250 250 250 251 251 251 251 251 251 251 251 251 250 250 251 251 251 251 250 242 247 251 252 250 246 244 244 250 249 249 247 247 246 246 246 247 246 245 247 249 249 247 246 245 237 133 118 123 119 126 119 122 119 114 112 111 110 110 108 106 105 103 104 106 107 106 105 104 103 101 99 97 96 95 94 102 100 96 95 97 98 98 97 103 102 100 96 94 95 99 102 97 99 98 95 95 99 99 97 100 100 101 102 100 100 98 98 100 104 104 101 99 103 104 103 100 101 102 101 
250 250 250 250 251 251 251 251 251 251 251 251 250 250 250 250 251 251 251 251 228 236 244 249 248 247 246 246 249 249 248 248 247 246 245 244 246 245 245 247 249 249 248 247 245 238 135 119 122 117 124 119 113 112 109 110 110 109 107 105 102 102 102 103 104 103 100 97 101 100 100 100 101 102 103 103 103 100 97 96 97 99 99 99 100 102 103 103 100 98 97 97 100 101 99 94 93 98 100 98 99 99 99 99 98 98 98 98 96 102 103 98 95 97 100 100 101 102 104 103 
247 247 250 252 248 247 248 251 252 252 252 252 249 228 206 207 223 236 233 223 230 238 229 224 239 252 252 246 249 249 249 249 249 248 248 248 245 245 246 248 248 248 248 248 243 244 121 115 127 110 122 111 111 111 110 111 112 111 109 106 101 103 105 106 107 107 106 105 106 102 100 102 105 104 98 91 104 105 105 102 98 95 94 94 98 98 99 99 99 98 97 96 96 96 96 98 99 98 94 91 97 98 97 98 98 97 98 96 99 96 98 102 103 100 100 103 98 100 106 109 
252 252 252 251 252 252 252 252 250 242 234 230 220 225 230 231 229 228 229 232 217 240 247 235 238 252 252 244 250 249 249 249 249 248 248 248 245 246 247 248 248 248 248 248 245 246 126 116 126 112 122 111 119 115 109 107 105 104 102 100 106 107 108 109 109 109 108 107 105 102 101 102 104 103 99 95 93 95 96 95 94 94 97 99 94 95 97 99 100 101 101 101 98 97 97 98 99 99 96 93 97 97 97 98 98 97 97 96 96 95 96 101 101 99 99 102 103 103 105 106 
252 252 248 244 244 243 240 235 233 236 244 250 247 243 237 234 235 241 247 250 221 213 232 252 248 232 241 252 251 251 250 249 249 248 247 247 246 246 247 248 248 248 248 247 247 246 132 116 125 112 119 113 115 111 105 102 102 105 108 109 108 108 109 109 108 108 107 106 103 103 102 102 102 101 100 100 92 94 95 96 96 98 101 104 92 93 95 97 99 100 101 101 100 98 97 97 99 99 97 95 95 96 98 98 98 98 97 95 95 94 95 100 101 98 98 101 106 105 104 104 
242 240 239 237 244 244 238 226 218 221 229 235 246 248 252 253 252 236 211 192 186 171 203 252 252 236 238 252 252 251 250 249 249 248 247 247 247 247 248 249 249 248 248 247 248 246 137 113 119 111 116 111 112 109 105 104 105 109 112 113 105 105 105 104 103 102 101 101 102 103 103 102 100 100 101 103 97 99 101 101 99 97 97 97 94 94 95 96 96 96 96 96 100 98 96 95 97 97 97 96 95 95 97 97 97 97 96 96 96 95 96 100 101 98 98 101 104 102 103 104 
229 226 225 224 217 232 244 247 247 250 251 249 238 233 220 198 174 155 148 148 110 137 173 203 233 252 252 238 252 252 252 251 250 249 248 248 248 248 249 249 249 248 248 247 247 244 139 109 112 108 108 109 114 112 108 106 105 105 103 101 104 103 102 101 99 99 98 98 101 102 102 101 99 99 100 102 95 99 102 103 99 93 88 86 95 96 96 97 97 97 96 96 98 96 94 94 95 96 94 93 94 94 96 96 96 96 94 95 97 96 97 102 102 100 100 102 98 98 101 106 
251 247 241 236 251 252 251 234 216 203 191 180 162 162 161 157 147 127 104 89 93 125 135 140 179 227 249 252 250 251 251 251 250 250 250 250 249 249 249 250 249 248 248 247 246 243 143 107 106 106 102 107 104 103 103 103 104 103 99 97 104 103 102 100 99 99 99 99 101 100 100 100 99 99 98 98 91 96 101 103 101 96 92 89 95 96 98 99 100 101 101 101 96 95 93 94 95 95 93 91 93 93 95 96 96 95 93 94 98 97 98 102 103 100 100 103 96 95 99 106 
249 248 238 227 196 195 180 158 146 146 144 137 144 128 113 113 125 133 131 123 138 172 160 135 148 167 200 252 249 250 250 251 251 251 252 252 249 250 250 250 249 249 248 247 246 243 147 105 102 105 99 106 96 97 98 100 103 104 102 101 103 102 101 99 99 99 100 100 101 99 97 98 100 99 95 91 89 93 97 99 99 98 97 97 96 96 97 98 99 98 97 97 96 95 95 96 97 96 93 90 93 94 95 95 94 94 93 93 97 96 97 101 102 99 99 102 100 97 98 104 
180 182 170 157 151 154 147 134 131 136 134 126 126 130 134 135 134 138 147 155 166 249 242 172 151 152 164 203 249 249 249 251 250 252 252 252 249 250 249 250 249 249 247 247 247 243 151 105 101 105 98 106 105 104 102 102 102 101 98 95 101 100 99 97 97 98 99 99 101 98 96 98 101 100 93 86 85 87 89 90 90 92 95 97 97 97 96 95 94 92 89 88 96 96 96 97 98 97 93 90 92 93 93 94 95 94 94 93 97 94 96 100 101 98 98 101 104 100 98 101 
107 133 144 136 125 124 123 124 128 133 137 140 133 155 161 158 193 231 238 249 244 239 243 249 234 196 162 148 169 203 238 251 247 243 240 241 251 250 249 249 249 250 248 245 245 236 169 100 108 104 108 105 102 104 106 105 103 101 98 97 98 97 95 93 93 93 95 95 97 97 97 96 95 94 93 92 95 95 93 90 92 95 94 89 87 88 90 92 93 93 92 92 98 97 93 94 95 98 97 97 94 95 96 97 97 96 96 95 90 93 96 98 102 104 100 93 101 101 101 101 
108 114 117 117 121 127 133 133 129 127 130 135 205 230 248 243 244 247 242 245 236 246 244 236 240 238 198 146 163 159 186 233 251 240 238 252 248 250 250 249 248 247 248 249 249 238 174 99 107 103 104 100 103 104 104 103 102 99 97 95 97 97 97 97 97 96 94 94 96 97 97 97 96 96 95 95 89 95 99 95 93 93 93 90 87 88 90 93 95 96 97 97 97 96 93 94 96 97 97 96 94 95 95 96 97 97 95 95 92 95 97 97 100 104 100 94 105 102 99 100 
