P2
#CREATOR : MyProgram
120 100
255
251 251 252 252 252 252 253 253 246 239 251 251 251 252 252 252 252 252 253 253 253 204 197 234 238 243 247 251 154 119 84 95 105 104 103 101 100 100 100 100 100 100 100 100 100 100 99 99 99 99 99 99 99 99 99 99 99 99 99 99 99 99 99 99 99 98 98 98 98 98 98 98 98 98 98 98 98 98 98 98 98 98 98 97 97 97 97 97 97 97 97 97 97 97 97 97 97 97 97 97 97 97 97 97 97 97 98 98 98 98 98 98 98 98 98 98 98 98 98 98 
250 250 250 250 250 251 251 252 253 246 251 251 253 249 245 241 237 233 209 190 139 127 142 200 239 236 234 252 251 167 96 104 112 110 108 106 104 99 104 99 99 99 98 98 98 98 98 98 98 98 98 98 98 98 98 98 98 98 98 98 98 97 97 97 97 97 97 97 97 97 97 97 97 97 97 97 97 97 97 97 97 97 97 97 97 97 97 97 97 97 97 97 97 97 97 97 97 97 97 98 98 98 98 98 98 98 98 98 98 98 98 98 98 98 98 98 98 98 99 99 
248 251 248 248 249 249 250 251 253 253 252 250 253 233 213 189 166 142 128 113 103 122 121 137 190 243 253 252 251 250 174 100 87 115 113 111 109 107 98 95 107 97 97 97 97 97 97 97 97 97 97 97 97 97 97 97 97 96 96 96 96 96 97 97 97 97 97 97 97 97 97 97 97 97 97 97 97 98 98 98 98 98 98 98 98 98 98 98 98 97 97 97 97 98 98 98 98 98 98 98 98 98 98 98 98 98 98 98 98 98 98 98 98 98 98 98 98 99 98 100 
247 252 249 247 247 247 249 250 252 230 203 176 166 151 136 128 121 113 116 119 119 117 116 114 134 186 237 253 252 252 252 172 92 90 117 115 113 111 109 98 86 99 111 96 96 96 96 96 96 96 96 97 97 97 97 97 97 97 97 97 97 97 97 97 97 97 98 98 98 98 98 98 98 98 98 98 98 98 98 98 98 98 98 98 98 98 98 98 98 98 98 98 98 98 98 98 98 98 98 98 98 98 98 98 98 98 98 98 98 98 98 98 98 99 99 99 100 99 97 101 
245 253 250 248 245 228 211 194 149 146 142 137 122 124 125 145 143 141 149 156 185 130 128 128 139 128 167 210 253 252 251 253 205 108 74 103 117 115 95 91 102 86 98 102 98 97 97 97 97 97 97 97 97 97 97 98 98 98 98 98 98 98 98 98 98 98 98 98 98 98 99 99 99 99 99 99 99 98 98 98 98 98 98 98 98 98 98 98 98 98 98 98 98 98 98 98 98 98 98 98 98 98 98 98 98 98 98 99 99 99 99 99 99 99 99 100 100 98 98 102 
244 213 185 159 152 144 136 139 142 142 132 123 129 136 142 156 177 197 224 251 250 195 140 142 143 135 126 153 197 251 249 251 253 213 127 78 98 119 104 91 117 101 85 108 104 100 98 98 98 98 98 98 98 98 98 98 98 98 98 99 99 99 99 99 99 99 99 99 99 99 99 99 99 99 99 99 99 98 98 98 98 98 98 98 98 98 98 98 98 98 98 98 98 98 99 99 99 99 99 99 99 99 99 99 99 99 99 99 99 99 99 99 99 99 101 101 99 96 99 103 
153 148 143 140 129 130 131 133 135 137 146 154 146 174 210 246 250 253 245 237 253 238 187 139 129 137 144 123 141 195 248 246 253 253 228 128 81 98 112 103 95 98 101 102 106 106 102 99 99 99 99 99 99 99 99 99 99 99 99 99 99 99 99 100 100 100 100 99 99 99 99 99 99 99 99 99 99 99 99 99 99 99 98 98 98 98 98 98 98 98 98 98 98 99 99 99 99 99 99 99 99 99 99 99 99 99 99 99 99 99 99 99 100 102 102 100 97 97 100 104 
135 130 124 120 133 131 129 127 146 164 201 225 249 248 248 247 248 252 253 253 253 253 234 200 167 136 144 130 136 143 184 236 253 246 253 249 160 77 82 115 100 107 117 95 100 103 104 105 101 99 99 100 100 100 100 100 100 100 100 100 100 100 100 100 100 100 100 99 99 99 99 99 99 99 99 99 99 99 99 99 99 99 99 99 99 99 99 99 98 98 98 98 99 99 99 99 99 99 99 99 99 99 99 99 99 99 99 99 99 99 99 100 102 103 101 98 96 98 101 105 
117 143 145 147 137 171 197 214 230 247 248 248 249 249 249 248 247 251 253 253 253 252 251 238 204 173 143 137 131 150 144 165 223 238 253 253 239 133 86 108 106 108 105 98 97 98 101 101 102 103 100 100 100 100 100 101 101 100 100 100 100 100 100 100 100 100 100 99 99 99 99 99 99 99 99 99 99 99 99 99 99 99 99 99 99 99 99 99 99 99 99 99 99 99 99 99 100 100 100 100 100 100 99 99 99 99 99 100 100 100 101 103 104 102 99 97 95 99 102 106 
162 184 206 228 250 250 249 249 249 248 248 248 249 249 250 249 248 250 253 253 253 251 249 248 242 209 177 143 136 143 139 139 164 231 252 223 253 249 154 77 93 109 93 101 103 98 97 98 99 100 100 101 101 101 101 101 101 100 100 100 100 100 100 100 100 100 100 100 100 99 99 99 99 99 99 99 99 99 99 99 99 99 99 99 99 99 99 99 99 99 99 99 99 99 100 100 100 100 100 100 100 100 100 100 100 100 100 100 100 101 103 105 103 101 90 87 132 124 116 107 
244 248 251 251 251 251 250 250 250 249 249 249 248 249 250 250 249 248 252 253 253 250 247 246 246 246 216 187 147 135 135 134 134 163 207 250 223 253 251 177 102 85 100 104 109 104 100 95 101 107 102 100 101 101 101 101 101 100 100 100 100 100 100 100 100 100 100 100 100 100 100 100 100 100 100 99 99 99 99 99 99 99 99 99 99 99 99 99 99 99 99 99 99 100 100 100 100 100 100 100 100 100 100 100 100 100 100 100 102 104 106 95 84 118 194 237 244 250 218 92 
252 252 252 252 251 251 251 251 251 250 250 250 249 249 249 250 250 249 251 253 253 249 244 244 244 241 235 230 163 164 159 155 150 151 157 225 249 241 252 252 209 114 74 95 115 114 113 112 108 103 99 99 101 101 101 101 101 100 100 100 100 100 100 100 100 100 100 100 100 100 100 100 100 100 100 100 100 100 100 100 100 99 99 99 99 99 99 99 99 99 99 99 100 100 100 100 100 101 101 101 101 101 101 100 100 100 100 101 103 105 105 101 97 156 239 233 233 246 228 139 
252 252 252 252 252 252 252 252 251 251 251 251 250 250 250 250 250 250 250 252 252 248 242 242 241 236 233 238 232 167 156 144 131 139 146 151 232 229 252 253 253 226 158 89 93 94 96 97 100 100 95 98 101 101 101 101 101 100 100 100 100 100 100 100 100 100 100 100 100 100 100 100 100 100 100 100 100 100 100 100 100 100 100 100 100 100 100 99 99 99 99 100 100 100 100 100 101 101 101 101 101 101 101 101 101 101 101 101 98 106 104 98 89 145 253 238 222 241 237 186 
252 252 252 252 252 252 252 252 252 252 252 252 251 251 251 250 250 251 251 252 252 247 240 240 236 236 241 246 251 232 190 148 151 138 134 141 148 217 253 246 238 253 241 184 94 88 89 101 98 95 92 97 101 101 101 101 101 101 101 101 101 101 100 100 100 100 100 100 100 100 100 100 100 100 100 100 100 100 100 100 100 100 100 100 100 100 100 100 100 100 100 100 100 100 100 101 101 101 101 101 101 101 101 101 101 101 102 102 88 107 98 90 81 134 253 226 248 235 217 189 
252 252 252 252 252 252 252 252 252 252 252 252 252 252 252 252 251 251 251 251 252 246 238 236 238 244 246 248 251 252 225 198 172 150 141 132 128 155 196 239 252 237 242 247 217 114 83 105 103 102 116 87 101 101 101 101 101 101 101 101 101 101 101 101 101 101 101 101 100 100 100 100 100 100 100 100 100 100 100 100 100 100 100 100 100 100 100 100 100 100 100 100 100 101 101 101 101 101 101 102 102 102 102 102 102 102 102 102 95 91 91 111 91 130 252 238 224 228 234 192 
252 252 252 252 252 252 252 252 252 252 252 252 252 252 252 252 252 252 252 252 252 245 236 238 241 243 245 248 250 233 241 248 192 161 148 134 143 128 138 186 233 238 243 248 253 240 139 75 111 111 84 111 101 101 101 101 101 101 101 101 101 101 101 101 101 101 101 101 101 101 101 101 101 101 100 100 100 100 100 100 100 100 100 100 100 100 100 100 100 100 100 100 101 101 101 101 101 102 102 102 102 102 102 102 102 101 99 102 101 95 94 91 91 126 236 231 227 222 252 217 
252 252 252 252 252 252 252 252 252 252 252 252 252 252 252 252 252 252 252 252 252 246 239 238 240 243 245 247 250 252 243 234 252 218 161 150 130 149 139 145 159 181 204 226 249 251 254 204 90 77 121 111 101 101 101 101 101 101 101 101 101 101 101 101 101 101 101 101 101 101 101 101 101 101 101 101 101 101 101 101 100 100 100 100 100 100 100 100 100 100 100 101 101 101 101 101 102 102 102 102 102 102 102 102 101 99 96 102 105 99 97 94 91 136 220 223 226 230 238 213 
252 252 252 252 252 252 252 252 252 252 252 252 252 252 252 252 252 252 252 252 252 249 242 238 240 242 245 247 249 250 249 248 246 245 217 165 154 159 139 137 149 158 200 222 244 247 254 254 230 156 81 112 101 101 101 101 101 101 101 101 101 101 101 101 101 101 101 101 101 101 101 101 101 101 101 101 101 101 101 101 101 101 101 101 101 101 100 100 100 100 101 101 101 101 101 102 102 102 102 102 103 103 103 101 98 96 96 103 105 103 101 108 127 189 237 237 237 237 223 209 
251 252 252 252 252 252 252 252 252 252 252 252 252 252 252 252 252 252 252 252 251 250 246 239 240 242 244 247 249 249 248 246 245 244 243 243 178 168 144 129 139 148 158 199 240 250 253 254 254 182 87 112 102 102 102 102 102 102 102 102 102 101 101 101 101 101 101 101 101 101 101 101 101 101 101 101 101 101 101 101 101 101 101 101 101 101 101 101 101 101 101 101 101 101 102 102 102 102 102 103 103 103 101 98 96 93 98 103 105 107 107 108 197 182 219 233 226 219 228 236 
251 252 252 252 252 252 252 252 252 252 252 252 252 252 252 252 252 252 252 252 251 250 249 242 239 242 244 246 249 247 246 245 244 243 242 241 248 178 148 157 157 157 157 157 217 252 252 252 252 212 93 93 102 102 102 102 102 102 102 102 102 102 102 102 102 102 102 101 101 101 101 101 101 101 101 101 101 101 101 101 101 101 101 101 101 101 101 101 101 101 101 101 102 102 102 102 102 102 103 103 103 102 107 96 93 91 99 103 99 80 88 139 219 200 211 237 240 243 226 208 
251 252 252 252 252 252 252 252 252 252 252 252 252 252 252 252 252 252 252 252 251 250 248 245 239 241 244 246 247 246 244 243 242 241 240 240 244 252 203 153 148 148 148 135 161 198 233 251 251 233 93 98 102 102 102 102 102 102 102 102 102 102 102 102 102 102 102 102 102 102 102 102 102 101 101 101 101 101 101 101 101 101 101 101 101 101 101 101 101 101 101 102 102 102 102 102 103 103 103 103 102 102 102 110 99 88 101 90 110 130 161 205 241 219 213 220 209 232 245 227 
251 252 252 252 252 252 252 252 252 252 252 252 252 252 252 252 252 252 252 252 250 249 248 247 242 241 243 246 246 244 243 242 241 240 239 238 240 249 242 227 166 139 140 136 132 143 178 214 249 253 111 102 102 102 102 102 102 102 102 102 102 102 102 102 102 102 102 102 102 102 102 102 102 102 102 102 102 102 102 101 101 101 101 101 101 101 101 101 101 101 102 102 102 102 102 103 103 103 103 103 102 101 105 98 100 103 185 200 219 227 234 225 216 216 215 216 214 221 239 246 
251 251 252 252 252 252 252 252 252 252 252 252 252 252 252 252 252 252 252 251 250 249 248 247 245 241 243 245 244 243 242 241 240 239 238 237 236 246 247 240 240 196 145 137 135 141 143 162 197 247 128 87 93 99 102 102 102 102 102 102 102 102 102 102 102 102 102 102 102 102 102 102 102 102 102 102 102 102 102 102 102 102 102 102 102 101 101 101 101 102 102 102 102 102 103 103 103 103 103 102 101 100 107 107 112 117 232 253 236 230 224 222 219 240 222 221 219 226 233 203 
251 251 252 252 252 252 252 252 252 252 252 252 252 252 252 252 252 252 252 251 250 249 247 246 245 242 243 244 243 242 241 240 239 239 240 242 244 248 252 252 252 252 235 172 138 140 141 143 145 169 107 101 96 91 91 97 102 102 102 102 102 102 102 102 102 102 102 102 102 102 102 102 102 102 102 102 102 102 102 102 102 102 102 102 102 102 102 102 102 102 102 102 102 103 103 103 103 103 102 101 100 99 110 110 110 110 218 232 234 232 235 249 235 220 229 226 223 231 166 89 
251 251 252 252 252 252 252 252 252 252 252 252 252 252 252 252 252 252 252 251 249 248 247 246 245 244 242 242 241 240 241 243 245 247 248 250 252 243 233 237 241 244 248 252 173 119 130 141 116 90 85 114 109 105 100 95 91 94 101 102 102 102 102 102 102 102 102 102 102 102 102 102 102 102 102 102 102 102 102 102 102 102 102 102 102 102 102 102 102 102 102 103 103 103 103 103 103 102 101 100 100 99 104 103 103 102 236 245 239 233 218 202 170 138 209 235 228 248 216 184 
251 251 252 252 252 252 252 252 252 252 252 252 252 252 252 252 252 252 252 250 249 248 247 246 244 243 242 242 242 242 242 242 242 242 242 242 242 242 243 244 245 246 248 249 245 170 99 102 105 108 111 100 104 108 113 109 104 100 95 92 98 103 103 103 103 103 103 103 103 103 103 103 102 102 102 102 102 102 102 102 102 102 102 102 102 102 102 102 102 102 103 103 103 103 103 103 102 101 100 100 99 98 100 101 103 104 217 207 179 150 122 93 103 112 216 238 229 231 235 225 
251 251 252 252 252 252 252 252 252 252 252 252 252 252 252 252 252 252 251 250 249 248 246 245 244 243 242 242 242 242 242 242 242 242 242 242 242 242 243 242 242 243 244 245 247 237 99 102 105 104 100 101 100 100 100 103 107 111 108 104 99 94 96 102 103 103 103 103 103 103 103 103 103 103 103 103 103 103 102 102 102 102 102 102 102 102 102 102 102 103 103 103 103 103 103 102 101 101 100 99 99 99 100 102 104 106 108 105 102 99 106 113 195 197 219 240 229 231 233 172 
251 251 251 252 252 252 252 252 252 252 252 252 252 252 252 252 252 252 251 250 249 247 246 245 244 243 243 242 242 242 242 242 242 242 242 242 242 242 242 244 243 242 242 242 243 239 100 103 100 100 101 101 101 100 100 101 101 101 102 106 110 108 103 99 94 99 103 103 103 103 103 103 103 103 103 103 103 103 103 103 103 103 103 103 102 102 102 102 103 103 103 103 103 103 102 102 101 100 99 99 99 99 99 101 103 105 107 104 101 98 100 94 126 143 221 243 230 232 224 148 
251 251 251 252 252 252 252 252 252 252 252 252 252 252 252 252 252 252 251 249 248 247 246 245 243 243 243 243 242 242 242 242 242 242 242 242 242 242 242 244 245 244 243 243 242 241 100 100 100 101 102 102 102 101 101 101 101 101 101 101 101 101 105 109 107 103 98 97 103 103 103 103 103 103 103 103 103 103 103 103 103 103 103 103 103 103 103 103 103 103 103 103 103 102 102 101 100 100 100 100 100 100 100 101 103 105 107 103 100 97 102 101 95 88 202 245 230 243 228 173 
251 251 251 252 252 252 252 252 252 252 252 252 252 252 252 252 252 251 250 249 248 247 246 244 244 244 243 243 243 242 242 242 242 242 242 242 242 242 242 243 245 246 245 244 244 241 100 101 101 102 103 103 102 102 101 101 101 101 101 101 101 101 101 101 102 103 108 107 102 98 100 103 103 103 103 103 103 103 103 103 103 103 103 103 103 103 103 103 103 103 104 103 103 102 101 100 100 100 100 100 100 100 101 101 102 104 106 103 99 96 101 106 102 91 210 224 237 240 233 197 
251 251 251 252 252 252 253 253 253 253 252 252 252 252 252 252 252 251 250 249 248 246 245 244 244 244 243 243 243 243 242 242 242 242 242 242 242 242 242 242 244 247 247 246 245 241 101 101 101 103 103 103 103 103 102 102 101 101 101 101 101 101 101 102 102 102 102 102 102 106 106 102 98 103 103 103 103 103 103 103 103 103 103 103 103 103 103 103 103 104 103 103 102 101 101 101 101 101 101 101 101 101 101 101 102 104 106 103 99 96 100 105 110 93 218 231 244 237 229 222 
250 251 251 251 252 252 253 253 253 253 253 253 253 253 252 252 252 251 250 248 247 246 245 245 245 244 244 243 243 243 243 243 242 242 242 242 242 242 242 242 243 246 248 248 247 241 101 101 103 104 104 104 103 103 103 103 102 101 101 101 101 102 102 102 102 102 102 102 102 102 102 102 105 106 101 102 103 103 103 103 103 103 103 103 103 103 103 103 104 104 103 102 102 102 102 102 102 102 102 102 102 102 102 102 102 103 105 104 98 95 100 104 101 85 206 238 241 234 224 218 
250 251 251 251 252 252 252 253 253 253 253 253 253 253 253 253 252 251 249 248 247 246 245 245 245 244 244 244 244 243 243 243 243 242 242 242 242 242 242 242 242 245 247 250 249 241 102 102 104 105 105 104 104 104 104 103 103 102 101 101 102 102 102 102 102 102 102 102 102 102 102 102 103 103 103 104 105 101 104 104 104 104 104 103 103 103 103 104 104 103 102 102 102 102 102 102 102 102 102 102 102 102 102 102 102 103 105 104 98 94 99 109 98 92 193 245 236 226 217 213 
250 251 251 251 252 252 252 253 253 253 253 253 253 253 253 253 251 250 249 248 247 246 246 246 245 245 244 244 244 244 243 243 243 243 242 242 242 242 242 242 242 243 246 248 251 241 102 103 105 106 105 105 105 104 104 104 104 103 102 102 102 102 102 102 102 102 102 102 102 102 103 103 103 103 103 103 103 103 103 105 103 104 104 104 104 104 104 104 103 103 103 103 103 103 103 103 103 103 103 103 103 103 103 103 103 103 104 104 99 93 117 111 105 99 181 248 242 225 209 231 
250 251 251 251 252 252 252 253 253 253 253 253 253 253 253 252 251 250 249 248 246 246 246 246 245 245 245 244 244 244 244 243 243 243 243 242 242 242 242 242 242 242 245 247 248 239 100 104 106 106 106 106 105 105 105 104 104 104 103 102 102 102 102 102 102 102 102 102 102 103 103 103 103 103 103 103 103 103 103 103 103 104 104 104 104 104 104 103 103 103 103 103 103 103 103 103 103 103 103 103 104 104 104 104 104 104 104 104 99 113 107 101 95 103 177 251 245 238 232 227 
250 250 251 251 252 252 252 253 253 253 253 253 253 253 253 252 251 250 248 247 247 247 247 246 246 245 245 245 244 244 244 244 243 243 243 243 243 242 242 242 242 242 244 246 245 237 98 106 107 107 107 106 106 106 105 105 105 105 104 103 102 102 102 102 102 102 102 102 103 103 103 103 103 103 103 103 103 103 103 103 104 104 104 104 104 104 104 104 104 104 104 104 104 104 104 104 104 104 104 104 104 104 104 104 104 104 104 105 109 103 100 99 98 106 170 242 210 224 228 223 
250 250 251 251 251 252 252 252 253 253 253 253 253 253 253 252 250 249 248 247 247 247 247 247 246 245 245 245 245 244 244 244 244 243 243 243 243 243 242 242 242 242 243 245 243 234 97 107 108 108 107 107 107 106 106 106 105 105 105 104 103 102 102 102 102 102 103 103 103 103 103 103 103 103 103 103 103 103 104 104 104 104 104 104 104 104 104 105 105 105 105 105 105 105 105 105 105 105 105 105 105 105 105 105 105 105 105 105 104 103 102 101 100 104 154 233 215 210 224 218 
250 250 251 251 251 252 252 252 253 253 253 253 253 253 253 251 250 249 248 248 248 248 248 247 246 246 245 245 245 245 244 244 244 244 244 243 243 243 243 242 242 242 242 244 240 232 95 108 108 108 108 108 107 107 107 106 106 106 105 105 104 103 102 102 102 103 103 103 103 103 103 103 103 103 103 103 103 104 104 104 104 104 104 104 104 105 105 104 105 105 105 105 105 105 105 105 105 105 105 105 105 105 105 105 106 106 105 104 106 106 105 104 103 102 151 246 221 215 210 214 
250 250 251 251 251 252 252 252 253 253 253 253 253 253 252 251 250 249 248 248 248 248 248 247 246 246 246 245 245 245 245 245 244 244 244 244 243 243 243 243 242 242 242 243 237 226 93 109 109 109 108 108 108 108 107 107 107 106 106 106 105 104 103 103 103 103 103 103 103 103 103 103 103 103 103 104 104 104 104 104 104 104 104 104 105 105 105 105 105 105 106 106 106 106 106 106 106 106 106 106 106 106 106 106 106 105 101 104 108 107 107 106 105 100 148 221 226 221 215 210 
250 250 251 251 251 252 252 252 253 253 253 253 253 253 252 251 250 249 249 249 249 249 248 247 247 246 246 246 246 245 245 245 245 244 244 244 244 243 243 243 243 242 242 242 250 220 91 110 110 109 109 109 109 108 108 108 107 107 107 106 106 106 105 104 103 103 103 103 103 103 103 103 103 103 104 104 104 104 104 104 104 104 104 105 105 106 106 106 105 105 105 106 107 107 107 107 107 107 107 107 107 107 107 107 105 101 97 103 109 109 109 108 108 91 107 129 94 113 131 130 
250 250 250 251 251 251 252 252 253 253 253 253 253 253 252 250 249 249 249 249 249 249 248 248 247 247 246 246 246 246 245 245 245 245 244 244 244 244 243 243 243 243 243 245 251 217 89 110 109 110 110 109 109 109 109 108 108 108 107 107 107 106 106 105 104 103 103 103 103 103 103 103 103 104 104 104 104 104 104 104 104 104 104 105 106 106 106 107 106 106 105 106 106 107 107 107 107 107 107 107 107 107 107 105 101 97 93 102 111 105 99 93 95 85 66 66 88 108 129 130 
250 250 250 251 251 251 252 252 252 253 253 253 253 252 251 250 250 250 250 250 250 249 249 248 247 247 247 246 246 246 246 245 245 245 245 244 244 244 244 244 244 244 246 249 251 214 92 111 109 108 109 110 110 109 109 109 109 108 108 108 107 107 107 106 105 104 103 103 103 103 103 104 104 104 104 104 104 104 104 104 104 104 105 105 106 106 107 107 107 106 106 105 106 106 107 107 108 108 108 108 108 108 105 101 97 93 89 102 91 85 79 73 82 82 76 79 81 91 101 129 
250 250 250 251 251 251 252 252 252 253 253 253 253 252 251 250 250 250 250 250 250 250 249 248 247 247 247 247 246 246 246 246 245 245 245 245 245 245 245 245 245 247 250 251 251 192 94 111 110 108 107 107 110 110 110 110 109 109 109 108 108 108 107 107 106 105 104 103 103 103 104 104 104 104 104 104 104 104 104 104 104 105 105 106 106 107 107 107 107 107 106 106 106 106 107 107 108 108 108 108 108 105 101 97 93 89 85 101 71 77 84 85 82 79 85 91 104 109 113 129 
250 250 250 251 251 251 252 252 252 253 253 253 253 252 251 251 251 251 251 251 251 250 249 248 248 247 247 247 247 246 246 246 246 246 246 246 246 246 246 246 248 250 251 250 250 184 94 111 110 109 108 106 105 108 110 110 110 110 109 109 109 108 108 108 107 106 105 104 103 104 104 104 104 104 104 104 104 104 104 104 105 105 106 106 107 107 107 108 108 108 107 107 106 106 106 107 107 108 108 109 105 101 97 93 89 85 81 80 78 94 142 139 152 165 177 185 185 184 184 189 
249 250 250 250 251 251 252 252 252 253 253 253 253 252 251 251 251 251 251 251 251 250 249 248 248 248 247 247 247 247 246 246 246 246 246 246 247 247 247 249 251 251 250 250 250 175 94 111 110 109 108 107 106 104 106 110 110 110 110 110 109 109 109 108 108 107 106 105 104 104 104 104 104 104 104 104 104 104 104 105 105 105 106 107 107 108 108 108 108 108 108 107 107 106 106 101 97 92 89 86 89 103 117 132 146 160 174 185 195 198 195 192 189 185 181 183 182 178 178 183 
249 250 250 250 251 251 251 252 252 252 253 253 252 252 252 252 252 252 252 252 251 250 249 249 248 248 248 247 247 247 247 247 247 247 247 247 247 247 250 251 251 250 250 249 249 171 94 112 110 109 108 107 106 105 104 103 107 111 111 110 110 110 109 109 109 108 107 106 105 104 104 104 104 104 104 104 104 104 105 105 105 106 106 107 108 108 108 108 109 109 107 106 104 103 90 95 99 144 153 162 185 183 182 180 179 177 176 171 166 165 176 179 178 177 178 180 172 169 172 177 
249 250 250 250 251 251 251 252 252 252 253 253 252 252 252 252 252 252 252 252 251 250 250 249 248 248 248 248 248 248 248 248 248 248 248 248 248 251 251 251 250 250 249 249 249 171 93 112 111 110 108 107 106 105 104 103 101 105 109 111 111 110 110 110 109 109 108 107 106 105 104 104 104 104 104 104 105 105 105 105 106 106 107 107 108 108 108 107 107 93 117 108 99 139 155 170 186 181 176 172 177 177 177 177 177 177 177 179 180 175 169 168 167 166 164 166 161 164 167 171 
249 250 250 250 251 251 251 252 252 252 253 253 252 251 250 248 247 246 238 229 192 211 230 249 249 249 249 249 249 249 249 249 249 249 249 249 252 251 251 250 250 249 249 248 248 171 93 112 111 110 109 108 106 105 104 103 102 101 102 106 111 111 111 110 110 110 109 108 107 106 105 105 104 104 104 105 105 105 105 106 106 107 107 109 99 100 102 103 105 120 135 162 188 184 180 178 176 175 176 181 170 170 170 170 171 172 172 168 163 159 158 157 156 154 153 152 155 158 161 164 
249 249 250 250 251 251 251 252 251 251 247 243 252 238 224 210 197 178 162 146 122 131 166 202 246 248 250 250 250 250 250 250 250 250 250 252 251 251 250 250 249 248 248 247 249 187 93 112 111 110 109 108 107 105 104 103 102 101 100 100 104 108 111 111 111 110 110 109 109 108 107 106 105 104 105 105 105 105 105 106 107 100 109 106 89 108 126 143 149 171 193 205 175 171 170 168 167 165 164 162 163 164 165 166 167 168 168 163 159 158 159 161 162 163 165 166 159 152 155 158 
249 249 250 250 250 249 249 248 231 213 196 193 169 162 154 147 140 133 125 116 110 128 135 154 194 242 244 247 249 251 251 251 251 251 252 251 251 250 249 248 247 246 246 248 250 182 92 113 112 110 109 108 107 106 105 103 102 101 100 99 98 101 105 110 111 111 111 110 110 109 108 107 106 105 105 105 105 105 106 98 101 110 107 104 135 166 181 196 193 178 172 165 165 165 164 164 164 163 161 160 159 160 161 163 164 165 163 159 154 157 158 159 161 162 164 163 162 161 156 152 
249 249 248 248 227 206 186 167 158 148 146 143 139 137 135 133 125 118 112 130 148 125 135 139 142 172 223 241 244 246 248 250 252 251 250 249 249 248 247 246 245 245 247 249 250 177 91 113 112 111 110 108 107 106 105 104 103 101 100 99 98 97 99 103 107 111 111 111 111 110 109 108 107 106 105 105 105 101 92 101 110 139 167 188 188 188 180 171 163 165 166 167 166 166 166 164 163 161 159 157 156 157 158 159 160 161 158 154 153 156 157 158 160 161 161 159 157 158 160 156 
220 198 177 155 143 144 146 147 140 132 128 123 138 131 125 118 125 131 148 190 186 136 136 139 135 133 169 204 239 241 243 240 231 249 248 247 246 246 245 244 244 246 248 250 251 172 92 108 111 109 109 108 107 106 105 104 103 102 101 99 98 97 96 96 100 104 109 112 111 111 110 109 108 107 106 105 84 110 135 161 178 184 190 192 170 173 176 179 171 167 168 168 167 165 164 162 160 158 157 155 153 153 154 155 156 157 154 149 152 155 156 157 159 159 158 156 154 152 154 159 
142 141 141 140 136 135 131 127 133 138 146 141 136 155 175 186 192 188 221 249 224 161 136 132 127 134 135 169 202 236 227 218 209 228 246 245 244 243 243 244 245 247 249 250 252 201 93 103 113 109 106 106 105 105 104 104 103 102 101 100 98 97 96 95 94 98 102 106 110 112 111 110 109 101 92 89 151 167 182 198 191 179 167 165 165 166 167 168 169 170 168 167 165 163 161 160 158 156 154 153 151 149 150 151 152 154 149 147 152 153 155 156 158 156 154 152 151 149 147 151 
133 137 131 125 128 131 131 130 137 144 152 159 213 231 242 253 249 245 241 247 253 208 163 149 142 135 139 137 177 207 234 244 231 224 225 243 242 241 243 244 246 248 251 251 249 214 97 98 108 111 107 103 103 102 102 101 101 100 100 99 99 98 96 95 94 93 95 99 104 108 112 98 83 118 154 189 191 158 174 175 163 162 161 159 159 160 161 162 163 165 165 164 162 161 159 157 156 154 152 150 149 147 147 148 149 149 144 146 151 152 154 155 154 153 151 149 147 146 144 142 
123 128 132 137 152 167 190 212 229 246 250 253 253 253 243 248 252 248 244 246 252 242 232 192 175 159 142 139 157 177 196 232 236 239 239 240 240 242 245 247 249 251 250 248 245 226 101 94 103 114 109 105 101 99 99 98 98 98 97 97 96 96 95 95 94 93 92 93 97 101 89 123 157 178 185 180 175 170 165 166 167 159 154 153 154 155 156 157 157 160 161 160 159 158 157 155 153 151 150 148 146 145 143 144 145 144 141 146 150 151 153 153 151 149 147 146 144 142 141 141 
152 170 197 223 250 251 251 252 251 250 249 239 236 232 238 243 249 250 246 233 251 252 252 235 218 201 184 162 138 148 158 178 198 220 241 226 210 221 231 242 252 249 247 244 242 239 104 108 99 109 112 107 103 99 96 96 95 95 94 94 94 93 93 92 92 91 91 90 90 126 162 187 187 181 175 170 165 163 161 159 171 163 155 147 148 149 150 151 152 155 156 155 154 153 152 151 150 149 147 146 144 142 140 140 141 140 141 145 149 150 151 149 148 146 144 142 141 140 138 139 
245 246 248 249 250 251 251 252 252 252 252 252 250 247 245 243 244 250 249 220 252 243 245 248 251 244 227 207 185 151 142 143 143 188 221 217 213 223 233 244 244 251 249 246 244 244 108 112 96 104 114 110 105 101 97 93 93 92 92 91 91 90 90 89 89 89 96 128 181 183 185 179 177 171 166 164 162 160 158 156 154 159 159 159 151 143 144 145 147 150 152 151 150 149 148 147 146 145 144 143 142 140 138 136 137 136 140 145 148 149 148 146 144 143 141 140 139 137 136 138 
245 247 248 249 250 251 251 252 252 252 252 250 251 252 252 252 251 251 251 229 252 235 238 241 244 246 249 252 231 172 154 151 149 174 200 225 250 225 235 241 237 245 251 248 246 248 112 116 109 101 109 112 108 104 99 95 91 89 89 88 88 88 87 87 101 131 165 199 174 173 171 168 166 164 162 160 158 156 154 152 150 148 152 157 152 148 143 139 142 145 148 147 146 145 144 143 142 141 140 139 138 137 136 134 134 135 140 144 147 146 144 143 141 140 139 137 136 135 135 137 
246 247 248 250 250 251 251 251 251 251 252 249 249 250 251 252 252 252 251 238 252 242 244 247 250 251 249 247 242 233 212 185 154 150 146 162 177 207 237 233 229 237 248 250 250 253 136 86 123 97 106 114 110 106 102 97 93 89 86 86 85 85 107 137 169 181 173 164 166 168 170 168 164 162 162 160 158 156 154 152 150 148 150 154 150 145 141 138 137 140 143 143 142 141 140 139 138 137 136 135 134 133 132 131 130 135 139 144 145 143 142 140 139 138 136 135 134 132 133 136 
246 247 249 250 250 251 251 251 251 251 251 247 248 248 249 250 251 251 252 252 252 248 251 251 248 246 244 242 239 233 240 248 214 183 152 140 156 165 191 217 243 240 237 252 246 253 224 97 88 129 113 96 106 115 110 104 99 94 88 83 113 142 172 170 168 166 166 172 174 174 170 167 163 159 157 157 157 156 154 152 150 148 147 152 147 143 140 137 135 135 138 139 138 137 136 135 134 133 132 131 130 129 129 130 129 134 138 143 142 140 139 138 137 135 134 133 131 130 132 134 
246 248 249 250 250 250 251 251 251 251 251 245 246 247 247 248 249 250 250 251 252 250 248 245 243 241 239 236 234 232 242 249 248 206 158 146 134 157 156 169 195 192 221 229 233 252 227 194 117 77 101 125 123 121 118 116 106 96 106 128 168 177 186 167 165 169 174 180 176 173 169 165 161 158 154 153 153 153 153 152 150 148 146 149 145 141 139 137 134 132 133 134 133 132 131 130 129 128 128 128 129 129 129 129 129 133 138 141 139 138 137 135 134 133 131 130 129 129 131 133 
247 248 249 250 250 250 250 251 251 251 250 243 244 245 246 246 247 248 249 249 251 250 248 246 244 242 240 238 235 233 247 250 248 247 217 185 150 149 147 147 146 175 204 223 220 252 231 253 238 142 93 105 102 99 96 93 100 130 156 173 191 177 171 165 169 172 174 174 173 171 167 164 160 156 152 149 149 149 149 149 148 148 146 147 143 140 138 136 134 131 129 130 129 128 127 127 127 128 128 128 129 129 128 128 128 133 137 139 137 136 134 133 132 130 129 128 126 127 130 132 
247 248 249 249 250 250 250 250 251 251 249 242 242 243 244 245 245 246 247 252 250 251 249 247 245 243 241 239 236 234 252 249 246 243 244 246 210 175 139 148 157 159 188 217 235 231 238 237 254 253 119 103 106 103 100 112 147 183 185 188 168 169 170 165 168 169 168 167 166 166 165 162 158 154 151 147 145 145 144 144 144 144 144 144 142 140 137 135 133 131 128 126 126 127 127 127 127 128 128 128 128 128 127 127 128 132 137 136 135 133 132 131 129 128 127 125 124 126 128 131 
247 249 249 249 249 250 250 250 250 250 247 240 241 241 242 243 244 244 248 251 249 251 249 247 245 243 241 239 237 235 243 252 245 238 241 244 246 236 201 159 168 142 159 176 206 209 244 243 231 248 144 100 104 107 143 179 194 184 173 187 175 176 161 164 163 162 161 161 160 159 159 158 157 153 149 145 142 140 140 140 140 140 140 139 136 134 132 130 127 125 124 126 126 126 127 127 127 127 128 128 128 127 127 126 127 132 136 134 133 131 130 128 127 125 124 123 123 125 127 129 
248 248 249 249 249 250 250 250 250 250 245 238 239 240 240 241 242 245 252 249 248 250 250 248 246 244 242 240 238 236 234 243 252 251 249 248 246 247 250 227 179 185 160 135 162 177 183 249 253 242 125 75 126 166 193 182 182 182 176 163 181 157 158 157 156 156 155 154 154 153 152 151 151 150 148 144 140 136 136 136 136 136 136 133 131 129 127 124 122 122 124 125 126 126 127 127 127 127 128 127 127 126 126 125 126 131 134 132 131 129 128 126 125 123 122 120 121 124 126 128 
248 248 249 249 249 249 250 250 250 250 243 236 237 238 239 239 241 248 251 248 247 249 250 248 246 244 242 240 238 236 236 245 251 252 252 252 252 252 253 253 253 219 185 152 148 144 149 153 214 248 106 152 197 184 170 170 170 170 170 170 153 152 152 151 150 149 149 148 147 146 146 145 144 143 143 142 139 135 132 132 132 132 130 128 126 124 121 119 121 122 124 125 126 126 126 127 127 127 127 126 126 125 125 124 126 130 131 130 128 127 125 124 122 121 119 118 120 122 125 127 
229 244 248 249 249 249 249 250 250 249 242 235 235 236 237 238 245 252 249 247 246 248 249 248 246 244 243 241 239 236 238 247 251 251 251 251 252 252 252 252 253 253 216 168 156 144 135 125 135 182 185 188 184 170 169 169 169 169 168 167 151 150 148 147 146 144 143 141 141 140 139 138 138 137 136 136 135 133 130 128 127 127 125 123 120 118 117 119 120 122 123 125 126 126 126 126 127 127 126 126 125 124 124 123 125 130 129 128 126 125 123 122 120 119 118 117 119 121 123 125 
237 234 240 247 249 249 249 249 250 247 240 233 234 234 235 241 248 251 248 246 245 247 248 249 247 245 243 241 239 233 240 250 250 251 251 251 251 251 252 252 252 252 253 227 186 144 145 145 152 179 178 181 171 167 168 168 168 166 163 164 150 148 147 145 144 142 141 139 138 137 135 134 132 131 130 129 128 128 127 124 123 122 120 117 115 115 117 118 120 122 123 125 126 126 126 126 126 126 125 125 124 124 123 122 125 128 127 125 124 122 121 120 118 117 117 116 118 120 122 124 
244 223 230 236 243 249 249 249 249 245 238 231 232 233 237 245 252 249 247 244 244 246 247 249 247 245 243 241 238 233 242 250 250 250 250 250 251 251 251 251 252 252 252 252 219 177 169 165 169 176 171 171 164 167 167 167 164 160 160 161 148 146 145 144 142 141 139 138 136 135 133 132 131 129 128 126 125 123 122 120 119 117 114 112 114 115 117 118 120 121 123 124 125 126 126 126 125 125 124 124 123 123 122 121 124 126 125 123 122 120 119 117 117 117 116 116 116 119 121 123 
252 245 242 240 237 239 246 249 249 244 237 229 230 233 241 248 251 248 246 243 243 245 246 248 247 246 244 242 235 235 246 249 249 249 250 250 250 250 251 251 251 251 252 252 252 211 202 194 186 173 165 161 164 165 165 162 156 157 157 158 146 145 143 142 140 139 138 136 135 133 132 130 129 127 126 125 123 122 120 119 118 120 120 118 117 117 116 118 119 121 122 124 125 126 126 125 125 124 123 123 122 122 121 121 123 124 123 121 120 118 117 117 116 116 115 115 115 117 119 122 
244 247 248 248 248 248 249 249 249 242 235 228 230 237 245 252 249 247 244 242 242 244 245 247 248 246 244 240 231 237 248 248 249 249 249 249 250 250 250 250 251 251 251 251 251 244 219 194 174 166 158 161 164 164 160 153 153 153 154 155 145 143 142 140 139 137 136 134 133 132 130 129 127 126 124 123 121 120 119 118 117 118 122 124 122 122 121 121 121 121 122 124 125 125 125 124 124 123 122 122 121 121 120 120 123 122 120 119 117 117 116 116 115 115 115 114 114 116 118 120 
237 250 250 250 250 250 249 249 248 249 238 226 233 241 248 251 248 246 243 241 241 243 244 246 247 246 244 237 230 241 248 248 248 248 249 249 249 249 250 250 250 250 250 250 251 245 201 176 162 160 161 162 163 157 151 149 150 150 151 152 143 141 140 139 137 136 134 133 131 130 128 127 125 124 123 122 121 119 118 117 116 116 120 123 127 127 127 126 126 126 126 125 125 124 124 123 123 122 122 121 120 120 119 119 121 120 118 117 116 116 115 115 115 114 114 113 113 115 117 119 
229 252 251 251 250 249 249 248 248 248 249 238 235 244 252 249 247 244 242 239 240 242 243 245 246 247 242 233 232 246 247 247 248 248 248 248 249 249 249 249 249 249 250 250 250 246 193 158 162 165 163 162 155 149 145 146 147 147 148 149 141 140 138 137 135 134 132 131 130 128 127 125 124 123 122 121 120 119 118 116 115 114 117 121 127 120 120 119 119 119 119 120 122 122 122 122 122 121 121 120 120 119 118 118 119 117 116 116 115 115 115 114 114 113 113 113 112 113 116 118 
167 180 218 245 249 248 248 247 247 248 248 249 236 242 248 251 248 245 241 238 240 241 243 244 246 247 239 230 236 246 247 247 247 247 247 248 248 248 248 248 249 249 249 249 249 246 184 156 169 164 158 153 147 142 142 143 144 144 145 146 139 138 137 135 134 132 131 129 128 126 125 124 123 122 121 120 119 118 117 116 115 114 115 119 126 116 113 113 112 114 116 117 119 119 119 119 119 119 119 119 119 118 117 117 117 116 116 115 115 114 114 113 113 113 112 112 111 112 114 117 
222 207 204 203 222 238 242 246 247 248 246 239 239 238 243 249 250 247 244 240 241 243 244 246 247 242 235 227 241 246 246 246 246 247 247 247 247 247 247 248 248 248 248 248 249 247 185 154 161 160 153 145 138 139 139 140 141 141 142 143 138 136 135 133 132 131 129 128 126 125 124 123 122 121 120 119 118 117 116 115 114 113 113 116 126 116 106 108 109 111 112 114 116 116 116 116 116 116 116 116 116 116 116 116 116 115 115 114 114 114 113 113 112 112 111 111 111 111 113 115 
246 235 223 228 227 227 226 248 249 243 243 242 242 241 241 245 251 250 246 243 243 245 246 248 245 238 232 239 245 245 245 246 246 246 246 246 246 247 247 247 247 247 247 248 248 248 186 150 154 158 151 143 134 135 136 137 138 138 139 140 136 135 133 132 130 129 127 126 125 124 123 122 121 120 119 118 117 116 115 114 113 112 111 114 125 115 109 105 106 108 109 111 113 113 113 113 113 113 113 113 113 113 113 114 114 114 114 114 113 113 112 112 111 111 111 110 110 110 112 114 
246 248 244 239 252 245 238 249 246 246 245 245 244 244 244 243 246 252 249 245 245 246 248 248 240 237 244 246 245 244 244 244 244 244 244 244 244 245 245 245 245 245 245 246 246 246 181 146 148 153 149 142 130 131 132 133 135 135 136 136 134 133 131 130 129 128 127 125 124 123 122 121 120 119 118 117 116 115 114 113 112 111 110 112 125 116 111 106 103 105 106 108 110 110 110 110 110 110 110 110 110 110 111 112 112 113 113 113 112 112 112 111 111 110 110 109 109 109 111 113 
247 248 250 246 245 247 250 250 249 249 248 248 247 247 246 246 245 248 251 248 247 248 250 243 243 248 247 246 244 244 244 243 243 243 243 243 243 243 243 243 243 243 243 244 244 244 177 142 144 147 147 134 126 127 128 129 130 131 133 133 133 131 130 129 128 127 126 125 124 122 121 120 119 118 117 116 115 114 113 112 111 110 109 109 124 119 114 109 104 102 103 105 106 106 106 106 107 107 107 107 107 108 109 109 110 111 111 112 112 111 111 110 110 110 109 109 108 108 109 111 
247 249 250 252 237 243 249 250 250 250 251 251 250 250 249 249 248 248 249 250 248 250 246 248 248 248 247 246 244 244 243 243 243 243 243 243 243 242 242 242 242 242 242 242 242 242 172 138 140 143 145 127 122 123 123 125 126 127 128 130 131 130 129 128 127 126 125 124 123 122 121 120 118 117 116 115 114 113 112 111 110 109 108 107 110 113 117 111 106 101 100 102 103 103 103 103 103 104 104 105 105 106 106 107 108 108 109 110 110 110 110 110 109 109 108 108 107 107 108 110 
247 249 251 252 243 242 248 250 250 250 250 251 251 251 251 251 251 251 250 251 250 249 250 249 248 248 247 245 243 243 243 243 242 242 242 242 242 242 242 242 242 242 242 241 241 241 185 133 135 140 135 120 118 119 119 120 122 123 124 127 129 128 127 126 125 124 123 122 121 120 119 117 116 115 114 113 112 111 110 109 108 107 106 107 105 104 103 106 109 104 99 99 100 100 100 100 101 101 102 102 103 103 104 105 105 106 107 108 108 109 109 109 108 108 108 107 107 106 107 109 
248 249 251 252 248 241 247 250 250 250 250 250 251 251 251 251 251 251 252 252 252 251 250 249 248 248 247 245 243 243 243 242 242 242 242 241 241 241 241 241 241 241 241 241 241 241 171 127 135 136 124 113 114 115 115 116 117 119 123 129 127 126 125 124 123 122 121 120 119 118 117 115 114 113 112 111 110 109 108 107 106 105 105 107 105 104 102 101 100 98 102 96 97 97 97 98 98 99 100 100 101 101 102 103 103 104 105 105 106 107 107 108 108 107 107 106 106 106 105 108 
248 250 251 252 252 240 247 250 250 250 250 250 251 251 251 251 251 251 252 252 249 251 250 249 248 247 246 244 243 242 242 242 242 241 241 241 241 240 240 240 240 240 240 240 240 240 157 126 137 128 120 111 128 124 121 117 113 119 125 127 126 124 123 122 121 120 119 118 117 116 114 113 112 111 110 109 108 107 106 105 104 103 105 106 105 104 102 101 99 98 97 95 94 95 95 96 96 97 97 98 98 99 100 100 101 102 102 103 104 104 105 106 106 106 106 106 105 105 104 106 
248 250 252 252 252 244 246 250 250 250 250 250 250 251 251 251 251 251 251 252 247 251 250 249 248 247 246 244 242 242 242 242 241 241 241 241 240 240 240 240 240 240 240 239 239 239 143 125 122 120 117 114 128 127 125 122 118 121 126 125 124 123 121 120 119 118 117 116 115 113 112 111 110 109 108 107 106 105 104 103 102 103 104 106 105 103 102 101 99 98 97 95 94 95 98 99 99 98 97 97 96 97 97 98 99 99 100 101 101 102 103 104 104 105 105 105 104 104 104 105 
249 250 252 252 251 250 245 250 250 250 250 250 250 250 251 251 251 251 251 252 244 251 250 249 248 247 245 243 242 242 241 241 241 241 240 240 240 240 239 239 239 239 239 239 239 239 140 126 126 123 121 118 128 127 127 126 123 122 125 123 122 121 120 118 117 116 115 114 113 111 110 109 108 107 106 105 104 103 102 101 101 103 104 106 105 103 102 100 99 98 96 95 95 94 95 99 103 105 104 104 95 96 96 96 97 97 98 99 99 100 101 101 102 103 103 104 104 103 103 104 
249 251 252 252 251 251 244 250 250 250 250 250 250 250 250 251 251 251 251 251 241 248 250 249 248 247 245 243 242 241 241 241 241 240 240 240 239 239 239 239 238 238 238 238 238 238 137 128 127 127 124 121 129 128 127 126 125 124 123 122 120 119 118 117 115 114 113 112 110 109 108 107 106 105 104 103 102 101 100 99 101 102 104 106 104 103 102 100 99 97 96 96 95 94 93 96 99 103 107 111 95 95 96 96 96 97 97 97 98 98 98 99 100 100 101 102 102 102 102 103 
250 251 252 252 251 251 246 249 250 250 249 250 250 250 250 251 251 251 251 251 239 246 250 249 248 247 244 242 241 241 241 240 240 240 240 239 239 239 239 238 238 238 238 237 237 237 134 129 129 128 127 125 129 128 127 126 124 121 120 119 119 117 116 115 114 112 111 110 109 107 106 105 104 103 102 101 100 99 98 99 100 102 104 106 104 103 101 100 99 97 97 96 96 95 94 93 96 100 104 108 94 95 95 95 96 96 96 97 97 97 98 98 98 99 99 100 100 101 101 101 
250 252 252 252 251 251 251 248 250 250 249 250 250 250 250 250 251 251 251 251 236 243 250 249 248 246 244 242 241 241 240 240 240 239 239 239 239 238 238 238 238 237 237 237 237 237 131 130 130 129 129 128 129 128 126 124 121 118 117 116 115 115 114 113 112 111 109 108 107 106 104 103 102 101 100 99 98 97 97 99 100 102 104 105 104 103 101 100 98 98 97 97 96 95 94 93 93 97 100 104 94 94 94 95 95 95 96 96 96 97 97 97 98 98 98 99 99 99 100 100 
250 252 252 252 251 251 251 247 250 250 249 249 250 250 250 250 250 251 251 251 233 240 247 249 248 246 244 241 240 240 240 240 239 239 239 239 238 238 238 238 237 237 237 237 236 236 132 126 127 127 128 128 129 126 124 121 118 116 114 113 112 112 111 110 109 108 108 106 105 104 103 101 100 99 98 97 96 95 97 98 100 102 103 105 104 102 101 100 99 98 98 97 97 96 95 94 93 93 97 101 93 93 94 94 94 95 95 95 96 96 96 97 97 97 98 98 99 99 100 100 
251 252 252 251 251 251 251 248 250 250 249 249 249 250 250 250 250 251 251 251 231 238 245 249 247 245 243 241 240 240 240 239 239 239 238 238 238 238 237 237 237 237 236 237 238 239 134 129 121 121 122 123 123 122 121 118 116 113 111 110 109 109 108 107 106 105 104 104 103 102 101 100 98 97 96 95 94 95 96 98 100 102 103 105 103 102 101 100 99 99 98 98 97 96 95 94 93 92 94 98 93 93 93 94 94 94 95 95 95 96 96 96 97 97 98 98 99 99 100 100 
251 252 252 251 251 251 251 250 250 250 249 249 249 249 250 250 250 251 251 251 228 235 242 249 247 245 243 240 240 239 239 239 239 238 238 238 238 237 237 237 237 238 238 239 240 241 135 130 120 116 116 116 116 116 116 116 113 110 108 107 106 106 105 104 103 102 101 101 100 99 98 97 97 95 94 93 93 95 96 98 100 101 103 105 103 102 101 100 100 99 99 98 97 96 95 94 94 93 92 94 92 92 93 93 93 94 94 95 95 96 96 96 97 97 98 98 99 99 100 100 
251 252 252 251 251 251 251 250 250 250 249 249 249 228 206 207 211 215 219 223 226 238 231 224 246 244 242 240 239 239 239 238 238 238 238 237 237 237 237 238 239 240 241 242 243 244 121 124 127 110 110 110 110 109 109 109 109 107 105 104 103 103 102 101 100 99 98 98 97 96 95 94 93 93 92 91 93 94 96 98 99 101 103 104 103 102 101 101 100 100 99 99 98 97 96 95 94 93 92 91 91 92 92 93 93 94 94 95 95 96 96 96 97 97 98 98 99 99 100 100 
252 252 252 251 251 251 251 250 250 243 237 230 220 227 221 222 225 229 233 237 223 235 247 233 228 244 242 239 239 239 238 238 238 238 237 237 238 239 240 241 242 243 243 244 245 246 126 129 118 109 109 108 107 106 105 104 104 103 102 102 101 101 101 100 100 100 99 99 99 99 98 97 95 94 93 92 91 90 94 98 99 101 103 104 103 102 102 101 101 100 100 99 98 97 96 95 94 93 93 93 92 92 92 93 93 94 94 95 95 96 96 96 97 97 98 98 99 99 100 100 
252 251 250 250 249 248 247 244 234 240 245 250 247 242 237 237 238 242 246 250 221 217 226 243 237 231 241 239 239 238 238 238 237 238 239 240 241 242 242 243 244 245 245 246 247 246 132 127 110 109 108 107 106 105 105 105 106 106 107 107 107 107 106 106 106 105 104 102 101 100 99 97 96 95 94 93 91 90 89 89 92 96 100 104 103 103 102 102 101 101 100 100 99 98 97 96 95 95 94 94 94 94 93 93 93 94 94 95 95 96 96 96 97 97 98 98 99 99 100 100 
241 241 242 243 244 241 238 246 218 224 229 235 238 244 252 252 252 225 207 196 186 177 205 252 246 240 235 238 238 238 238 239 240 241 241 242 243 244 244 245 246 246 247 247 246 245 137 118 109 108 107 107 108 108 109 110 111 111 112 113 112 111 109 108 107 106 104 103 102 101 99 98 97 96 95 93 92 91 90 89 88 87 91 95 98 101 103 102 102 101 101 100 99 98 97 97 97 96 96 96 95 95 95 95 94 94 94 95 95 96 96 96 97 97 98 98 99 99 100 100 
229 226 223 220 217 232 240 247 247 249 251 249 241 233 220 197 174 164 153 143 110 137 167 196 240 239 239 238 239 239 240 241 242 242 243 244 244 245 246 247 247 248 248 247 246 245 140 109 109 109 110 110 110 110 110 110 111 111 110 110 110 109 109 109 108 106 105 104 103 102 100 99 98 97 95 94 93 92 90 89 88 88 87 86 89 92 95 98 101 102 101 101 100 99 99 98 98 98 98 97 97 97 97 96 96 96 95 95 95 96 96 96 97 97 98 98 99 99 100 100 
251 236 227 224 232 252 243 234 216 207 198 180 171 162 167 173 150 129 109 89 93 125 133 140 184 227 249 244 238 241 242 243 243 244 245 245 246 247 248 248 249 248 247 246 245 244 143 107 107 107 108 108 108 108 108 108 108 108 107 107 107 106 106 106 105 105 105 104 104 102 101 100 99 97 96 95 94 92 91 90 89 88 87 86 88 90 92 93 95 97 99 101 101 100 100 100 100 99 99 99 99 98 98 98 98 97 97 97 97 96 96 96 97 97 98 98 99 99 100 100 
249 242 234 227 211 195 177 158 153 148 142 137 133 128 113 119 125 122 119 123 130 172 154 135 151 167 207 249 242 238 241 244 245 246 246 247 248 248 249 250 249 248 247 246 245 244 152 105 105 105 106 106 106 106 106 105 105 105 104 104 104 103 103 103 102 102 102 101 101 101 100 100 99 98 97 96 94 93 92 91 90 88 88 87 88 89 91 93 95 97 98 98 99 99 99 100 100 100 101 100 100 100 100 99 99 99 99 98 98 98 98 97 97 97 98 98 99 99 100 100 
178 171 164 157 158 159 150 143 149 147 142 136 133 142 135 135 134 141 147 157 166 249 242 172 151 158 164 207 249 240 238 238 247 247 248 249 249 250 250 249 248 247 246 245 244 243 162 103 103 103 104 104 103 103 103 102 102 102 101 101 101 100 100 100 99 99 99 98 98 98 98 97 97 97 96 96 95 94 93 92 90 89 88 87 87 89 91 93 94 95 95 95 96 96 96 97 97 98 98 98 99 99 99 100 100 101 100 100 100 99 99 99 99 98 98 98 99 99 100 100 
107 124 131 129 127 125 123 128 134 139 141 136 133 155 157 158 195 231 240 249 249 249 249 249 234 198 162 148 169 204 238 238 238 244 250 250 251 251 250 249 248 246 245 243 242 241 171 101 101 101 101 101 100 100 100 99 99 99 98 98 98 97 97 97 96 96 96 95 95 95 95 94 94 94 93 93 93 92 92 92 91 90 89 87 87 89 91 91 91 92 92 92 93 93 94 94 94 95 95 95 96 96 97 97 97 98 98 98 99 99 100 100 100 100 100 99 99 99 100 100 
108 110 113 115 118 120 123 125 128 130 133 135 205 227 248 247 246 245 244 243 243 242 241 240 239 238 192 146 153 159 196 233 251 245 238 252 251 249 248 246 245 244 242 241 239 238 169 99 99 98 98 98 97 97 97 96 96 96 95 95 95 94 94 94 93 93 93 93 92 92 92 91 91 91 90 90 90 89 89 89 88 88 88 87 87 87 88 88 88 89 89 90 90 90 91 91 91 92 92 93 93 93 94 94 94 95 95 96 96 96 97 97 97 98 98 99 99 99 100 100 
