P2
#CREATOR : MyProgram
119 99
255
251 251 251 253 253 253 253 239 239 239 251 243 251 251 249 249 249 252 219 243 139 127 142 200 246 244 244 251 154 164 84 92 105 101 108 100 100 100 100 106 106 98 98 98 98 98 98 98 98 100 100 100 100 100 100 100 100 100 100 100 100 100 100 100 100 100 100 100 100 100 100 98 98 98 98 98 98 98 98 98 98 98 98 98 98 98 98 98 98 98 98 98 98 98 98 98 98 98 98 98 98 98 98 98 98 98 98 98 98 98 98 96 96 96 98 98 98 98 98 
251 251 253 253 253 245 253 253 239 239 253 243 243 236 213 193 249 241 219 186 139 127 142 200 246 243 234 251 251 164 181 92 112 101 101 100 100 100 106 106 106 98 98 98 98 98 98 98 98 100 100 100 100 100 100 100 100 100 100 100 100 100 100 100 100 100 100 100 99 99 99 99 99 99 99 99 99 99 99 99 99 99 99 99 99 98 98 98 98 98 98 98 98 98 98 98 98 98 98 98 98 98 98 98 98 98 98 98 98 98 98 96 96 96 96 98 98 98 98 
251 251 253 253 253 245 253 253 253 230 253 250 166 236 136 127 169 142 121 113 103 111 118 137 188 243 237 253 251 250 181 181 87 87 108 99 100 100 106 106 106 98 111 98 98 98 98 98 98 100 100 100 100 100 100 100 100 100 100 100 100 100 100 100 100 100 100 99 99 99 99 99 99 99 99 99 99 99 99 99 99 99 99 99 99 101 98 98 98 98 98 98 98 98 98 98 98 98 98 98 98 98 98 98 98 98 98 98 98 96 96 96 96 96 96 99 98 98 98 
253 253 253 253 245 251 184 253 253 230 199 176 166 152 136 132 119 142 114 113 119 146 118 114 134 187 237 220 253 240 252 181 92 108 117 99 99 109 99 98 86 98 111 111 101 101 101 101 104 100 100 100 100 100 100 100 100 100 100 100 100 100 100 100 100 100 99 99 99 99 99 99 99 99 99 99 99 99 99 99 99 99 99 99 101 101 101 98 98 98 98 98 98 98 98 98 98 98 98 98 98 98 98 98 98 98 98 98 96 96 96 96 96 96 96 99 99 99 99 
253 217 253 159 245 145 136 253 253 146 199 137 137 152 125 156 176 141 141 114 184 146 140 114 134 187 167 220 253 240 247 181 205 108 127 80 109 119 109 91 86 98 85 101 101 101 101 101 104 104 100 100 100 100 100 100 100 100 100 100 100 100 100 100 100 99 99 99 99 99 99 99 99 99 99 99 99 99 99 99 99 99 99 101 101 101 101 101 98 98 98 98 98 98 98 98 98 98 98 98 98 98 98 98 98 98 98 98 96 96 96 96 96 96 96 99 99 99 99 
244 146 183 159 152 145 136 136 133 133 147 123 146 133 214 246 176 203 203 250 250 185 187 139 149 126 126 153 141 194 247 253 253 213 127 80 95 119 99 97 117 105 85 108 108 101 101 101 104 104 104 101 100 100 100 100 100 100 100 100 100 100 100 100 100 99 99 99 99 99 99 99 99 99 99 99 99 99 99 99 99 99 99 101 101 101 101 101 101 98 98 98 98 98 98 98 98 98 98 98 98 98 98 98 98 98 98 96 96 96 96 96 96 96 96 99 99 99 99 
153 146 183 141 152 129 131 131 137 164 147 154 146 174 214 246 176 253 253 244 250 238 187 139 149 126 126 123 141 194 184 236 242 244 228 128 151 77 112 115 96 105 102 95 101 101 101 101 104 104 104 101 101 101 100 100 100 100 100 100 100 100 100 100 99 99 99 99 99 99 99 99 99 99 99 99 99 99 99 99 99 99 101 101 101 101 101 101 101 101 98 98 98 98 98 98 98 98 98 98 98 98 98 98 98 100 100 100 96 96 96 96 96 96 96 96 99 99 99 
132 127 139 120 137 158 189 216 137 164 201 228 228 174 253 253 253 253 253 244 244 253 234 183 209 166 133 133 131 143 184 165 253 244 228 249 151 77 82 115 96 117 117 95 101 101 101 95 104 104 104 101 101 101 101 100 100 100 100 100 100 100 100 99 99 99 99 99 99 99 99 99 99 99 99 99 99 99 99 99 99 99 101 101 101 101 101 101 101 101 98 98 98 98 98 98 98 98 98 98 98 98 98 98 98 100 100 100 100 96 96 96 96 96 96 96 96 99 95 
117 184 206 222 250 158 189 216 236 164 201 228 247 247 253 244 244 253 244 244 244 253 234 242 242 215 174 143 131 143 144 165 164 231 252 249 239 133 86 77 109 109 105 95 101 101 95 95 104 104 104 101 101 101 101 101 101 100 100 100 100 100 100 99 99 99 99 99 99 99 99 99 99 99 99 99 99 99 99 99 99 101 101 101 101 101 101 101 101 101 101 98 98 98 98 98 98 98 98 98 98 98 98 98 98 100 100 100 100 106 106 96 96 96 96 96 132 96 95 
162 184 206 222 250 158 248 216 236 248 248 248 248 248 244 244 244 252 252 244 251 249 249 249 242 215 174 183 147 135 144 137 164 231 218 250 223 133 154 77 97 109 100 111 101 95 95 95 104 104 104 101 101 101 101 101 101 101 101 100 100 100 99 99 99 99 99 99 99 99 99 99 99 99 99 99 99 99 99 99 101 101 101 101 101 101 101 101 101 101 101 101 98 98 98 98 98 98 98 98 98 98 98 98 98 100 100 100 100 106 106 84 84 118 194 87 132 132 116 
244 244 206 251 251 250 248 248 248 248 248 248 248 252 252 244 252 252 252 251 251 249 249 249 242 246 218 230 147 135 139 137 134 138 156 225 249 233 251 253 209 114 74 93 115 94 95 95 99 94 94 101 101 101 101 101 101 101 101 101 101 99 99 99 99 99 99 99 99 99 99 99 99 99 99 99 99 99 99 99 101 101 101 101 101 101 101 101 101 101 101 101 101 98 98 98 98 98 98 98 98 98 98 98 98 100 100 100 109 101 106 84 97 118 194 237 132 250 218 
252 252 245 245 251 248 248 248 248 248 248 248 248 252 252 252 252 252 252 251 251 245 245 249 241 246 244 230 232 164 139 135 150 138 154 151 249 233 245 253 209 226 153 89 115 94 112 112 99 94 94 101 101 101 101 101 101 101 101 101 101 99 99 99 99 99 99 99 99 99 99 99 99 99 99 99 99 99 99 101 101 101 101 101 101 101 101 101 101 101 101 101 101 101 98 98 98 98 98 98 98 98 98 98 98 100 100 109 109 101 92 97 97 152 194 237 222 250 218 
245 245 245 251 251 251 248 248 248 248 248 248 248 252 252 252 252 252 252 251 251 251 245 241 241 243 244 250 232 164 150 150 150 132 154 151 148 233 238 253 253 226 153 89 94 94 112 112 99 104 94 110 110 101 101 101 101 101 101 101 101 99 99 99 99 99 99 99 99 99 99 99 99 99 99 99 99 99 101 101 101 101 101 101 101 101 101 101 101 101 101 101 101 101 101 98 98 98 98 98 98 98 98 98 98 102 102 102 97 97 92 108 87 134 253 226 248 229 237 
249 249 249 249 251 251 251 248 248 248 248 248 248 252 252 252 252 252 252 251 251 245 245 241 241 234 234 250 251 252 235 191 164 132 154 132 128 155 200 239 252 253 241 184 217 114 83 109 109 96 116 110 110 103 103 103 103 103 103 103 103 99 99 99 99 99 99 99 99 99 99 99 99 99 99 99 99 99 101 101 101 101 101 101 101 101 101 101 101 101 101 101 101 101 101 101 98 98 98 98 98 98 98 98 98 102 102 102 88 88 108 108 81 134 253 226 248 229 220 
249 249 249 251 251 251 251 251 251 248 248 248 248 252 252 252 252 252 252 247 251 245 245 241 241 242 242 242 244 233 250 248 192 142 134 134 143 128 138 184 233 251 241 253 253 240 139 75 109 108 116 110 103 103 103 103 103 103 103 103 103 99 99 99 99 99 99 99 99 99 99 99 99 99 99 99 99 101 101 101 101 101 101 101 101 101 101 101 101 101 101 101 101 101 101 101 101 98 98 98 98 98 98 98 98 102 102 102 88 105 91 108 91 139 252 230 245 225 236 
249 249 251 251 251 251 251 251 251 251 248 248 252 252 252 252 252 247 247 247 247 245 240 240 240 240 242 252 252 233 250 248 192 142 157 134 143 128 138 184 233 251 245 242 253 240 139 75 90 108 84 110 103 103 103 103 103 103 103 103 103 99 99 99 99 99 99 99 99 99 101 101 99 99 99 99 99 101 101 101 101 101 101 101 101 101 101 101 101 101 101 101 101 101 101 101 101 98 98 98 98 98 98 98 98 102 102 102 105 105 106 106 91 126 220 237 239 225 252 
249 251 251 251 251 251 251 251 251 251 251 251 252 252 252 252 252 247 247 247 247 247 240 240 240 240 242 241 241 252 250 234 252 218 161 154 130 142 149 136 149 171 211 249 242 240 254 204 230 134 81 107 103 103 103 103 103 103 103 103 103 101 101 101 101 101 101 101 101 101 101 101 101 101 101 101 101 101 101 101 101 101 101 101 101 101 101 101 101 101 101 102 102 102 102 102 102 102 102 102 102 102 102 100 98 102 102 102 96 96 96 91 91 136 220 234 239 239 224 
249 251 251 251 251 251 251 251 251 251 251 251 252 252 252 252 252 252 247 247 249 248 240 240 248 248 248 241 241 242 250 234 243 218 217 154 162 165 130 136 149 139 171 210 240 248 254 254 254 190 81 107 107 103 103 103 103 103 103 103 101 101 101 101 101 101 101 101 101 101 101 101 101 101 101 101 101 101 101 101 101 101 101 101 101 101 101 101 101 101 101 102 102 102 102 102 102 102 102 102 102 106 100 100 98 100 100 85 85 96 96 118 127 189 237 234 232 219 224 
251 251 251 251 251 251 251 251 251 251 251 252 252 252 252 252 252 252 247 247 249 248 248 248 248 248 248 246 246 242 250 244 244 217 243 243 178 165 148 136 129 139 171 210 240 248 248 240 254 190 81 107 107 104 104 104 104 104 104 104 101 101 101 101 101 101 101 101 101 101 101 101 101 101 101 101 101 101 101 101 101 101 101 101 101 101 101 101 101 101 101 102 102 102 102 102 102 102 102 106 106 106 100 100 98 100 100 85 85 96 96 118 210 193 224 223 216 219 230 
251 251 251 251 251 251 251 251 251 251 251 252 252 252 252 252 252 252 249 249 249 249 246 246 246 248 246 246 246 246 244 244 244 242 243 243 246 178 208 153 146 132 130 157 217 202 252 238 251 212 93 107 104 104 104 104 104 104 104 104 104 101 101 101 101 101 101 101 101 101 101 101 101 101 101 101 101 101 101 101 101 101 101 101 101 101 101 101 101 101 101 101 101 101 101 101 101 101 101 106 106 103 100 100 101 100 100 90 85 130 170 139 210 193 224 237 216 243 230 
251 251 251 251 251 251 251 251 251 251 251 252 252 252 252 252 252 252 249 249 249 249 246 246 246 246 246 246 246 246 244 244 242 242 242 243 246 252 208 227 166 143 130 157 161 143 178 220 251 232 111 104 104 104 104 104 104 104 104 104 104 101 101 101 101 101 101 101 101 101 101 101 101 101 101 101 101 101 101 101 101 101 101 101 101 101 101 101 103 103 103 101 101 101 101 101 101 101 101 101 96 103 103 110 101 88 185 200 109 130 234 213 241 193 217 231 209 238 231 
251 251 251 251 251 251 251 251 251 251 251 252 252 252 252 252 252 252 252 249 249 249 249 246 246 246 246 246 246 244 242 242 242 242 242 245 252 237 244 227 166 201 145 137 132 143 178 220 194 253 111 87 104 104 104 104 104 104 104 104 104 104 101 101 101 101 101 101 101 101 101 101 101 101 101 101 101 101 101 101 101 101 101 103 103 103 103 103 103 103 103 101 101 101 101 101 101 101 101 101 105 105 102 98 101 111 185 253 236 228 234 214 216 225 230 214 209 220 235 
251 251 251 251 251 251 251 251 251 251 251 252 252 252 252 252 252 252 252 249 249 249 249 246 246 246 246 244 244 244 244 242 242 242 245 245 236 252 244 238 240 252 235 172 138 143 137 156 194 161 128 87 87 104 104 104 104 104 104 104 104 104 104 101 101 101 101 101 101 101 101 101 101 101 101 101 101 101 101 101 101 101 103 103 103 103 103 103 103 103 103 103 101 101 101 101 101 101 101 101 105 102 102 98 98 111 232 253 236 228 224 214 216 240 230 230 231 220 233 
251 251 251 251 251 251 251 251 251 251 251 252 252 252 252 252 252 252 249 252 252 249 249 249 246 244 244 244 244 244 244 244 242 242 245 245 244 244 244 250 240 252 235 172 138 135 130 156 145 161 128 98 98 98 104 104 104 104 104 104 104 104 104 101 101 101 101 101 103 103 103 103 103 103 103 103 103 103 103 103 103 103 103 103 103 103 103 103 103 103 103 103 101 101 101 101 101 101 101 97 97 110 110 110 100 100 218 232 232 221 225 202 174 138 209 235 228 248 166 
251 251 251 251 251 251 251 251 251 251 251 252 252 252 252 252 252 252 249 249 249 249 244 244 244 244 244 244 244 244 244 244 244 245 252 252 252 244 233 250 252 243 235 252 173 135 119 141 121 90 90 98 98 98 104 104 104 104 104 104 104 104 104 104 101 101 101 101 103 103 103 103 103 103 103 103 103 103 103 103 103 103 103 103 103 103 103 103 103 103 103 103 101 101 101 101 103 103 103 103 103 100 100 100 99 100 236 207 248 233 225 202 174 138 209 235 235 248 215 
251 251 251 251 251 251 251 251 251 251 251 252 252 252 252 252 252 252 249 249 249 249 248 244 244 244 244 244 244 244 244 244 244 252 252 252 252 244 233 245 252 243 243 252 248 174 99 141 101 101 100 98 98 104 104 104 104 104 104 104 104 104 104 104 104 103 103 103 103 103 103 103 103 103 103 103 103 103 103 103 103 103 103 103 103 103 103 103 103 103 103 103 103 103 103 103 103 103 103 103 103 103 103 103 103 99 217 207 173 99 120 93 107 112 218 224 235 235 233 
251 251 251 251 251 251 251 251 251 251 251 252 252 252 252 252 252 252 249 249 249 249 248 248 244 244 246 246 243 244 244 244 244 243 243 243 243 243 245 245 245 243 243 250 248 174 99 99 99 100 100 100 104 104 104 104 104 104 104 104 104 104 104 104 103 103 103 103 103 103 103 103 103 103 103 103 103 103 103 103 103 103 103 103 103 103 103 103 103 103 103 103 103 103 103 103 103 103 103 103 103 103 103 103 103 103 103 207 107 99 120 113 137 197 201 238 221 233 233 
251 251 251 251 251 251 251 251 251 251 251 252 252 252 252 252 252 252 249 249 249 249 248 248 248 244 246 246 246 243 243 243 243 243 243 243 243 243 243 245 245 245 250 250 238 99 99 99 99 100 100 100 104 104 104 104 104 104 104 104 104 104 104 104 103 103 103 103 103 103 103 103 103 103 103 103 103 103 103 103 103 103 103 103 103 103 103 103 103 103 103 103 103 103 103 103 103 103 103 103 103 103 103 103 103 103 103 103 99 99 102 94 137 132 201 238 230 243 224 
251 251 251 251 251 251 251 251 251 251 251 252 252 252 252 252 252 252 249 251 251 248 248 248 248 248 246 246 246 246 243 243 243 243 243 243 243 243 243 245 250 250 250 250 250 238 99 99 99 99 100 100 104 104 104 104 104 104 104 104 104 104 104 103 103 103 103 103 103 103 103 103 103 103 103 103 103 103 103 103 103 103 103 103 103 103 103 103 103 103 103 103 103 103 103 103 103 103 103 103 103 103 103 103 103 103 103 103 107 102 102 92 100 88 216 241 233 235 235 
251 251 251 251 251 251 251 251 251 251 251 252 252 252 252 252 251 251 251 251 251 248 248 248 248 248 246 246 246 246 246 243 243 243 243 243 243 243 245 245 245 250 250 250 250 238 99 99 99 99 100 100 104 104 104 104 104 104 104 104 104 104 105 103 103 103 103 103 103 103 103 103 103 103 103 103 103 103 103 103 103 103 103 103 103 103 103 105 103 103 103 103 103 103 103 103 103 103 103 103 103 103 103 103 103 103 103 103 107 102 102 92 100 90 216 241 233 235 235 
251 251 251 251 251 251 251 251 251 251 252 252 252 252 251 251 251 251 251 251 251 248 248 248 248 246 246 246 246 246 246 243 243 243 245 245 245 245 245 245 245 245 242 242 242 102 102 102 102 102 102 100 104 104 104 104 104 104 104 104 104 105 105 105 103 103 103 103 103 103 103 103 103 103 103 103 103 103 103 103 103 103 103 103 103 103 103 105 105 103 103 103 103 103 103 103 103 103 103 103 103 103 103 103 103 103 103 103 107 97 97 97 101 85 216 233 233 235 235 
245 245 245 251 251 251 251 251 251 251 252 251 251 251 251 251 251 251 251 251 251 248 248 248 248 246 246 246 246 246 246 246 245 245 245 245 245 245 245 245 245 245 242 242 242 102 102 102 102 102 102 102 104 104 104 104 104 104 104 104 105 105 105 105 103 103 103 103 103 103 103 103 103 103 103 103 103 103 103 103 103 103 103 103 103 103 103 105 105 105 105 103 103 103 103 103 103 103 103 103 103 103 103 103 103 103 103 103 107 97 107 106 101 85 205 233 242 242 218 
245 245 245 245 252 251 251 251 251 251 251 251 251 251 251 251 251 251 251 251 251 248 248 248 246 246 245 245 245 245 245 245 245 245 245 245 245 245 245 245 245 245 249 249 249 242 102 102 102 102 102 102 104 104 104 104 104 104 104 105 105 105 105 105 105 103 103 103 103 103 103 103 103 103 103 103 103 103 103 103 103 103 103 103 103 103 103 105 105 105 105 105 103 103 103 103 103 103 103 103 103 103 103 103 103 103 103 107 107 97 117 106 106 85 193 243 233 233 209 
245 245 245 245 252 252 252 252 252 252 252 251 251 251 251 251 251 251 251 251 251 248 248 248 246 246 247 245 245 245 245 245 245 245 245 245 245 245 245 245 245 249 249 249 249 242 102 102 106 106 106 106 105 105 104 104 104 104 105 105 105 105 105 105 105 105 103 103 103 103 103 103 103 103 103 103 103 103 103 103 103 103 103 105 105 105 105 105 105 105 105 105 105 103 103 103 103 103 103 103 103 103 103 103 103 103 103 101 101 97 117 106 105 102 186 243 234 225 209 
245 245 245 245 252 252 252 252 252 252 252 251 251 251 251 251 251 251 251 251 251 248 248 248 246 246 247 247 245 245 245 245 245 245 245 245 245 245 245 245 245 249 249 249 249 100 100 100 106 106 106 106 105 105 105 104 104 105 105 105 105 105 105 105 105 105 103 103 103 103 103 103 103 103 103 103 103 103 103 103 103 103 103 103 103 105 105 105 105 105 105 105 105 105 105 105 105 105 103 103 103 103 103 103 103 103 103 103 101 101 117 95 95 102 168 237 210 230 213 
245 245 245 245 252 252 252 252 252 252 252 252 251 251 251 251 251 251 251 251 251 248 248 246 246 246 247 247 247 245 245 245 245 245 245 245 245 245 245 245 245 245 245 249 249 100 100 100 106 106 106 106 105 105 105 104 105 105 105 105 105 105 105 105 105 105 105 103 103 103 103 103 103 103 103 103 103 105 103 103 103 103 103 103 103 105 105 105 105 105 105 105 105 105 105 105 105 105 105 103 103 103 103 103 103 103 103 103 110 110 110 95 95 102 161 233 220 230 213 
245 245 245 252 252 252 252 252 252 252 252 252 251 251 251 251 251 251 251 251 251 248 248 246 246 246 247 247 247 247 245 245 245 245 245 245 245 245 245 245 245 245 245 245 249 241 96 106 106 106 106 106 105 105 105 105 105 105 105 105 105 105 105 105 105 105 105 105 103 103 103 103 103 103 103 105 105 105 105 103 103 103 103 103 103 105 105 105 105 105 105 105 105 105 105 105 105 105 105 105 103 103 103 103 103 103 103 103 99 110 109 109 98 98 154 233 220 217 234 
245 245 245 252 252 252 252 252 252 252 252 252 252 251 251 251 251 251 251 251 251 248 246 246 246 246 247 247 247 247 247 247 247 245 245 245 245 245 245 245 245 245 245 249 249 96 96 106 106 106 106 106 105 105 105 105 105 105 105 105 105 105 105 105 105 105 105 105 103 103 103 103 103 103 105 105 105 105 105 103 103 103 103 103 103 105 105 105 105 105 105 105 105 105 105 105 105 105 105 105 103 103 103 103 103 103 103 99 99 99 104 109 96 98 154 246 230 217 225 
245 245 245 252 252 252 252 252 252 252 252 252 252 251 251 251 251 251 251 251 251 249 249 246 246 246 247 247 247 247 247 247 247 245 245 245 245 245 245 245 245 245 245 249 249 232 96 106 106 106 113 105 105 105 105 105 105 105 105 105 105 105 105 105 105 105 105 105 105 103 103 103 103 105 105 105 105 105 105 103 103 103 103 103 103 105 105 105 105 105 105 105 105 105 105 105 105 105 105 105 103 103 103 103 103 103 103 103 99 104 104 109 96 100 148 246 226 217 216 
245 245 245 252 252 252 252 252 252 252 252 252 252 252 251 251 251 251 251 251 251 249 249 249 249 241 247 247 247 247 247 247 247 247 245 245 245 245 245 245 245 243 243 243 251 251 96 112 112 113 113 105 105 105 105 105 105 105 105 105 105 105 105 105 105 105 105 105 105 105 103 105 105 105 105 105 105 105 105 103 103 103 103 103 103 105 105 105 105 105 105 105 105 105 105 105 105 105 105 105 103 103 103 103 103 103 103 103 111 102 104 104 93 100 102 129 94 106 129 
245 245 252 252 252 252 252 252 252 252 252 252 252 252 251 251 251 251 251 251 251 249 249 249 249 241 247 247 247 247 247 247 247 247 245 245 245 245 243 243 243 243 243 243 251 214 112 112 112 113 113 105 105 105 105 105 105 105 105 105 105 105 105 105 105 105 105 105 105 105 105 105 105 105 105 105 105 105 105 105 103 103 103 103 103 105 105 105 105 105 105 105 105 105 105 105 105 105 105 105 103 103 103 103 103 103 102 111 111 102 77 90 93 93 102 66 81 88 101 
245 245 245 245 252 252 252 252 252 252 252 245 252 251 251 251 252 252 252 252 249 249 249 249 249 241 247 247 247 247 247 247 247 247 252 252 243 243 243 243 243 243 243 243 214 214 88 112 113 113 113 102 105 105 105 105 105 105 105 105 105 105 105 105 105 105 105 105 105 105 105 105 105 105 105 105 105 105 105 105 103 103 103 103 103 105 105 105 105 105 105 105 105 105 105 105 105 105 105 105 103 103 103 103 103 103 102 102 111 86 77 85 81 81 84 75 81 88 101 
245 245 245 245 252 252 252 252 252 252 245 245 252 251 251 251 252 252 252 252 249 249 249 249 249 241 247 247 247 247 247 247 247 247 252 252 252 243 243 243 243 243 243 253 253 214 88 112 113 113 113 102 105 105 105 105 105 105 105 105 105 105 105 105 105 105 105 105 105 105 105 105 105 105 105 105 105 105 105 105 103 103 103 103 103 105 105 105 105 105 105 109 96 96 105 105 105 105 105 105 103 103 103 103 103 103 102 102 71 94 116 85 152 165 84 91 104 105 113 
245 245 245 245 252 252 252 252 252 245 245 245 252 251 251 251 251 252 252 252 249 249 249 249 249 241 247 247 247 247 247 247 247 252 252 252 252 252 243 243 243 243 243 243 253 92 106 106 106 113 113 102 105 105 105 105 105 105 105 105 105 105 105 105 105 105 105 105 105 105 105 105 105 105 105 105 105 105 105 105 103 103 103 103 103 101 101 101 101 101 109 109 96 96 105 105 105 105 89 105 103 95 103 126 92 161 81 81 78 94 116 137 189 183 176 173 104 180 113 
245 245 253 253 252 252 252 245 245 245 245 245 252 251 251 251 251 252 252 252 252 252 252 252 249 241 247 247 247 247 247 247 252 252 252 252 252 252 252 243 243 243 243 243 249 184 92 106 106 106 113 102 105 105 105 105 105 105 105 105 105 105 105 105 105 105 105 105 105 105 105 105 105 105 105 105 105 105 105 105 106 106 106 101 101 101 109 109 109 109 109 109 96 96 96 96 105 92 89 162 95 95 109 126 144 161 174 177 195 195 116 196 189 183 176 173 173 172 172 
249 253 253 253 252 252 245 245 245 245 245 245 252 251 251 251 251 252 252 252 242 252 252 252 240 247 247 247 247 247 247 245 252 252 252 252 252 252 252 252 243 243 243 243 249 184 184 106 106 106 105 105 105 105 105 105 105 105 105 105 105 105 105 105 105 105 105 105 105 105 105 105 105 105 105 105 105 105 105 106 106 106 106 101 101 101 109 109 109 109 109 100 96 96 147 90 186 188 146 162 168 183 109 183 144 180 180 177 166 94 167 167 189 175 176 180 180 172 177 
249 249 253 253 252 245 245 245 245 245 245 245 252 251 251 251 251 251 236 252 242 242 252 240 240 240 247 247 247 247 245 245 245 252 252 252 252 252 252 252 252 243 243 243 249 184 92 106 106 106 105 105 105 105 105 105 105 105 105 105 105 105 105 105 105 105 105 105 105 105 105 105 105 105 105 105 105 105 106 106 106 106 106 108 108 108 98 109 105 93 135 100 188 118 147 173 186 188 146 180 168 168 183 183 180 180 180 163 166 175 175 167 157 157 167 167 167 172 177 
249 249 253 253 245 245 245 245 245 245 245 245 252 244 229 213 251 178 236 146 122 186 165 215 249 242 245 247 247 245 245 245 245 252 252 252 252 252 252 252 252 252 243 243 249 187 92 113 113 113 105 105 105 105 105 105 105 105 105 105 105 105 105 105 105 105 105 105 105 105 105 105 105 105 105 105 105 106 106 106 106 106 106 98 98 101 98 139 105 176 193 205 179 118 186 186 186 179 179 180 168 168 168 166 166 166 163 163 163 175 164 165 157 157 152 152 167 161 161 
249 249 253 253 245 245 245 245 245 245 245 197 252 163 153 147 197 178 159 146 122 131 165 215 192 242 245 246 245 245 245 245 245 252 252 252 252 252 252 252 252 252 252 243 251 187 94 113 113 113 105 105 105 105 105 105 105 105 105 105 105 105 105 105 105 105 105 105 105 105 105 105 105 105 105 105 106 106 106 106 106 106 106 106 89 166 186 196 158 176 171 165 179 179 186 168 168 179 179 169 168 168 166 166 166 166 163 163 163 164 164 164 165 157 166 166 166 159 159 
249 249 248 253 253 194 181 248 155 148 206 197 169 163 153 147 141 133 123 146 110 126 137 151 192 172 252 246 246 238 238 245 245 252 252 252 252 252 252 250 250 250 250 252 251 188 94 113 113 113 105 105 105 105 105 105 105 105 105 105 105 105 105 105 105 105 105 105 105 105 105 105 105 105 105 106 106 106 106 106 106 137 167 188 152 166 186 196 158 183 171 165 165 179 168 168 169 179 169 169 161 161 161 166 166 166 163 163 163 151 164 151 151 151 153 153 161 159 159 
249 197 248 155 202 194 181 167 155 148 148 148 169 145 125 118 131 133 112 180 171 122 122 151 142 133 163 209 230 249 238 245 252 252 252 252 252 251 251 250 250 250 250 250 252 193 113 113 113 112 105 105 105 105 105 105 105 105 105 105 105 105 105 105 105 105 105 105 105 105 105 111 99 99 99 105 95 106 136 95 178 137 167 188 197 188 186 196 165 165 171 173 173 173 168 168 169 169 169 169 161 161 161 161 161 166 163 163 151 151 151 151 151 151 153 153 161 161 159 
220 197 172 155 143 194 143 143 167 132 148 136 136 135 125 118 192 131 148 180 171 161 145 125 125 133 163 209 230 236 244 245 244 244 252 252 251 251 251 243 243 243 243 252 252 193 93 113 112 112 105 105 105 105 105 105 105 105 105 105 105 105 105 105 105 105 105 105 105 105 96 111 107 107 99 105 84 168 189 198 191 178 167 188 197 169 169 196 165 165 163 163 163 163 168 168 169 169 169 169 161 161 161 161 161 166 163 163 151 151 151 151 151 153 153 153 161 161 152 
220 140 172 133 133 131 143 130 132 132 153 136 136 231 169 180 192 203 221 249 224 161 163 149 125 133 134 158 204 236 244 244 209 244 252 252 251 251 251 246 243 243 243 251 252 201 93 108 112 112 105 105 105 105 105 105 112 112 104 104 104 104 110 110 110 110 105 105 105 91 96 100 107 102 99 89 151 168 189 198 191 178 167 167 167 162 162 162 165 165 163 163 163 163 163 168 149 149 169 169 161 161 161 161 161 166 163 151 151 151 151 151 151 153 153 153 161 152 152 
130 130 125 125 154 131 188 130 232 144 153 153 213 231 169 180 192 203 233 249 253 194 163 202 170 144 142 137 147 162 201 244 244 236 252 251 251 251 233 246 246 243 243 251 251 214 97 108 108 112 105 105 105 105 105 112 112 112 104 104 104 104 110 110 110 110 96 105 91 91 112 115 157 102 149 186 191 168 185 175 163 178 164 164 167 162 162 162 165 163 163 163 156 156 156 149 149 149 149 149 161 161 161 161 130 144 144 144 144 144 151 151 153 153 153 153 145 145 145 
123 170 137 137 250 167 188 212 232 144 153 253 213 253 253 243 243 250 250 233 253 194 232 202 170 158 142 138 147 162 201 173 236 220 241 225 240 219 233 246 246 246 243 244 251 226 226 108 108 112 105 105 105 105 101 112 112 112 104 104 104 104 110 110 110 110 96 90 90 91 89 115 157 102 193 186 186 165 165 165 171 164 164 147 167 167 167 162 153 153 153 156 156 156 156 149 149 149 149 149 149 130 130 130 130 144 144 144 144 144 144 144 144 153 153 153 145 145 145 
152 170 213 213 250 250 188 212 252 243 243 243 232 232 232 243 243 250 250 250 220 232 232 241 213 202 221 199 176 138 158 173 185 220 241 225 210 219 233 238 246 246 246 244 251 239 109 109 108 115 115 108 101 101 101 112 112 112 104 104 104 104 104 100 99 99 96 128 90 122 162 115 187 176 193 186 186 165 165 161 171 157 157 147 160 160 143 153 153 153 153 153 156 156 156 149 149 149 149 149 149 137 137 130 130 144 144 144 144 144 144 144 144 144 153 153 145 145 145 
213 213 213 250 250 250 252 252 252 252 249 249 249 240 248 248 243 250 250 220 252 235 246 241 213 248 221 199 176 172 158 173 143 180 200 225 210 219 228 238 246 246 246 244 250 250 109 109 123 115 115 108 101 101 101 112 112 112 112 104 104 104 104 100 110 107 173 199 181 122 185 185 187 169 169 186 161 161 161 161 162 149 157 159 159 150 143 143 153 153 153 153 149 149 137 142 142 142 142 142 137 137 137 130 130 144 144 144 144 144 144 144 144 144 144 153 145 136 136 
213 213 213 250 250 250 252 252 252 252 249 249 249 240 248 248 248 248 246 227 249 235 246 246 248 248 221 252 250 233 208 160 143 152 200 162 177 217 228 238 246 246 237 247 239 250 109 86 123 97 115 114 108 101 101 112 112 112 112 112 95 104 112 100 183 136 173 199 181 181 185 185 169 169 160 160 160 149 149 161 149 149 154 159 150 150 143 143 143 145 145 145 140 140 137 137 142 142 142 142 137 137 137 130 130 130 130 134 134 144 144 144 144 144 144 144 136 136 136 
213 213 213 250 250 250 252 252 252 249 249 249 249 240 248 248 248 244 246 238 249 249 246 246 246 238 238 238 250 233 208 181 214 163 145 159 177 217 180 216 243 243 237 247 239 240 136 97 88 129 106 114 114 101 101 99 99 112 112 112 112 96 112 146 183 197 183 164 173 173 173 167 167 160 160 160 160 149 149 149 149 154 154 154 150 150 143 143 143 145 145 140 140 137 137 137 142 142 142 137 137 137 137 130 130 130 130 134 134 134 134 134 134 132 132 136 136 136 136 
213 213 213 250 250 250 252 252 252 249 249 249 249 240 248 248 248 244 246 244 249 249 246 246 246 238 238 238 250 243 208 248 214 163 145 159 177 165 180 216 243 204 237 247 252 240 235 194 117 77 106 125 98 104 116 116 99 86 101 83 168 139 172 172 175 197 172 172 173 167 167 167 167 160 160 160 160 147 147 147 149 147 147 147 147 150 144 144 141 141 145 145 140 137 137 137 142 142 142 137 137 137 137 137 130 137 134 134 134 134 134 134 134 132 132 132 136 136 136 
248 248 213 250 250 250 252 252 252 249 249 249 249 244 244 244 244 244 244 244 244 251 251 246 238 238 238 238 238 243 240 253 245 201 218 180 134 158 150 139 146 163 187 212 220 253 235 194 117 77 106 125 113 104 104 116 100 86 161 134 168 180 172 185 175 175 172 180 180 167 167 167 167 160 160 160 160 147 147 147 147 147 147 147 147 144 144 144 141 141 145 145 138 138 138 137 137 137 137 137 137 137 137 137 137 137 134 134 134 134 134 134 132 132 132 132 132 136 136 
248 248 248 252 250 250 250 250 250 249 249 249 249 244 244 244 244 244 244 244 251 251 251 251 251 238 238 238 247 242 242 241 245 247 218 180 150 176 150 139 146 163 173 217 235 231 231 253 238 142 119 104 106 104 104 93 146 183 195 189 191 180 168 168 175 175 180 180 167 167 167 150 150 150 160 160 147 147 147 147 137 147 147 147 144 144 144 144 134 141 141 128 138 138 138 137 137 137 137 137 137 137 137 137 137 137 134 134 134 134 134 132 132 132 132 132 132 132 136 
248 248 248 252 250 250 250 250 250 250 250 250 249 244 244 244 244 244 251 251 251 251 251 251 251 247 247 247 247 241 252 241 241 247 252 180 218 176 150 139 146 149 173 217 235 231 231 237 238 253 119 104 104 137 104 112 146 183 195 189 172 180 168 161 161 161 180 180 167 167 167 150 150 150 150 147 147 147 147 137 137 137 147 137 137 137 137 137 134 134 128 128 129 128 128 137 137 137 137 137 137 137 137 137 137 137 134 134 134 134 134 132 132 132 132 132 132 132 132 
248 248 248 252 250 250 250 250 250 250 250 250 250 244 244 244 244 251 251 251 251 251 251 251 251 247 247 247 252 239 241 241 238 238 252 251 251 252 244 204 179 165 147 135 157 209 183 237 231 242 144 75 119 163 137 185 174 183 195 187 181 170 175 151 161 161 161 180 154 154 143 150 150 150 150 142 147 147 137 137 137 137 137 137 137 137 137 134 134 128 128 128 128 128 128 121 137 137 137 137 137 137 137 137 137 137 134 134 134 134 134 132 132 132 132 132 132 132 132 
248 248 248 252 250 250 250 250 250 250 250 250 250 250 250 244 251 251 251 251 251 251 251 251 247 247 247 247 252 247 247 241 246 246 252 243 243 252 244 204 179 219 169 143 157 168 183 153 253 248 106 155 197 181 170 185 174 174 163 163 181 170 158 151 161 158 154 154 154 143 143 134 150 150 142 142 142 147 137 137 137 135 135 135 137 137 137 128 134 128 128 128 128 128 128 121 121 137 137 137 137 137 137 137 137 137 134 134 134 134 134 132 132 132 132 132 132 132 132 
248 248 245 252 250 250 250 250 250 250 250 250 250 250 250 250 251 251 251 251 251 251 251 251 247 247 247 247 239 247 247 247 246 246 243 243 243 252 244 204 253 219 169 143 157 168 144 153 214 248 106 155 197 181 170 170 174 171 163 170 170 170 158 158 158 150 147 154 154 143 143 143 134 142 142 142 137 137 137 137 135 135 135 135 135 137 128 128 128 128 128 128 128 128 128 121 121 121 121 137 137 137 137 137 137 137 137 134 134 115 115 132 132 132 132 132 132 132 132 
248 245 245 252 252 252 250 250 250 250 250 250 250 250 250 250 250 250 251 251 251 245 247 247 247 247 247 247 247 247 247 246 246 246 243 243 243 243 243 243 253 219 214 227 176 140 144 125 151 182 106 186 186 181 170 171 171 171 163 170 152 152 158 158 150 150 147 154 135 135 143 134 134 134 142 132 137 137 137 128 135 135 135 135 135 135 128 128 128 128 127 127 128 128 128 128 121 121 121 121 121 137 137 137 137 137 115 115 115 115 115 132 132 132 132 132 132 132 132 
229 223 245 252 252 250 250 250 250 250 250 250 250 250 250 250 250 250 250 251 251 245 245 247 247 247 247 247 247 247 247 247 246 246 243 243 243 243 243 243 253 246 246 227 222 177 134 134 177 151 179 172 172 181 181 162 162 171 163 152 152 152 151 150 150 150 150 145 145 135 138 134 134 134 132 124 124 128 137 128 128 124 124 124 124 120 120 120 120 120 127 127 128 128 120 120 121 121 121 121 121 116 116 116 116 115 115 115 115 115 115 115 115 132 132 132 132 132 132 
223 223 223 252 250 250 250 250 250 242 250 250 250 250 250 250 250 250 250 250 251 245 245 247 247 247 247 247 247 247 247 247 246 246 243 243 243 243 243 243 239 239 246 252 222 177 192 162 177 177 172 172 172 172 162 162 162 162 163 152 152 151 151 151 150 150 143 136 145 138 138 138 134 132 132 124 124 124 128 124 124 124 124 124 127 120 120 120 120 127 127 127 127 128 120 120 121 121 121 121 121 116 116 116 116 115 115 115 115 115 115 115 115 115 115 132 132 132 132 
241 223 223 223 250 250 250 242 242 245 250 250 250 250 250 250 250 250 250 250 250 245 245 245 247 247 247 247 247 247 247 247 247 246 243 243 243 243 243 239 239 239 239 252 252 223 208 178 186 163 165 165 165 165 162 162 162 162 163 143 151 151 151 151 151 150 143 136 145 130 130 130 130 124 124 124 124 124 123 123 123 124 119 119 127 127 120 120 120 118 118 118 118 120 120 121 121 121 121 121 116 116 116 116 116 115 115 115 115 115 115 115 115 115 115 132 132 132 132 
243 242 242 242 250 250 250 245 245 245 250 250 250 250 250 250 250 250 250 250 250 245 245 245 242 242 234 227 244 247 247 247 247 246 243 243 243 243 239 239 239 239 239 239 252 244 208 178 171 163 163 165 165 165 162 162 149 149 149 139 143 143 151 129 129 136 143 136 130 130 130 130 130 124 124 124 124 123 123 123 123 123 119 119 127 127 127 120 126 111 118 118 121 120 121 121 121 121 121 121 116 116 116 116 116 115 115 115 115 115 115 115 115 115 115 132 109 109 109 
243 252 242 244 244 244 250 250 245 245 235 226 235 250 250 250 250 245 245 245 245 245 245 242 242 242 234 227 244 244 244 244 244 244 244 243 243 239 239 239 239 239 239 239 232 242 208 163 171 156 156 165 165 165 149 149 149 149 149 139 139 143 129 129 129 136 129 129 129 130 130 130 130 124 124 124 124 123 123 123 123 119 119 119 127 127 118 118 118 111 111 121 121 121 121 121 121 121 121 104 116 116 116 116 116 115 115 115 115 115 115 115 115 115 115 109 109 109 109 
229 180 226 244 244 250 250 250 250 245 235 226 235 250 250 250 245 245 245 245 245 245 245 242 242 242 234 227 244 244 244 244 244 244 244 246 239 239 239 239 239 239 239 239 232 242 192 158 169 156 156 165 165 165 141 141 141 141 141 139 125 139 125 129 136 136 129 129 129 129 130 130 130 124 124 124 114 114 114 123 123 119 119 119 127 127 113 118 111 111 111 121 121 121 114 114 114 115 104 104 116 116 116 116 116 115 115 115 115 115 115 115 115 115 115 115 109 109 109 
167 180 226 252 252 245 250 250 249 249 249 249 236 247 247 252 252 252 252 238 238 238 238 242 242 242 234 227 244 244 244 244 244 244 244 246 246 239 239 239 239 239 239 239 232 242 184 158 169 148 148 165 134 134 134 141 141 141 139 125 125 125 125 136 136 136 129 122 122 122 130 130 124 124 124 114 114 114 114 114 119 119 119 119 127 113 113 113 111 111 110 110 121 121 114 114 114 115 104 104 116 116 116 116 116 105 105 105 105 115 115 115 115 115 115 115 109 109 109 
222 209 225 252 245 245 226 233 249 249 249 249 247 247 247 252 252 252 244 244 251 238 242 242 242 242 234 227 244 244 244 244 244 244 246 246 246 246 239 239 239 239 239 232 232 248 184 158 160 148 148 134 134 134 134 134 141 141 128 128 121 125 125 136 136 136 129 122 122 122 124 124 124 124 124 124 114 114 114 119 119 119 119 119 106 106 106 113 113 111 113 113 113 110 114 114 115 115 104 104 104 104 104 116 116 116 105 105 105 115 115 115 115 115 115 109 109 109 109 
246 235 243 239 252 238 230 237 249 249 250 247 247 247 247 252 252 244 244 244 251 251 242 242 242 242 234 234 234 244 244 244 244 246 246 246 246 246 246 239 240 240 240 240 240 248 248 147 160 148 148 134 134 134 134 134 134 128 128 128 121 121 121 121 136 136 129 122 122 122 124 124 124 124 124 124 114 114 114 119 119 109 109 109 119 106 106 113 113 113 113 113 108 110 114 103 103 115 104 104 104 104 104 104 116 104 104 105 105 115 115 115 115 115 115 109 109 109 109 
246 235 232 239 252 242 230 237 237 250 250 250 247 247 247 252 252 252 244 244 251 251 242 242 242 242 242 242 242 242 244 244 244 246 246 246 246 246 246 246 240 240 240 240 240 248 180 139 147 138 148 134 134 134 134 134 134 134 128 128 121 121 121 121 129 129 129 122 122 122 124 124 124 124 124 124 124 114 109 109 109 109 109 119 119 106 106 113 113 113 113 108 108 103 103 103 103 103 103 104 104 104 104 104 104 104 104 104 105 115 115 115 115 115 109 109 109 109 109 
240 240 232 241 237 248 248 237 239 250 250 250 247 247 252 252 252 252 252 245 251 251 242 242 242 242 242 242 242 242 242 242 246 246 246 246 246 246 246 246 246 240 240 240 240 173 173 139 147 138 138 138 124 134 134 134 134 128 128 128 121 121 121 121 121 129 118 118 118 118 118 111 124 124 124 124 124 124 114 109 109 109 109 119 119 119 119 113 113 113 108 108 108 108 103 103 103 103 103 104 104 104 104 104 104 104 104 104 104 101 115 115 115 115 109 109 109 109 109 
240 240 252 252 237 237 248 237 239 239 250 250 247 252 252 252 252 252 252 245 251 251 242 242 242 242 242 242 242 242 242 242 246 246 246 246 246 246 246 246 246 240 240 240 240 168 173 139 147 138 138 124 124 124 134 134 123 123 125 125 125 125 125 125 125 125 117 117 111 111 111 111 111 124 124 124 120 120 109 109 109 109 119 119 119 119 119 119 119 108 108 108 108 108 108 103 103 103 103 102 102 104 104 104 104 104 104 104 101 101 101 101 101 109 109 109 109 109 109 
240 240 252 252 237 237 248 250 250 250 239 250 250 250 252 252 252 252 245 245 245 242 242 242 242 242 242 242 242 242 242 242 246 246 246 246 246 246 246 246 246 246 240 240 240 240 168 133 143 134 134 113 124 124 124 123 123 123 123 125 125 125 125 125 125 125 117 117 111 111 111 111 118 118 118 118 120 120 120 109 109 119 119 119 119 119 119 105 105 108 108 108 108 108 108 110 103 109 109 102 102 102 102 102 104 101 101 101 101 101 101 101 101 109 109 109 109 109 109 
240 240 252 252 237 237 237 250 250 250 250 250 250 250 252 252 252 250 250 243 251 242 242 242 242 242 242 242 242 242 242 246 246 246 246 246 246 246 246 246 246 246 246 246 245 240 161 133 143 134 125 113 128 128 128 123 123 123 123 118 118 118 118 118 117 117 117 117 111 111 111 118 118 118 118 120 120 120 120 120 109 119 119 119 119 119 105 105 105 105 101 101 101 102 110 110 109 109 109 102 102 102 102 102 101 101 101 101 101 101 101 101 101 101 109 109 109 109 109 
240 240 252 252 237 237 250 250 250 250 250 250 250 250 250 250 250 250 250 243 251 242 242 242 242 242 242 242 242 242 242 246 246 246 246 246 246 246 246 246 246 246 246 245 245 241 161 137 127 127 125 111 128 128 128 116 116 116 116 118 118 118 118 117 117 117 117 117 111 111 111 111 111 118 118 120 120 120 120 120 120 119 119 119 119 105 105 105 105 105 101 94 94 102 110 110 109 109 109 102 102 102 102 102 101 101 101 101 101 101 101 101 101 101 109 109 109 109 109 
240 240 252 252 237 237 250 250 250 250 250 250 250 250 250 250 250 250 250 250 251 242 242 242 242 242 242 242 242 242 246 246 246 246 246 246 246 246 246 246 246 246 245 245 245 241 143 126 137 118 127 111 128 128 128 124 124 116 116 118 118 118 118 108 108 117 117 111 111 111 111 114 114 111 110 110 110 110 110 110 110 110 105 105 105 105 105 105 98 105 101 106 94 102 110 102 102 102 102 102 102 101 101 101 101 101 101 101 101 101 101 101 101 101 109 109 109 109 109 
240 240 252 252 237 250 250 250 250 250 250 250 250 250 250 250 250 250 250 250 251 242 242 242 242 242 242 242 242 242 246 246 246 246 246 246 246 246 246 246 246 245 245 245 245 241 143 126 118 118 127 127 127 128 124 124 124 116 116 116 118 118 108 108 108 108 100 111 111 111 114 114 114 110 110 103 110 110 110 110 110 110 103 103 105 105 105 98 104 106 106 106 106 102 110 102 102 102 102 102 102 101 101 101 101 101 101 101 101 101 101 101 101 101 101 109 109 109 109 
240 240 252 252 237 250 250 250 250 250 250 250 250 250 250 250 250 250 250 250 251 242 242 242 242 242 242 242 244 244 244 246 246 246 246 246 246 246 246 246 245 245 245 245 245 239 136 120 120 118 118 127 127 127 124 124 124 108 108 108 118 108 108 108 108 108 100 100 111 111 107 107 107 107 110 103 110 110 110 110 110 103 103 103 105 105 105 98 104 104 106 106 106 106 97 97 102 102 102 102 102 91 101 101 101 101 101 101 101 101 101 101 101 101 101 109 109 109 109 
252 252 248 252 237 250 250 250 250 250 250 249 250 250 250 250 250 250 250 250 242 236 242 242 242 242 242 244 244 244 244 244 246 246 246 246 246 246 246 245 245 245 245 245 245 239 136 117 125 125 129 120 111 117 117 117 117 108 108 108 108 108 108 108 108 108 100 100 100 100 108 108 107 108 103 103 103 110 110 110 110 103 103 103 103 104 104 104 104 104 104 97 97 97 97 97 97 102 102 102 102 91 91 101 101 101 101 101 101 101 101 101 101 101 101 109 109 109 109 
252 252 248 248 252 252 252 252 252 249 249 249 249 250 250 250 250 250 250 250 242 236 224 224 224 224 224 244 244 244 244 244 244 246 246 246 246 246 245 245 245 245 245 245 245 236 117 117 125 129 129 120 111 111 117 117 117 108 108 108 108 108 108 108 108 112 112 112 100 100 108 108 108 108 108 103 103 103 110 105 103 103 103 103 103 103 104 104 104 104 104 97 97 97 97 97 97 98 98 98 98 91 91 91 101 101 101 101 101 101 101 101 101 101 101 96 96 96 109 
252 252 248 248 252 252 252 252 252 249 249 249 249 250 250 250 250 251 250 250 242 236 224 224 224 224 244 244 244 244 244 244 244 252 245 245 245 245 245 245 245 245 245 245 245 236 133 118 125 129 129 120 111 111 111 117 117 117 108 108 108 108 108 112 112 112 112 112 100 100 100 100 100 100 100 103 103 105 105 105 105 103 103 103 103 103 95 95 95 95 95 97 97 97 97 97 98 98 98 98 98 91 91 91 91 101 101 101 101 101 101 101 101 101 96 96 96 96 96 
252 252 248 248 252 252 252 252 252 249 249 249 249 250 250 250 250 251 250 250 242 236 224 224 224 224 244 244 244 244 244 244 244 252 252 245 245 245 245 245 245 245 245 245 245 237 133 118 117 117 124 124 111 111 111 111 117 108 108 108 101 101 101 112 112 112 112 112 112 112 100 100 100 100 100 105 105 105 105 105 105 94 103 103 103 103 103 95 95 95 95 97 97 97 97 97 98 98 98 98 98 91 91 91 91 91 101 101 101 101 101 101 96 96 96 96 96 96 96 
252 252 248 248 252 252 252 252 252 249 249 249 249 228 206 250 223 251 251 250 228 236 247 224 224 224 244 244 244 244 244 244 244 252 252 252 245 245 245 245 245 245 245 245 245 126 126 133 117 117 124 124 111 111 111 111 111 101 101 101 101 101 101 101 112 112 112 112 112 112 100 100 100 100 91 105 105 105 105 105 105 94 94 94 103 103 103 95 95 95 95 97 97 97 97 98 98 98 98 98 98 91 91 91 91 91 91 101 101 101 96 96 96 96 96 96 96 96 96 
252 252 248 248 248 250 250 250 250 252 234 249 249 228 206 250 223 236 236 223 228 247 247 224 224 252 252 244 244 244 244 244 244 252 252 252 252 245 245 245 245 245 245 245 126 126 126 116 126 117 122 111 111 111 111 111 111 113 113 101 101 101 101 101 112 112 112 112 112 112 100 100 100 91 91 91 104 104 105 105 95 94 94 94 94 103 103 95 95 95 95 97 97 91 91 91 91 91 91 91 91 91 91 91 91 91 91 101 101 96 96 96 96 96 96 96 96 96 96 
252 252 248 248 248 250 250 235 250 242 234 234 247 228 230 230 223 228 228 232 213 213 247 252 235 252 241 244 244 244 244 244 244 252 252 252 252 252 245 245 245 245 244 244 126 126 126 116 112 122 122 111 119 119 119 119 113 113 113 113 101 104 104 112 112 112 112 112 112 112 100 100 100 91 91 91 93 93 105 95 95 95 104 94 92 92 92 92 95 95 95 97 97 97 91 91 91 91 91 91 91 91 91 91 91 91 91 96 96 96 96 96 96 96 96 96 96 96 96 
252 252 248 237 248 248 250 235 218 242 244 244 247 247 237 237 252 228 211 232 221 171 203 252 252 232 238 252 252 252 252 252 252 252 252 252 252 252 252 244 244 244 244 244 126 126 126 116 119 112 122 122 119 119 119 119 113 113 113 113 113 104 104 104 104 104 104 104 100 100 100 100 100 100 100 100 93 93 95 95 95 104 104 92 92 92 92 92 92 97 97 97 97 97 97 91 91 91 91 91 91 91 91 91 91 91 91 96 96 96 96 96 96 96 96 96 96 96 96 
242 242 248 237 217 232 244 226 218 218 251 229 247 248 220 198 252 155 211 211 186 171 203 203 233 236 238 238 252 252 252 252 252 252 252 252 252 252 252 244 244 244 244 244 244 244 244 119 119 119 122 122 119 119 119 119 113 113 113 113 113 104 104 104 104 104 104 104 100 100 100 100 100 100 100 100 93 93 95 95 104 104 104 104 92 92 92 92 92 97 97 97 97 97 97 97 91 91 91 91 91 91 91 91 91 91 91 96 96 96 96 96 96 96 96 96 96 96 96 
229 229 224 224 251 232 244 234 247 203 251 180 233 233 220 198 147 127 104 148 93 125 173 203 179 227 252 238 250 252 252 252 252 252 240 252 252 252 252 244 244 244 244 244 244 244 244 109 119 119 99 106 97 97 97 97 97 97 97 97 104 104 104 104 104 104 104 104 100 100 100 100 100 100 91 91 91 91 91 95 104 104 104 104 92 92 92 92 97 97 97 97 97 97 97 97 91 91 91 91 91 91 91 91 91 91 91 96 96 96 96 96 96 96 96 96 96 96 96 
251 251 170 236 251 232 251 234 216 203 191 180 144 162 220 157 147 127 104 89 93 125 173 140 179 227 200 252 250 250 250 252 252 252 240 252 252 252 252 252 249 244 244 244 244 244 147 109 107 107 99 106 107 97 97 97 97 97 97 97 104 107 91 91 91 91 91 91 91 91 91 91 91 91 91 91 91 91 91 91 91 104 104 104 92 92 92 97 97 97 97 97 97 97 97 97 97 91 91 91 91 91 91 91 91 91 91 96 96 96 96 96 96 96 96 96 96 96 96 
180 180 170 227 251 195 180 158 216 146 191 137 144 130 113 113 125 127 131 123 138 172 160 135 148 167 200 252 249 250 250 251 252 252 240 252 252 252 252 252 249 249 249 249 147 147 147 105 105 107 99 106 107 107 97 97 97 97 97 97 104 107 91 91 91 91 91 91 91 91 91 91 91 91 91 91 91 91 91 91 91 104 104 104 92 92 92 97 97 97 97 97 97 97 97 97 97 97 91 91 91 91 91 91 91 91 91 94 94 94 94 94 96 96 96 96 96 96 96 
180 133 170 136 151 195 147 134 134 146 133 137 126 155 130 135 193 231 147 249 244 249 242 172 234 152 162 148 169 203 251 251 252 252 240 252 252 252 252 252 249 249 249 249 249 147 147 105 105 107 107 107 107 107 97 97 97 97 97 97 104 107 107 107 107 107 107 107 107 107 88 88 88 88 88 88 91 91 91 91 91 91 104 104 92 92 88 88 88 88 88 88 88 88 88 88 88 88 88 91 91 91 91 91 91 91 94 94 94 94 94 94 94 94 94 94 105 105 100 
107 133 144 136 151 123 123 123 133 133 133 135 133 155 248 158 193 231 238 249 244 246 242 249 234 196 162 148 169 203 238 233 251 252 240 252 252 252 252 252 249 249 249 249 249 238 238 99 107 107 107 107 107 107 97 97 97 97 97 97 104 107 107 107 107 107 107 107 107 107 88 88 88 88 88 88 88 88 88 88 88 88 88 88 88 88 88 88 88 88 88 88 88 88 88 88 88 88 88 91 91 91 91 91 91 91 94 94 94 94 94 94 94 94 94 94 105 105 100 
