P2
#CREATOR : MyProgram
127 127
255
162 162 162 162 162 162 162 164 164 164 164 164 164 164 164 164 103 103 103 103 103 103 103 103 103 103 103 103 103 103 103 103 103 103 103 103 126 126 126 126 126 126 126 126 126 126 126 126 126 126 126 126 126 126 126 126 126 119 119 119 119 119 119 119 119 119 119 119 122 122 122 122 122 122 122 122 122 122 122 122 122 122 122 122 122 122 122 122 122 155 155 155 155 155 155 155 155 155 155 155 155 155 155 217 217 107 107 107 107 107 107 107 107 107 107 134 134 134 136 136 136 136 136 136 136 136 136 
162 162 162 162 162 162 162 164 164 164 164 164 164 164 164 164 103 103 103 103 103 103 103 103 103 103 103 103 103 103 103 103 103 103 103 103 126 126 126 126 126 126 126 126 126 126 126 126 126 126 126 126 126 126 126 126 119 119 119 119 119 119 119 119 119 119 119 119 119 122 122 122 122 122 122 122 122 122 122 122 122 122 122 122 122 122 122 122 122 155 155 155 155 155 155 155 155 155 155 155 155 155 155 217 191 191 107 107 107 107 107 107 107 107 107 134 134 134 134 134 136 136 136 136 136 136 136 
162 162 162 162 162 162 162 164 164 164 164 164 164 164 164 164 103 103 103 103 103 103 103 103 103 103 103 103 103 103 103 103 103 103 103 126 126 126 126 126 126 126 126 126 126 126 126 126 126 126 126 126 126 126 126 126 119 119 119 119 119 119 119 119 119 119 119 119 119 122 122 122 122 122 122 122 122 122 122 122 122 122 122 122 122 122 122 122 122 155 155 155 155 155 155 155 155 155 155 155 155 155 155 155 191 191 107 107 107 107 107 107 107 107 134 134 134 134 134 134 42 49 49 49 49 49 49 
162 162 162 162 162 162 162 164 164 164 164 164 164 164 164 164 164 103 103 103 103 103 103 103 103 103 103 103 103 103 103 103 103 103 103 126 126 126 126 126 126 126 126 126 126 126 126 126 126 126 126 126 126 126 126 126 119 119 119 119 119 119 119 119 119 119 119 119 119 119 122 122 122 122 122 122 122 122 122 122 122 122 122 122 122 122 122 122 155 155 155 155 155 155 155 155 155 155 155 155 155 155 142 142 191 191 107 107 107 107 107 107 107 107 134 134 134 134 134 134 42 42 49 49 49 49 49 
162 162 162 162 162 162 162 164 164 164 164 164 164 164 164 164 164 103 103 103 103 103 103 103 103 103 103 103 103 103 103 103 103 103 103 126 126 126 126 126 126 126 126 126 126 126 126 126 126 126 126 126 126 126 126 126 119 119 119 119 119 119 119 119 119 119 119 119 119 119 122 122 122 122 122 122 122 122 122 122 122 122 122 122 122 122 122 155 155 155 155 155 155 155 155 155 155 155 155 155 142 142 142 142 197 197 107 107 107 107 107 107 107 134 134 134 134 134 134 134 42 42 42 49 49 49 49 
162 162 162 162 162 162 164 164 164 164 164 164 164 164 164 100 100 100 100 103 103 103 103 103 103 103 103 103 103 103 103 103 103 103 103 126 126 126 126 126 126 126 126 126 126 126 126 126 126 126 126 126 126 126 126 126 119 119 119 119 119 119 119 119 119 119 119 119 119 119 119 122 122 122 122 122 122 122 122 122 122 122 122 122 122 122 155 155 155 155 155 155 155 155 155 155 155 155 142 142 142 142 142 142 197 197 107 107 107 107 107 107 134 134 134 134 134 134 134 134 42 42 42 42 49 49 49 
162 162 162 162 162 162 159 159 159 159 159 159 159 159 100 100 100 100 100 103 103 103 103 103 103 103 103 103 103 103 103 103 103 103 126 126 126 126 126 126 126 126 126 126 126 126 126 126 126 126 126 126 126 126 126 126 119 119 119 119 119 119 119 119 119 119 119 119 119 119 119 122 122 122 122 122 122 122 122 122 122 122 112 122 155 155 155 155 155 155 155 155 155 155 155 155 142 142 142 142 142 142 142 142 197 197 142 142 210 210 107 107 134 134 134 134 134 134 134 134 42 42 42 42 42 49 49 
162 162 162 162 162 159 159 159 159 159 159 159 159 159 100 100 100 100 100 103 103 103 103 103 103 103 103 103 103 103 103 103 103 103 126 126 126 126 126 126 126 126 126 126 126 126 126 126 126 126 126 126 126 126 126 126 119 119 119 119 119 119 119 119 119 119 119 119 119 119 119 119 122 122 122 122 122 122 122 122 122 122 112 155 155 155 155 155 155 155 155 155 155 155 155 155 142 142 142 142 142 142 142 142 142 142 142 142 210 210 107 134 134 134 134 134 134 134 134 134 42 42 42 42 42 42 49 
162 162 162 162 162 159 159 159 159 159 159 159 159 159 100 100 100 100 100 103 103 103 103 103 103 103 103 103 103 103 103 103 103 103 126 126 126 126 126 126 126 126 126 126 126 126 126 126 126 126 126 126 126 126 126 126 119 119 119 119 119 119 119 119 119 119 119 119 119 119 119 119 122 122 122 122 122 122 122 122 122 122 112 155 155 155 155 155 155 155 155 155 155 155 155 155 155 142 142 142 142 142 142 142 142 142 142 142 210 210 131 131 131 131 134 134 134 134 134 134 42 42 42 42 42 42 42 
162 162 159 159 159 159 159 159 159 159 159 159 159 159 159 100 100 100 103 103 103 103 103 103 103 103 103 103 103 103 103 103 103 126 126 126 126 126 126 126 126 126 126 126 126 126 126 126 126 126 126 126 126 126 126 126 119 119 119 119 119 119 119 119 119 119 119 119 119 119 119 119 119 122 122 122 122 122 122 122 122 122 112 155 155 155 155 155 155 155 155 155 155 155 155 155 155 142 142 142 142 142 142 142 142 142 145 145 210 210 131 131 131 105 105 105 134 134 134 134 42 42 42 42 42 42 42 
162 162 162 159 159 159 159 159 159 159 159 159 159 159 159 100 100 100 103 103 103 103 103 103 103 103 103 103 103 103 103 103 103 126 126 126 126 126 126 126 126 126 126 126 126 126 126 126 126 126 126 126 126 126 126 126 119 119 119 119 119 119 119 119 119 119 119 119 119 119 119 119 119 122 122 122 122 122 122 122 122 122 112 112 112 112 155 155 155 155 155 155 155 155 155 155 155 142 142 142 142 142 142 142 142 145 145 145 210 210 131 131 105 105 105 105 105 134 134 134 42 42 42 42 42 42 42 
162 162 162 159 159 159 159 159 159 159 159 159 159 159 159 100 100 100 100 100 100 100 100 100 100 100 100 100 100 100 100 100 100 126 126 126 126 126 126 126 126 126 126 126 126 126 126 126 126 126 126 126 126 126 126 119 119 119 119 119 119 119 119 119 119 119 119 119 119 119 119 119 119 119 122 122 122 122 122 122 122 122 112 112 112 112 155 155 155 155 155 155 155 155 155 155 142 142 142 142 142 142 142 145 145 145 145 145 145 145 206 105 105 105 105 105 105 134 134 134 42 42 42 42 42 42 55 
162 162 162 86 159 159 159 159 159 159 159 159 159 159 159 100 100 100 100 100 100 100 100 100 100 100 100 100 100 100 100 100 100 117 126 126 126 126 126 126 126 126 126 126 126 126 126 126 126 126 126 126 126 126 126 196 196 196 196 196 196 119 119 119 119 112 112 112 112 112 112 112 112 112 112 112 112 112 112 112 122 122 112 112 112 112 155 155 155 155 155 155 155 155 155 155 142 142 142 142 142 145 145 145 145 145 145 145 145 145 206 206 206 105 105 105 105 105 134 134 42 42 42 42 42 55 55 
162 162 162 86 86 86 159 159 159 159 159 159 126 126 126 126 86 86 86 86 86 86 86 86 86 86 86 86 86 86 86 86 117 117 117 126 126 126 126 126 126 126 126 126 126 126 126 126 126 126 126 126 126 126 126 196 196 196 196 196 196 119 119 119 119 112 112 112 112 112 112 112 112 112 112 112 112 112 112 112 112 122 112 112 112 112 155 155 155 155 155 155 155 155 155 155 141 141 142 145 145 145 145 145 145 145 145 145 145 145 206 206 206 206 182 105 105 105 42 42 42 42 42 42 55 55 55 
162 162 162 86 86 86 86 159 126 126 126 126 126 126 126 126 86 86 86 86 86 86 86 86 86 86 86 86 86 86 86 117 117 117 117 117 126 126 126 126 126 126 126 126 126 126 126 126 126 126 126 126 126 131 159 159 196 196 196 196 196 119 119 119 112 112 112 112 112 112 112 112 112 112 112 112 112 112 112 112 112 112 112 112 112 112 155 155 155 155 155 155 155 155 155 155 141 141 141 145 145 145 145 145 145 145 145 145 145 145 218 182 206 182 182 41 41 41 41 42 42 42 42 55 55 55 55 
162 162 162 86 86 86 86 86 126 126 126 126 126 126 126 126 86 86 86 86 86 86 86 86 86 86 86 86 86 86 86 117 117 117 117 117 117 126 126 126 126 126 126 126 126 126 126 126 126 126 131 131 131 131 159 159 159 196 196 196 196 119 119 119 112 112 112 112 112 112 112 112 112 112 112 112 112 112 112 112 112 112 112 112 112 112 112 155 155 155 155 155 155 155 155 141 141 141 141 141 145 145 145 145 145 145 145 145 145 218 218 218 182 182 41 41 41 41 41 41 42 42 55 55 55 55 55 
162 162 162 86 86 86 86 86 126 126 126 126 126 126 126 126 86 86 86 86 86 86 86 86 86 86 86 86 86 86 117 117 117 117 117 117 117 117 126 126 126 126 126 126 126 126 126 131 131 131 131 131 131 131 159 159 159 159 196 196 196 194 194 194 194 194 194 194 112 112 112 112 112 112 202 202 92 92 92 92 112 112 112 112 112 112 112 155 155 155 155 155 155 141 141 141 141 141 141 141 141 145 145 145 145 145 145 145 218 218 41 41 41 41 41 41 41 41 41 41 42 55 55 55 55 55 55 
162 162 162 86 86 86 86 86 126 126 126 126 126 126 126 126 86 86 86 86 86 86 86 86 86 86 86 86 86 117 117 117 117 117 117 117 117 117 117 126 126 126 126 126 131 131 131 131 131 131 131 131 131 131 159 159 159 159 159 196 196 194 194 194 194 194 194 194 112 112 112 112 112 202 202 202 92 92 92 92 92 92 112 112 112 112 112 155 155 155 155 141 141 141 141 141 141 141 141 141 141 141 145 145 145 145 145 145 218 218 45 41 41 41 41 41 41 41 41 41 41 82 82 55 55 55 55 
162 162 162 86 86 86 86 86 146 126 126 126 126 126 126 126 86 86 86 86 86 86 86 86 86 86 86 86 86 117 117 117 117 117 117 117 117 117 117 117 126 131 131 131 131 131 131 131 131 131 131 131 131 131 159 159 159 159 159 159 196 194 194 194 194 194 194 194 112 112 112 112 202 202 202 202 92 92 92 92 92 92 92 112 112 112 112 155 155 155 141 141 141 141 141 141 141 141 141 141 141 141 145 145 145 145 145 145 116 116 45 45 41 41 41 41 41 41 41 41 41 82 82 82 82 55 55 
162 162 162 86 86 86 86 86 146 146 126 126 126 126 126 126 86 86 86 86 86 86 86 86 86 86 86 86 117 117 117 117 117 117 117 117 117 117 117 117 117 131 131 131 131 131 131 131 131 131 131 131 131 131 159 159 159 159 159 159 159 159 194 194 194 194 194 194 112 112 112 202 202 202 202 202 92 92 92 92 92 92 92 112 112 112 146 146 146 141 141 141 141 141 141 141 141 141 141 141 141 141 141 145 145 145 145 145 45 45 45 45 45 41 41 41 41 41 41 41 58 82 82 82 82 140 140 
162 162 162 86 86 86 86 86 146 146 146 126 126 126 126 126 86 86 86 86 86 86 86 86 86 86 86 117 117 117 117 117 117 117 117 117 117 117 117 117 117 131 131 131 131 131 131 131 131 131 131 131 131 131 159 159 159 159 159 159 159 159 194 194 194 194 194 194 112 112 202 202 202 202 202 202 92 92 92 92 92 92 92 112 146 146 146 146 146 141 141 141 141 141 141 141 141 141 141 141 141 141 141 141 145 145 145 145 45 45 45 45 45 45 41 41 41 41 58 58 58 82 82 82 82 140 140 
162 162 86 86 86 86 86 86 146 146 146 146 126 126 126 126 86 86 86 86 86 86 86 86 86 86 117 117 117 117 117 117 117 117 117 117 117 117 117 117 117 117 131 131 131 131 131 131 131 131 131 131 131 131 159 159 159 159 159 159 159 159 194 194 194 194 194 194 112 202 202 202 202 202 202 202 202 202 92 92 92 92 146 146 146 146 146 146 146 141 141 141 141 141 141 141 141 141 141 141 141 141 141 141 141 145 145 145 45 45 45 45 45 45 45 45 58 58 58 58 58 82 82 82 82 140 140 
162 86 86 86 86 86 86 146 146 146 146 146 146 126 126 126 86 86 86 86 86 86 86 86 86 86 117 117 117 117 117 117 117 117 117 117 117 117 117 117 117 117 131 131 131 131 131 131 131 131 131 131 131 131 159 159 159 159 159 159 159 159 184 194 194 194 194 194 202 202 202 202 202 202 202 202 202 213 92 92 92 92 146 146 146 146 146 146 146 141 141 141 141 141 141 141 141 141 141 141 141 141 141 141 141 141 145 145 38 45 45 45 45 45 45 45 58 58 58 58 58 58 140 140 140 140 140 
162 86 86 86 86 86 146 146 146 146 146 146 146 146 126 126 86 86 86 86 86 86 86 86 86 117 117 117 117 117 117 117 117 117 117 117 117 117 117 117 117 117 117 131 131 131 131 131 131 131 131 131 131 131 159 129 129 159 184 184 184 184 184 184 194 194 194 194 202 202 202 202 202 202 202 202 213 213 92 92 92 147 146 146 146 146 146 146 146 146 146 146 44 44 141 141 141 141 124 124 124 124 153 153 153 153 153 153 38 38 45 45 45 45 45 58 58 58 58 58 58 58 58 140 140 140 140 
86 86 86 86 86 86 146 146 146 146 146 146 146 146 146 126 86 86 86 86 86 86 86 86 117 117 117 117 117 117 117 117 117 117 117 117 117 117 117 117 117 117 117 131 131 131 129 129 129 129 129 129 129 129 129 129 129 184 184 184 184 184 184 184 184 194 194 194 202 202 202 202 202 202 213 213 213 213 213 213 213 198 146 146 146 146 146 146 146 146 146 146 44 44 44 141 141 141 124 124 124 124 153 153 113 38 38 38 38 38 45 45 45 45 45 58 58 58 58 58 58 58 58 140 140 140 140 
93 93 93 86 86 146 146 146 146 146 146 146 146 146 146 85 85 86 86 86 86 86 86 86 117 117 117 117 117 117 117 117 117 117 117 117 117 117 117 117 117 117 117 117 129 129 129 129 129 129 129 129 129 129 129 129 129 184 184 184 184 184 184 184 184 184 194 194 202 202 202 202 202 213 213 213 213 213 213 213 198 198 146 146 146 146 146 146 146 146 146 146 44 44 44 44 124 124 124 124 124 124 113 113 113 38 38 38 38 38 45 45 45 45 49 58 58 58 58 58 58 58 58 58 140 140 140 
93 93 93 93 93 146 146 146 146 146 146 146 146 146 120 85 85 86 86 86 86 86 86 117 117 117 117 117 117 117 117 117 117 117 117 117 117 117 117 117 117 117 117 117 129 129 129 129 129 129 129 129 129 129 129 129 184 184 184 184 184 184 184 184 184 184 184 194 202 202 202 213 213 213 213 213 213 213 213 198 198 198 146 146 146 147 147 147 146 146 146 146 146 44 44 44 124 124 124 124 124 124 113 113 113 38 38 38 38 38 45 45 45 49 49 49 49 58 58 58 58 140 140 140 140 140 140 
93 93 93 93 93 93 146 146 146 146 146 146 146 120 120 85 85 86 86 86 86 86 117 117 117 117 117 117 117 117 117 117 117 117 117 117 117 117 117 117 117 117 117 117 129 129 129 129 129 129 129 129 129 129 129 129 184 184 184 184 184 184 184 184 184 184 184 184 202 202 213 213 213 213 213 213 213 213 198 198 198 198 61 61 147 147 147 147 147 147 146 146 146 44 44 44 45 124 124 124 124 218 113 113 113 38 38 38 38 38 45 49 49 49 49 49 49 49 58 58 58 154 154 140 140 140 140 
93 93 93 93 93 93 93 146 146 146 146 146 120 120 120 85 85 86 86 86 86 117 117 117 117 117 117 117 117 117 117 117 117 117 117 117 117 117 117 117 117 117 117 117 129 129 129 129 129 129 129 129 129 129 129 184 184 184 184 184 184 184 184 184 184 184 184 184 185 185 213 213 213 213 213 213 213 213 198 198 198 61 61 61 123 147 147 147 147 153 146 146 146 44 44 45 45 45 124 124 124 218 218 113 113 113 38 38 38 38 49 49 49 49 49 49 49 49 49 58 58 154 154 154 140 140 140 
93 93 93 93 93 93 93 93 146 146 146 120 120 120 120 85 85 86 86 86 86 117 117 117 117 117 117 117 117 117 117 117 117 117 117 117 117 117 117 117 117 117 117 117 129 129 129 129 129 129 129 129 129 129 129 184 184 184 184 184 184 184 184 184 184 184 185 185 185 185 185 213 213 213 213 213 213 213 198 198 198 61 61 123 123 123 147 147 153 153 146 146 52 213 45 45 45 45 124 124 124 218 218 218 113 113 47 47 38 38 49 49 49 49 49 49 49 49 49 49 58 154 154 154 154 140 140 
93 93 93 93 93 93 93 93 146 146 120 120 120 120 120 85 85 85 85 85 85 85 85 85 85 117 117 117 117 117 117 117 117 117 117 117 117 117 117 117 117 117 117 117 129 129 129 129 129 129 129 129 129 129 129 184 184 184 184 184 184 184 184 184 184 185 185 185 185 185 185 185 185 213 213 213 213 213 198 198 198 207 123 123 123 123 123 153 153 153 153 52 52 213 213 185 185 185 185 185 185 185 223 218 218 113 47 47 38 38 49 49 49 49 49 49 49 49 49 49 49 154 154 154 154 140 140 
93 93 93 93 93 93 93 93 146 120 120 120 120 120 120 120 85 85 85 85 85 85 85 85 85 85 87 87 87 117 117 117 117 117 117 117 117 117 117 117 117 117 117 117 129 129 129 129 129 129 129 129 129 129 129 184 184 184 184 184 184 184 184 184 185 185 185 185 185 185 185 185 185 185 185 213 213 213 207 207 207 207 207 123 123 123 123 153 153 153 153 52 52 213 213 213 185 185 185 185 185 185 223 218 218 47 47 47 47 47 47 49 49 49 49 49 49 154 154 154 154 154 154 154 154 140 140 
93 93 93 93 93 93 93 93 120 120 120 120 120 120 120 120 85 85 85 85 85 85 85 85 85 87 87 87 87 117 117 117 117 117 117 117 117 117 117 117 117 119 119 119 119 129 129 129 129 129 129 129 129 129 129 184 184 184 184 184 184 184 184 184 185 185 185 185 185 185 185 185 185 185 185 207 207 207 207 207 207 207 207 207 123 123 123 153 153 153 153 153 52 213 213 213 185 185 185 185 185 223 223 47 47 47 47 47 47 47 47 49 49 49 49 49 49 154 154 154 154 154 154 154 154 140 140 
93 93 93 93 93 93 93 96 153 120 120 120 120 120 120 120 85 85 85 85 85 85 85 85 85 87 87 87 87 117 117 117 117 117 117 117 117 119 119 119 119 119 119 119 119 129 129 129 129 129 129 129 129 129 129 184 184 184 184 184 184 184 184 185 185 185 185 185 185 185 185 185 185 185 185 207 207 207 207 207 207 207 177 153 153 153 153 153 153 153 153 213 213 213 213 213 213 213 185 185 185 223 223 47 47 47 47 47 47 47 47 58 49 49 49 49 49 154 154 154 154 154 154 154 154 140 140 
93 93 93 93 93 93 96 96 153 153 174 120 120 120 120 120 85 85 85 85 85 85 85 85 87 87 87 87 87 87 117 117 119 119 119 119 119 119 119 119 119 119 119 119 119 119 129 129 129 129 129 129 129 129 129 184 184 184 184 184 184 184 184 185 185 185 185 185 185 185 185 185 185 185 185 185 207 207 207 207 207 207 177 177 153 153 153 153 153 153 183 183 213 213 213 213 213 213 185 185 223 223 223 223 223 47 47 47 47 47 58 58 58 145 49 49 49 154 154 154 154 154 154 154 154 140 140 
93 93 93 93 93 93 96 96 153 153 174 174 174 174 91 91 91 91 91 91 91 91 91 91 87 87 87 87 87 87 222 119 119 119 119 119 119 119 119 119 119 119 119 119 119 119 129 129 129 129 129 129 129 129 129 184 184 184 184 184 184 184 185 185 185 185 185 185 185 185 185 185 185 185 185 185 177 177 207 207 207 207 177 177 177 183 183 183 183 183 183 183 183 213 213 213 213 213 185 204 223 223 223 223 223 47 47 47 47 58 58 58 58 145 145 145 145 154 154 154 154 154 154 154 154 140 140 
93 93 93 93 93 93 96 96 153 153 174 174 174 174 91 91 91 91 91 91 91 91 91 87 87 87 87 87 87 87 222 222 119 119 119 119 119 119 119 119 119 119 119 119 119 119 119 129 129 129 129 129 129 129 129 184 184 184 184 184 184 185 185 185 185 185 185 185 185 185 185 185 185 185 185 185 177 177 177 177 177 177 177 177 177 177 183 183 183 183 183 183 183 183 213 213 213 213 204 204 204 204 204 204 223 47 47 47 58 58 58 58 58 145 145 145 145 145 154 154 154 154 154 154 154 140 140 
93 93 93 93 93 93 96 96 153 153 174 174 174 174 91 91 91 91 91 91 91 91 91 87 87 87 87 87 87 87 222 222 119 119 119 119 119 119 119 119 119 119 119 119 119 119 119 119 129 129 129 129 129 129 129 152 184 184 184 184 152 152 152 185 185 185 185 185 185 185 185 185 185 185 185 185 177 177 177 177 177 177 177 177 177 177 183 183 183 183 183 183 183 183 183 213 213 204 204 204 204 204 204 204 41 41 41 41 58 58 58 58 58 145 145 145 145 145 145 154 154 154 154 154 154 140 140 
93 93 93 93 93 93 96 96 153 153 153 174 174 174 174 91 91 91 91 91 91 91 91 87 87 87 87 87 87 87 222 119 119 119 119 119 119 119 119 119 119 119 119 119 119 119 119 124 124 124 124 124 124 124 124 152 152 152 152 152 152 152 152 152 185 185 185 185 185 185 185 185 185 185 185 185 177 177 177 177 177 177 177 177 177 177 183 183 183 183 183 183 183 183 183 183 213 172 204 204 204 204 204 204 41 41 41 41 58 58 58 58 58 145 145 145 145 145 145 145 145 154 154 154 154 140 140 
93 93 93 104 104 104 96 96 153 153 153 174 174 174 174 174 91 91 91 91 91 91 91 87 87 87 87 87 87 87 222 119 119 119 119 119 119 119 119 119 119 119 119 119 119 119 124 124 124 124 124 124 124 124 124 152 152 152 152 152 152 152 152 152 185 185 185 185 185 185 185 185 185 185 185 177 177 177 177 177 177 177 177 177 177 177 177 183 183 183 183 183 183 183 201 201 172 172 204 204 204 172 41 41 41 41 41 41 41 58 145 145 145 145 145 145 145 145 145 145 145 145 154 154 154 140 140 
93 93 93 104 104 104 96 153 153 153 153 174 174 174 174 174 91 91 91 91 91 91 91 87 87 87 87 87 87 87 222 222 119 119 119 119 119 119 119 119 119 119 119 119 119 118 124 124 124 124 124 124 124 124 124 124 152 152 152 152 152 152 152 152 152 185 185 185 185 185 185 185 185 162 162 162 177 177 177 177 177 177 177 177 177 177 177 183 183 183 183 183 201 201 201 201 172 172 172 172 172 172 172 41 41 41 41 41 57 58 145 145 145 145 145 145 145 145 145 145 145 145 145 145 154 140 140 
93 93 93 104 104 104 96 153 153 153 153 174 174 174 174 174 91 91 91 91 91 91 91 87 87 87 87 87 87 87 222 222 119 119 119 119 119 119 119 119 119 119 119 118 118 118 124 124 124 124 124 124 124 124 124 124 152 152 152 152 152 152 152 152 152 149 149 149 149 149 185 185 162 162 162 162 162 177 177 177 177 177 177 177 177 177 177 201 201 201 201 201 201 201 201 201 201 86 157 172 172 172 172 172 41 41 41 57 57 58 123 145 145 145 145 145 145 145 145 145 145 145 145 145 145 151 151 
93 93 93 104 104 104 96 153 153 153 153 174 174 174 174 174 91 91 91 91 91 91 100 100 100 87 87 87 87 87 222 222 119 119 119 119 119 119 119 119 118 118 118 118 118 118 124 124 124 124 124 124 124 124 124 124 152 152 152 152 152 152 152 152 152 149 149 149 149 149 162 162 162 162 162 162 162 162 177 177 177 177 177 177 177 177 201 201 201 201 201 201 201 201 201 201 201 86 157 157 157 172 38 38 38 38 57 57 57 57 123 123 123 145 145 145 145 145 145 145 145 145 145 145 145 151 151 
93 93 93 104 104 104 96 153 153 153 153 153 174 174 174 174 91 91 91 91 91 100 100 100 100 100 100 100 87 87 222 222 185 185 185 119 119 119 118 118 118 118 118 118 118 118 124 124 124 124 124 124 124 124 124 124 152 152 152 152 152 152 152 152 152 149 149 149 149 149 162 162 162 162 162 162 162 162 162 177 177 177 177 177 177 201 201 201 201 201 201 201 201 201 201 201 201 86 86 157 157 38 38 38 38 38 57 57 57 57 123 123 123 123 145 145 145 145 145 145 145 145 145 145 145 151 151 
93 93 93 104 104 104 96 153 153 153 153 172 172 172 172 90 91 91 91 91 91 100 100 100 100 100 100 100 100 100 185 185 185 185 185 118 118 118 118 118 118 118 118 118 118 118 118 124 124 124 124 124 124 124 124 124 124 152 152 152 152 152 152 152 152 152 149 149 149 149 162 162 162 162 162 162 162 162 162 162 177 177 177 177 201 201 201 201 201 201 201 97 97 201 201 201 86 86 86 190 157 38 38 41 41 57 57 57 57 57 123 123 123 123 145 145 145 145 145 145 145 145 145 145 145 151 151 
93 93 93 104 104 104 104 104 153 172 172 172 172 172 172 90 91 91 91 91 100 100 100 100 100 100 100 100 100 100 185 185 185 185 185 118 118 118 118 118 118 118 118 118 118 118 118 124 124 124 124 124 124 124 124 124 124 124 152 152 152 152 152 152 79 79 79 79 149 149 46 46 46 162 162 162 162 162 162 162 177 177 177 201 201 201 201 201 201 201 201 97 97 97 97 97 86 86 190 190 190 41 41 41 41 41 57 57 57 57 123 123 123 123 145 145 145 145 145 145 145 145 145 145 145 151 151 
93 93 93 104 104 104 104 104 172 172 172 172 172 172 172 90 91 91 91 100 100 100 100 100 100 100 100 100 100 100 100 100 100 185 185 118 118 118 118 118 118 118 118 118 118 118 112 112 62 124 124 124 124 124 124 124 124 124 152 152 152 152 152 79 79 79 79 79 79 149 149 46 46 190 162 162 162 162 162 162 177 177 201 201 201 201 201 201 201 201 201 97 97 97 97 97 97 86 190 190 41 41 41 41 41 41 45 57 57 57 123 123 123 123 145 145 145 145 145 145 145 145 145 145 145 151 151 
93 93 93 104 104 104 104 104 172 172 172 172 172 172 172 90 90 90 90 90 90 90 100 100 100 100 100 100 100 100 100 100 92 185 185 118 118 118 118 118 118 118 118 118 118 112 112 112 62 62 124 124 124 124 124 124 124 57 57 57 152 152 152 79 79 79 79 79 79 79 149 46 190 190 162 162 162 162 162 192 177 201 201 192 88 201 201 201 201 201 201 201 97 97 97 97 179 179 44 44 44 41 41 41 41 45 45 45 57 57 123 163 163 163 145 145 145 145 145 145 145 145 145 151 151 151 151 
93 93 93 104 104 104 104 104 172 172 172 172 172 172 172 172 90 90 90 90 90 90 100 100 100 100 100 100 100 100 100 92 92 185 185 198 118 118 118 118 118 118 118 118 112 112 112 112 62 62 62 124 124 124 124 124 57 57 57 57 57 57 57 79 79 79 79 190 190 190 190 190 190 190 162 162 162 162 192 192 192 192 192 192 88 88 201 201 201 107 107 107 174 179 179 179 179 44 44 44 44 44 41 41 45 45 45 45 130 163 163 163 163 163 145 145 145 145 145 145 145 145 151 151 151 151 151 
93 93 93 104 104 104 104 104 104 172 172 172 172 172 172 172 90 90 90 90 90 90 100 100 100 100 100 100 100 100 92 92 92 185 198 198 103 118 118 118 118 118 118 118 112 112 112 112 62 62 62 62 124 124 124 57 57 57 57 57 57 57 57 79 79 79 79 167 190 190 190 190 190 190 162 162 162 162 192 192 192 192 192 192 88 88 88 201 201 107 107 174 174 174 179 179 179 44 44 44 44 44 41 45 45 45 45 45 130 163 163 163 163 163 145 145 145 145 145 145 145 151 151 151 151 151 151 
93 93 93 104 104 104 104 104 104 172 172 172 172 172 172 172 90 90 90 90 90 90 90 100 100 100 100 100 100 92 92 92 92 198 198 198 103 103 118 118 118 118 118 112 112 112 112 112 62 62 62 62 62 124 124 57 57 57 57 57 57 57 75 75 75 75 79 167 167 190 190 190 190 190 162 162 162 192 192 192 192 192 192 192 88 88 88 88 201 107 174 174 174 174 174 179 179 44 44 44 44 44 44 45 45 45 45 130 130 130 163 163 163 163 145 145 145 145 145 151 151 151 151 151 151 151 151 
93 93 93 104 104 104 104 104 104 162 162 172 172 172 140 140 94 90 90 90 90 90 90 100 100 100 100 100 92 92 92 92 92 198 198 198 103 103 103 118 118 118 113 113 112 112 112 112 62 62 62 62 62 62 124 57 57 57 57 57 57 57 75 75 75 75 75 167 167 167 190 190 190 190 190 190 190 190 190 190 204 204 204 204 204 88 88 123 123 123 174 174 174 174 59 59 179 44 44 44 44 44 45 45 130 130 45 130 130 130 163 163 163 145 145 145 145 145 151 151 151 151 151 151 151 151 151 
93 93 93 104 104 104 87 104 162 162 162 162 140 140 140 140 94 94 94 94 94 94 94 100 100 100 100 100 92 92 92 92 92 198 198 198 103 103 103 118 118 113 113 113 112 112 112 112 62 62 62 62 62 62 62 62 57 57 57 57 57 75 75 75 75 75 75 167 167 167 167 190 190 190 190 190 190 190 190 204 204 204 204 204 204 88 88 123 123 123 123 174 174 59 59 59 59 59 44 44 44 44 45 45 130 130 130 130 130 130 163 163 163 145 145 145 151 151 151 151 151 151 151 151 151 151 151 
82 82 82 104 104 104 87 162 162 162 162 162 140 140 140 140 94 94 94 94 94 94 94 94 100 100 100 100 92 92 92 92 92 223 198 198 103 103 103 113 113 113 113 113 113 112 112 112 62 62 62 62 62 62 62 62 57 57 57 57 75 75 75 75 75 75 75 167 167 167 167 167 190 190 190 190 190 190 204 204 204 204 204 204 204 88 123 123 123 123 123 123 174 59 59 59 59 59 59 44 44 44 45 45 130 130 130 130 130 130 130 163 163 145 145 151 151 151 151 151 151 151 151 151 151 151 151 
82 82 82 104 104 104 87 162 162 162 162 162 140 140 140 140 94 94 94 94 94 94 94 94 94 100 100 100 92 92 92 92 223 223 223 198 103 103 103 113 113 113 113 113 113 113 112 112 62 62 62 62 62 62 62 68 38 38 38 38 38 75 75 75 75 167 167 167 167 167 167 167 167 190 190 190 190 190 204 204 204 204 204 204 204 49 49 49 123 123 123 123 43 43 43 43 43 43 43 44 44 44 44 44 121 121 130 130 130 130 130 163 163 151 151 151 151 151 151 151 151 151 151 151 151 151 151 
82 82 82 104 104 104 87 87 162 162 162 162 162 140 140 140 94 94 94 94 94 94 94 94 94 92 92 92 92 92 92 112 223 223 223 113 113 103 103 113 113 113 113 113 113 113 113 112 62 62 62 62 62 62 68 68 38 38 38 38 38 38 75 75 75 167 167 167 167 167 167 167 167 190 177 177 177 204 204 204 204 204 204 204 204 49 49 49 49 123 123 43 43 43 43 43 43 43 43 44 44 44 44 44 121 121 164 164 164 164 164 163 163 151 151 151 151 151 151 151 151 151 151 151 151 151 151 
82 82 82 104 104 104 87 87 162 162 162 162 162 140 140 140 94 94 94 94 94 94 94 94 94 92 112 112 112 112 112 112 223 223 113 113 113 113 78 78 78 78 78 78 78 78 78 78 62 62 62 62 62 68 68 68 38 38 38 38 38 38 75 75 75 167 167 167 167 167 167 167 167 177 177 177 177 177 204 204 204 204 204 204 204 49 49 49 49 123 115 115 115 43 43 43 43 43 43 44 44 44 44 44 121 121 164 164 164 164 164 164 163 151 151 151 151 151 151 151 151 151 151 151 151 151 151 
82 82 82 104 104 104 87 87 162 162 162 162 162 140 140 140 94 94 94 94 94 94 94 94 94 112 112 112 112 112 112 112 112 223 223 113 113 113 126 78 78 78 78 78 78 78 78 78 62 62 62 68 68 68 68 68 38 38 38 38 38 38 38 75 75 167 167 167 167 167 167 167 177 177 177 177 177 177 204 204 204 204 204 204 204 49 49 49 49 115 115 115 115 43 43 43 43 43 44 44 44 44 44 44 121 121 164 164 164 164 164 164 163 151 151 151 151 151 151 151 151 151 151 151 151 151 151 
82 82 82 104 104 104 87 87 168 168 168 168 168 168 140 140 94 94 94 94 94 94 94 94 94 112 112 112 112 112 112 112 112 112 223 223 113 113 126 126 78 78 78 78 78 78 78 78 78 62 68 68 68 68 68 68 68 120 120 120 120 120 120 120 120 167 167 167 167 167 167 177 177 177 177 177 177 177 177 204 204 204 204 204 204 49 49 49 49 49 115 115 115 67 67 67 67 67 44 44 44 44 44 44 121 121 164 164 164 164 164 164 163 151 151 151 151 151 151 151 151 151 151 151 151 151 151 
82 82 82 104 104 104 87 168 168 168 168 168 168 168 168 140 94 99 99 99 99 99 99 99 108 112 112 112 112 112 112 112 112 97 97 97 97 126 126 126 126 78 78 78 78 78 78 78 78 68 68 68 68 68 68 68 68 68 120 120 120 120 120 120 120 140 167 167 167 167 177 177 177 177 177 177 177 177 177 204 204 204 204 204 204 200 103 49 49 115 115 115 115 67 67 67 67 67 44 44 44 44 44 44 121 121 164 164 164 164 164 163 163 151 151 151 151 151 151 151 151 151 151 151 151 151 151 
82 82 82 104 104 104 168 168 168 168 168 168 168 168 168 168 99 99 99 99 99 99 99 99 108 108 112 112 112 112 112 97 97 97 97 97 97 126 126 126 126 71 78 78 78 78 78 78 78 68 68 68 68 68 68 68 68 68 120 120 120 120 120 120 140 140 167 167 167 177 177 177 177 177 177 177 177 177 177 177 204 204 204 204 204 200 103 103 103 103 115 115 67 67 67 67 67 67 67 44 44 44 44 44 121 121 164 164 164 164 164 164 164 164 164 164 164 132 132 132 132 132 132 151 151 151 151 
82 82 82 104 104 104 87 87 168 168 168 168 168 168 142 142 99 99 99 99 99 99 99 108 108 108 108 112 112 112 112 97 97 97 97 97 126 126 126 126 71 71 71 78 78 78 78 78 68 68 68 68 68 68 68 68 68 68 68 195 173 173 120 140 140 140 167 167 177 177 177 177 177 177 177 177 177 177 177 177 177 204 204 204 200 200 200 103 103 103 103 67 67 67 67 67 67 67 67 44 44 44 44 44 121 121 164 164 164 164 164 164 164 164 164 164 164 132 132 132 132 132 132 151 151 151 151 
82 82 82 104 104 104 87 87 168 168 168 168 168 142 142 142 99 99 99 99 99 99 99 108 108 108 108 108 112 112 112 97 97 97 97 126 126 126 126 71 71 71 71 71 78 78 78 78 68 68 68 68 68 68 68 68 68 68 195 195 173 173 68 140 140 140 167 177 177 177 177 177 177 177 177 177 177 177 177 177 177 204 204 204 200 200 103 103 103 45 45 45 67 67 67 67 67 67 44 44 44 44 44 44 144 121 164 164 164 164 164 164 164 164 164 164 132 132 132 132 132 132 132 151 151 151 151 
82 82 82 104 104 104 87 92 168 168 168 168 142 142 142 142 99 99 99 99 99 99 108 108 108 108 108 108 108 108 112 137 97 97 97 126 126 126 71 71 71 71 71 71 78 78 78 78 68 68 68 68 68 68 68 68 68 195 195 195 173 173 68 68 140 140 140 140 140 39 39 39 177 177 177 177 177 177 207 207 207 72 72 72 72 72 103 103 103 45 45 45 177 67 67 67 67 67 44 44 44 44 44 44 144 144 144 164 164 164 164 164 164 164 164 132 132 132 132 132 132 132 132 132 151 151 151 
82 82 82 82 82 82 87 92 137 142 142 142 142 142 142 142 99 99 99 99 99 99 108 108 108 108 108 108 108 108 108 137 137 137 126 126 126 126 71 71 71 71 71 78 78 78 89 89 89 89 68 68 68 68 68 68 195 195 195 195 173 173 173 68 68 140 140 140 39 39 39 39 108 108 177 177 177 207 207 207 103 72 72 72 72 72 72 45 45 45 45 45 45 177 177 67 67 44 44 44 44 44 44 44 144 144 144 144 164 164 164 164 164 164 164 132 132 132 132 132 132 132 132 132 151 151 151 
82 82 82 82 82 82 87 92 137 137 142 142 142 142 142 142 99 99 99 99 99 108 108 108 108 108 108 108 108 108 108 137 137 137 137 126 126 126 71 71 71 71 71 78 89 89 89 89 89 89 89 89 68 68 68 195 195 195 195 195 195 173 68 68 68 85 85 176 176 39 39 39 108 108 177 177 207 207 207 207 103 103 72 72 72 72 45 45 45 45 45 45 45 177 63 67 67 44 44 44 44 44 44 44 144 144 144 144 144 144 144 144 144 144 144 128 132 132 132 132 132 132 132 132 186 186 186 
82 82 82 82 82 82 87 92 137 137 137 142 142 142 142 142 99 99 99 99 99 108 108 108 108 108 108 108 108 108 108 137 137 137 137 137 126 126 71 71 71 71 71 89 89 89 89 89 89 89 89 89 89 89 193 193 195 195 195 195 195 68 68 68 68 85 85 176 176 176 39 108 108 108 177 207 207 207 207 207 103 103 103 116 72 45 45 45 45 44 44 44 174 63 63 63 63 63 44 44 44 44 144 144 144 144 144 144 144 144 144 144 144 144 128 128 132 132 132 132 132 132 132 132 186 186 186 
82 82 82 82 82 82 82 92 137 137 137 184 184 142 142 142 99 99 99 99 108 108 108 108 108 108 108 108 108 108 207 137 137 137 137 137 137 126 71 71 71 71 71 89 89 89 89 89 89 89 89 89 89 89 193 193 193 193 195 195 131 131 68 68 85 85 85 85 176 176 176 108 108 108 108 108 108 189 207 103 103 116 116 116 45 45 45 45 45 44 44 44 174 174 63 57 57 44 44 44 44 44 144 144 144 144 144 144 144 144 144 144 144 128 128 128 132 132 132 132 132 132 132 132 186 186 186 
82 82 82 82 82 82 82 92 137 137 137 184 184 184 184 104 104 104 104 104 108 108 108 108 108 108 108 108 108 108 207 207 108 108 87 71 71 71 71 71 71 71 71 89 89 89 89 89 89 89 89 89 89 89 193 193 193 80 80 131 131 131 131 131 131 131 85 176 176 176 176 108 108 108 108 108 189 189 207 103 103 189 116 116 116 45 45 45 45 44 44 44 63 63 63 57 57 57 44 44 44 44 144 144 144 144 144 144 144 144 144 144 128 128 128 132 132 132 132 132 132 132 132 132 132 186 186 
82 82 82 82 82 82 82 92 137 137 137 184 184 184 184 104 104 104 104 104 108 108 108 108 108 108 108 108 108 108 41 41 41 87 87 87 87 71 71 71 71 71 71 89 89 89 89 89 89 89 89 89 89 89 193 193 193 80 80 80 131 131 131 131 131 173 173 176 176 176 176 108 108 108 108 108 189 189 189 189 103 189 189 116 116 45 45 45 45 44 44 44 161 161 161 57 57 57 57 44 44 44 144 144 144 144 144 144 144 144 144 128 128 128 128 128 132 132 132 132 132 132 132 132 186 186 186 
82 82 82 82 82 82 82 92 137 137 137 184 184 184 184 104 104 104 104 104 104 108 108 108 108 108 108 108 108 108 41 41 41 87 87 87 87 87 71 71 71 71 71 89 89 89 89 89 89 89 89 89 89 89 89 193 193 80 80 80 131 131 131 131 173 173 173 173 176 176 176 108 108 108 108 189 189 189 189 189 189 189 189 116 116 45 45 45 48 48 48 161 161 161 57 57 57 57 43 43 43 43 122 144 144 144 144 144 144 144 128 128 128 128 128 128 128 132 132 132 132 132 186 186 186 186 186 
82 82 82 82 82 82 92 92 184 184 184 184 184 184 104 104 104 104 104 104 104 108 108 108 108 108 108 108 108 87 41 41 41 87 87 87 87 87 71 71 71 37 37 37 37 37 37 37 37 37 89 89 89 195 195 195 80 80 80 80 80 131 131 173 173 173 173 173 173 173 176 108 108 189 189 189 189 189 189 189 189 189 189 189 116 128 45 48 48 48 48 48 161 161 57 57 57 57 43 43 43 43 122 122 122 122 144 144 144 128 128 128 128 128 128 128 128 189 132 132 186 186 186 186 186 186 186 
82 82 82 82 82 82 92 92 137 184 184 184 184 184 104 104 104 104 104 104 104 108 108 108 108 108 108 108 87 87 41 87 87 87 87 87 87 87 71 71 37 37 37 37 37 37 37 37 37 37 37 89 195 195 195 195 195 116 116 116 116 131 173 173 173 173 173 173 173 173 173 108 108 189 189 189 189 189 189 189 189 189 189 189 128 128 128 48 48 48 48 48 161 166 57 57 57 43 43 43 43 43 122 122 122 122 122 122 128 128 128 128 128 128 128 128 128 189 189 186 186 186 186 186 186 186 186 
82 82 82 82 82 82 92 92 137 137 184 184 184 184 104 104 104 104 104 104 104 104 108 108 108 108 108 108 87 87 87 87 87 87 87 87 87 87 71 37 37 37 86 86 29 37 37 37 37 37 37 197 197 195 195 116 116 116 116 116 116 116 173 173 173 173 173 173 173 173 173 173 173 132 132 132 189 189 189 189 189 189 189 128 128 128 128 128 48 48 48 48 166 166 57 57 57 43 43 43 43 43 122 122 122 122 122 122 128 128 128 128 128 128 128 128 128 189 189 189 186 186 186 186 186 186 186 
82 82 82 82 82 82 48 92 137 137 137 184 184 184 165 165 104 104 104 104 104 74 108 108 108 87 87 87 87 87 87 87 87 87 87 87 87 87 87 86 86 86 86 86 29 29 29 120 120 120 120 197 197 50 50 116 116 116 116 116 116 173 173 173 173 173 173 173 173 173 173 173 132 132 132 132 189 189 189 189 189 189 128 128 128 128 128 128 48 48 48 166 166 166 57 57 43 43 43 122 122 122 122 122 122 122 122 122 128 128 128 128 128 128 128 128 128 189 189 189 189 186 186 186 186 186 186 
82 82 82 82 82 82 48 48 137 137 137 137 165 165 165 165 165 74 74 74 74 74 74 74 108 87 87 87 87 87 87 87 87 87 87 87 87 87 86 86 86 86 86 86 29 29 29 29 120 120 120 197 197 50 50 116 116 116 116 116 116 173 173 173 173 173 173 173 173 173 173 173 132 132 132 132 189 189 189 189 189 128 128 128 128 128 128 128 43 43 48 166 134 134 134 28 28 43 43 122 122 122 122 122 122 122 122 122 128 128 128 128 128 128 128 128 128 189 189 189 189 189 186 186 186 186 186 
82 82 82 82 82 82 48 48 137 137 137 137 165 165 165 165 165 74 74 74 74 74 74 74 74 74 87 87 87 87 87 87 87 87 87 87 87 87 86 86 86 86 86 86 86 29 29 29 157 200 200 197 197 50 116 116 116 116 116 116 116 173 173 173 173 173 173 173 173 173 173 132 132 132 132 132 132 132 132 180 128 128 128 128 128 128 128 128 128 43 43 134 134 134 134 28 28 28 43 122 122 122 122 122 122 122 122 128 128 128 128 128 128 128 128 128 128 189 189 189 189 189 189 186 186 186 186 
82 82 82 82 82 48 48 137 137 137 137 165 165 165 165 165 74 74 74 74 74 74 74 74 74 74 87 87 87 87 87 87 87 87 87 87 87 87 86 86 86 86 86 86 86 29 29 29 157 200 200 200 197 50 116 116 116 116 116 116 116 148 148 148 173 173 173 173 173 173 132 132 132 132 132 132 132 132 132 180 180 128 128 128 128 128 128 128 43 43 43 134 48 134 134 28 28 28 28 122 122 122 122 122 122 122 122 128 128 128 128 128 128 128 128 128 128 189 189 189 189 189 189 189 186 186 186 
82 82 82 82 82 48 48 137 137 137 137 165 165 165 165 165 74 74 74 74 74 74 74 74 74 74 87 87 87 87 87 87 87 87 87 87 87 86 86 86 86 86 86 86 86 29 29 29 157 200 200 45 45 45 119 119 116 116 116 148 148 148 148 148 148 148 148 148 173 132 132 132 132 132 132 132 132 132 132 180 180 180 128 128 128 128 128 43 43 43 43 48 48 171 134 28 28 28 146 146 146 146 146 146 146 122 122 128 128 128 128 128 128 128 128 128 189 189 189 189 189 189 189 189 186 186 186 
82 82 82 82 82 48 48 137 137 137 137 165 165 165 165 165 74 74 74 74 74 74 74 74 74 74 78 78 87 87 87 87 87 87 87 87 87 86 86 86 86 86 86 86 86 47 169 29 177 177 45 45 45 45 119 119 119 116 148 148 148 148 148 148 148 148 148 148 148 132 132 132 132 132 132 132 132 132 132 180 180 180 128 128 128 128 43 43 43 43 43 48 48 171 171 28 28 146 146 146 146 146 146 146 146 146 146 128 128 128 128 128 128 128 128 128 189 189 189 189 189 189 189 189 186 186 186 
82 82 82 82 82 48 48 137 137 137 137 168 168 168 168 168 74 74 74 74 74 74 74 74 74 78 78 78 78 78 78 78 87 87 87 65 65 65 65 86 86 86 86 86 47 47 169 169 177 177 52 45 45 45 119 119 119 148 148 148 148 148 148 148 148 148 148 148 148 132 132 132 132 132 132 132 132 132 180 180 180 180 128 128 53 53 43 43 43 43 48 48 48 171 171 28 146 146 146 146 146 146 146 146 146 146 146 128 128 128 128 128 128 128 128 128 189 189 189 189 189 189 189 189 186 186 186 
82 82 82 82 82 83 83 151 151 137 168 168 168 168 168 168 168 74 74 74 74 74 74 74 74 78 78 78 78 78 78 78 78 65 65 65 65 65 65 65 65 86 86 47 47 47 124 52 52 52 52 52 49 49 119 119 119 148 148 148 148 148 148 148 148 148 148 148 148 148 132 132 132 132 132 132 132 180 180 180 180 180 128 128 53 53 53 43 43 43 48 48 48 171 63 63 63 63 146 146 146 146 146 146 146 146 146 128 128 128 128 128 128 128 189 189 189 189 189 189 189 189 189 189 186 186 186 
82 82 82 82 82 83 83 151 151 151 151 168 168 168 168 168 168 168 74 74 74 74 74 74 78 78 78 78 78 78 78 78 78 65 65 65 65 65 65 65 65 65 175 47 47 47 124 124 52 52 52 52 49 49 119 119 119 119 119 148 148 148 148 148 148 148 148 148 148 148 132 132 132 132 132 180 180 180 180 180 180 180 128 128 53 53 53 53 43 43 48 66 66 66 63 63 63 63 146 146 146 146 146 146 146 146 146 146 128 128 128 128 128 128 189 189 189 189 189 189 189 189 189 189 186 186 186 
82 82 82 82 82 83 83 151 151 151 151 168 168 168 168 168 168 74 74 74 74 74 74 78 78 78 78 78 78 78 78 78 78 65 65 65 65 65 65 65 65 65 175 175 47 47 124 124 124 52 49 49 49 49 119 119 119 119 119 148 148 148 148 148 148 148 148 148 148 148 132 132 132 132 132 178 180 180 180 180 180 128 128 128 53 53 53 53 53 53 43 43 43 43 63 63 63 63 63 146 146 146 146 146 146 146 146 157 157 157 157 128 128 128 189 189 189 189 189 189 189 189 189 189 178 178 178 
82 82 82 82 82 83 83 151 151 151 151 151 168 168 168 168 168 74 74 74 74 74 74 78 78 78 78 78 78 78 78 78 78 65 65 65 65 65 65 65 65 175 175 175 175 47 124 124 124 52 49 49 49 49 119 119 119 119 119 148 148 148 148 148 148 148 148 148 148 178 178 178 178 178 178 178 178 180 180 180 180 128 128 128 53 53 53 53 53 43 43 43 43 66 66 63 63 63 63 146 146 146 146 146 146 146 146 157 157 157 157 157 157 157 206 206 206 189 189 189 189 189 189 189 178 178 178 
82 82 82 82 82 83 83 83 151 151 151 151 168 168 168 168 168 74 74 74 74 74 78 78 78 78 78 78 78 78 78 78 78 78 78 65 65 65 65 65 65 175 175 175 57 57 57 57 57 57 57 66 66 49 119 119 119 119 119 119 148 148 148 148 148 148 148 148 148 178 178 178 178 178 178 178 178 178 180 180 123 123 123 42 42 53 53 53 53 43 43 43 43 66 66 160 160 160 63 146 146 146 146 146 146 146 157 157 157 157 157 157 157 157 206 206 206 189 189 189 189 189 189 189 178 178 178 
51 51 51 51 51 83 83 83 151 151 151 151 168 168 120 120 120 74 74 74 74 74 78 78 78 78 78 78 78 78 78 78 78 78 78 78 78 134 65 65 175 175 175 106 50 57 57 57 57 57 66 66 66 49 119 119 119 119 119 119 148 148 148 148 148 148 148 148 178 178 178 178 178 178 178 178 178 178 178 143 123 123 123 42 42 42 42 42 53 43 43 43 43 43 160 160 160 160 160 160 160 146 146 146 146 157 157 157 157 157 157 157 157 157 206 206 206 189 189 189 189 189 189 178 178 178 178 
51 51 51 51 51 83 83 83 151 151 151 151 180 180 120 120 120 107 107 81 78 78 78 78 78 78 78 78 78 78 78 78 78 78 78 78 134 134 65 65 175 175 147 147 50 50 57 57 57 57 66 66 66 66 66 119 119 119 119 123 123 123 123 123 123 123 123 123 121 121 121 121 121 121 121 178 178 178 143 143 123 123 123 42 42 42 42 42 43 43 43 43 43 43 160 160 160 160 160 160 160 160 160 160 151 157 157 157 157 157 157 157 157 157 206 206 206 189 189 189 189 178 178 178 178 178 178 
51 51 51 51 51 83 83 113 151 151 151 180 180 180 120 120 120 107 107 81 81 78 78 78 78 78 78 78 78 78 78 78 78 78 78 134 134 134 134 65 147 50 147 147 50 50 50 50 57 66 66 66 66 66 66 119 119 119 123 123 123 123 123 123 123 123 123 123 121 121 121 121 121 121 121 178 178 143 143 143 123 123 123 42 42 42 42 42 43 43 43 43 43 43 160 160 160 160 160 160 160 160 160 151 151 157 157 157 157 157 157 157 157 157 206 206 206 189 189 178 178 178 178 178 178 178 178 
51 51 51 51 51 51 83 113 151 151 180 180 180 180 180 180 120 107 107 81 81 81 78 78 78 78 78 78 78 78 78 78 78 78 134 134 134 134 134 206 206 50 50 50 50 50 50 50 66 66 66 66 66 66 66 66 66 66 66 66 61 61 123 123 123 123 123 123 123 121 121 121 121 121 121 178 143 143 143 143 66 66 66 42 42 42 42 42 43 43 43 43 43 43 160 137 137 137 137 137 137 137 151 151 151 157 157 157 157 157 157 157 157 157 206 206 206 178 178 178 178 178 178 178 178 178 178 
51 51 51 51 51 51 51 113 151 180 180 180 180 180 180 180 180 107 107 81 81 81 81 78 78 78 78 78 78 78 78 78 78 134 134 134 134 134 134 206 206 45 50 50 50 50 50 50 66 66 66 66 66 66 66 66 66 66 66 61 61 61 123 123 123 123 123 123 123 121 121 121 121 121 121 121 143 143 143 143 66 66 66 66 42 42 42 42 47 47 47 47 47 137 137 137 137 137 137 137 137 151 151 151 151 151 151 157 157 157 157 157 157 157 206 206 206 206 206 206 206 204 204 204 204 178 178 
51 51 51 51 51 113 113 113 146 146 146 146 170 170 170 180 107 107 107 107 81 81 81 81 78 78 78 78 78 78 78 78 134 134 134 134 134 134 134 206 206 45 45 45 50 50 50 50 66 66 66 66 66 66 66 66 66 66 66 61 61 61 123 123 123 123 123 123 123 123 121 121 121 121 121 154 154 154 66 66 66 66 66 66 52 52 47 47 47 47 47 47 47 137 137 137 137 137 137 137 137 151 151 151 151 151 151 151 157 157 157 157 157 157 206 206 206 206 206 206 204 204 204 204 204 178 178 
51 51 51 51 51 100 113 113 146 146 146 170 170 170 170 170 107 107 107 107 81 81 81 81 81 78 78 78 78 78 78 134 134 134 134 134 134 134 206 206 206 45 45 45 45 50 50 50 66 66 66 66 66 66 66 66 66 66 61 61 61 61 123 123 123 123 123 123 123 123 121 154 154 154 154 154 154 154 64 66 66 66 66 52 52 52 47 47 47 47 47 47 47 47 137 137 137 137 137 137 151 151 151 151 151 151 151 151 122 122 157 157 157 157 206 206 206 206 206 206 204 204 204 204 204 178 178 
51 51 51 51 51 100 100 113 146 146 146 170 170 170 170 170 107 107 107 107 81 81 81 81 81 81 78 78 78 78 78 134 134 134 134 134 134 134 45 45 45 45 45 45 45 45 45 50 66 66 66 66 66 66 66 66 66 61 61 61 61 61 123 123 123 123 123 123 123 123 154 154 154 154 154 154 154 154 64 64 66 66 66 52 52 52 52 47 47 47 47 47 47 47 137 137 137 137 137 137 151 151 151 151 151 151 151 151 122 122 122 122 122 157 206 206 206 206 206 206 204 204 204 204 204 178 178 
51 51 51 51 51 100 100 100 100 100 100 170 170 170 170 170 170 107 107 81 81 81 81 81 81 81 81 78 78 78 134 134 134 134 134 134 134 134 45 45 45 45 45 45 45 45 45 45 66 66 66 66 66 66 66 66 61 61 61 61 61 61 61 61 123 123 123 123 123 123 154 154 154 154 154 154 154 154 64 64 64 64 66 52 52 52 52 52 47 47 47 47 47 47 137 137 137 137 137 151 151 151 151 151 151 151 151 151 122 122 122 122 122 220 220 220 220 220 220 205 204 204 204 204 204 178 178 
55 51 51 51 51 51 51 100 100 100 100 170 170 170 170 170 170 81 81 81 81 81 81 81 81 81 81 63 63 63 63 134 134 134 134 134 134 134 131 45 45 45 45 45 45 45 45 45 66 66 66 66 66 66 66 66 61 61 61 61 61 61 61 61 116 116 116 116 116 116 178 178 178 154 154 154 154 154 64 64 64 64 52 52 52 52 52 52 64 64 64 64 64 148 148 148 148 148 148 151 151 151 151 151 151 151 151 151 122 122 122 122 122 220 220 220 220 220 205 205 204 204 204 204 204 204 178 
55 55 51 51 51 51 51 100 100 100 166 170 170 170 170 170 81 81 81 81 81 81 81 81 81 81 81 63 63 63 63 63 63 131 131 131 131 131 131 131 131 45 45 45 45 45 45 45 45 66 66 66 66 66 66 61 61 61 61 61 61 61 61 61 116 116 116 116 116 116 178 178 178 178 178 178 178 154 64 64 64 52 52 52 52 52 52 52 64 64 64 64 64 148 148 148 148 148 148 151 151 151 151 151 151 151 151 151 122 122 122 122 122 220 220 220 220 220 205 205 205 204 204 204 204 43 48 
55 55 55 51 51 51 51 100 100 166 166 166 166 166 170 81 81 81 81 81 81 81 81 81 81 81 81 63 63 63 63 63 63 131 131 131 131 131 131 131 131 131 131 45 45 45 45 45 45 66 66 66 55 55 55 55 116 116 116 116 116 116 61 116 116 116 116 116 116 116 178 178 178 178 178 178 178 178 178 64 52 52 52 52 52 52 52 52 86 64 64 64 64 64 148 148 148 148 148 148 123 123 123 123 123 123 123 123 122 122 122 122 122 220 220 220 220 205 205 205 205 205 204 43 43 43 43 
55 55 55 55 51 50 50 50 50 166 166 166 166 166 166 81 81 81 81 81 81 81 81 81 81 81 63 63 63 63 63 63 63 63 131 131 131 131 131 131 131 131 131 45 45 45 45 45 45 55 55 55 55 55 55 55 55 116 116 116 116 116 116 116 116 116 116 116 116 178 178 178 178 178 178 178 178 178 178 52 52 52 52 52 52 52 52 86 86 86 64 64 64 64 148 148 148 148 148 123 123 123 123 123 123 123 123 123 123 123 127 122 144 220 220 220 220 205 205 205 205 205 205 43 43 43 43 
55 55 55 55 50 50 50 50 50 166 166 166 166 166 166 81 81 81 81 81 81 81 81 81 81 81 63 63 63 63 63 63 63 63 131 131 131 131 131 131 131 131 131 45 45 45 45 45 55 55 55 55 55 55 55 55 55 55 116 116 116 116 116 116 116 116 116 116 116 142 178 178 178 178 178 178 178 178 178 178 208 208 52 52 52 208 208 86 86 86 86 64 64 64 148 148 148 148 148 123 123 123 123 123 123 123 123 123 123 127 127 144 144 144 220 220 220 205 205 205 205 205 205 43 43 43 43 
128 128 128 128 50 50 50 50 50 166 166 166 166 166 166 81 81 81 81 81 81 81 81 81 81 63 63 63 63 63 63 63 63 63 63 131 131 131 131 131 131 131 79 45 45 45 45 55 55 55 55 55 55 55 55 55 55 55 116 116 116 116 116 116 116 116 116 116 142 142 142 178 178 178 178 178 178 178 178 178 208 208 208 208 208 208 86 86 86 86 86 63 63 148 148 148 148 148 148 148 123 123 123 123 123 123 123 123 127 127 127 144 144 144 144 220 194 194 194 205 47 47 47 43 43 43 43 
128 128 128 50 50 50 50 50 50 166 166 166 166 166 166 166 81 81 81 81 81 81 81 81 81 63 63 63 63 63 63 63 63 63 63 63 131 131 131 131 131 79 79 45 45 45 45 55 55 55 55 55 55 55 55 55 55 55 107 107 116 116 116 116 116 116 142 142 142 142 142 142 178 178 178 178 178 178 178 208 208 208 208 208 208 208 86 86 86 86 86 63 63 148 148 148 148 148 148 148 123 123 123 123 123 123 123 123 127 127 127 144 144 206 220 194 194 194 194 194 47 47 47 106 106 106 43 
128 128 128 163 50 50 50 50 166 166 166 166 166 166 166 166 166 166 166 166 37 37 37 37 37 63 63 63 63 63 63 63 63 63 63 63 131 131 131 79 79 79 79 45 45 45 55 55 55 55 55 55 55 55 55 55 55 55 107 107 107 107 116 116 142 142 142 142 142 142 142 142 142 164 164 164 178 178 178 208 208 208 208 208 208 208 86 86 86 86 86 63 63 148 148 148 148 148 148 148 123 123 123 123 123 123 123 123 127 127 127 127 144 206 206 206 194 194 194 47 47 47 47 106 106 106 106 
128 163 163 163 163 50 50 50 166 166 166 166 166 166 166 166 166 166 166 166 37 37 37 37 37 63 63 63 63 63 63 63 63 63 63 63 63 131 79 79 79 79 79 45 45 55 55 55 55 55 55 55 55 55 55 55 55 55 107 107 107 107 107 142 142 142 142 142 142 142 142 142 164 164 164 164 164 164 164 208 208 208 208 208 216 216 216 216 86 86 86 63 63 148 148 148 148 148 148 148 148 123 123 123 123 123 123 127 127 127 127 127 127 206 206 185 194 194 194 47 47 47 106 106 106 106 106 
163 163 163 163 163 163 50 50 166 166 166 166 166 166 166 166 166 166 166 166 37 37 37 37 37 63 63 63 63 63 63 63 63 63 63 63 63 79 79 79 79 79 79 45 55 55 55 55 55 55 55 55 55 55 55 55 55 55 107 107 107 107 107 142 142 142 142 142 142 142 142 142 164 164 164 164 164 164 164 164 208 208 208 208 216 216 216 216 86 86 86 63 63 148 148 148 148 148 148 148 148 123 123 123 131 131 131 127 127 127 127 127 212 212 185 185 185 185 185 97 47 106 106 106 106 106 106 
163 163 163 163 163 163 163 50 166 166 166 166 166 166 166 166 166 37 37 37 37 37 37 37 37 63 63 63 63 63 63 63 63 63 63 63 63 79 79 79 79 79 79 79 79 79 79 79 79 55 55 55 55 55 55 55 55 107 107 107 107 107 107 142 142 142 142 142 142 142 142 142 164 164 164 164 164 164 164 164 208 208 208 208 216 216 216 216 219 219 39 39 39 148 148 148 148 148 148 148 148 131 131 131 131 131 131 127 127 127 127 212 212 212 185 185 185 185 185 97 106 106 106 106 106 106 106 
128 128 128 163 163 163 99 99 99 159 159 159 166 166 166 166 166 37 37 37 37 37 37 37 37 63 63 63 63 63 63 63 63 63 63 63 79 79 79 79 79 79 79 79 79 79 79 79 79 55 55 55 55 55 55 55 107 107 107 107 107 107 107 107 142 142 142 142 142 164 164 164 164 164 164 164 164 164 164 164 164 208 208 208 216 216 216 219 219 219 39 219 39 136 148 148 148 148 148 148 148 131 131 131 131 131 131 131 210 210 127 212 212 212 185 185 185 185 185 97 97 106 106 106 106 106 106 
128 39 39 163 163 163 99 99 99 159 159 159 159 166 166 166 166 37 37 37 37 37 37 37 37 37 63 63 63 63 63 63 63 63 63 63 79 79 79 79 79 79 79 79 79 79 79 79 79 55 55 55 55 55 55 55 107 107 107 107 107 107 107 107 142 142 142 142 142 164 164 164 164 164 164 164 164 164 164 164 164 164 216 216 216 219 219 219 219 219 39 157 39 136 148 148 148 148 148 148 131 131 131 131 131 131 131 131 210 210 210 212 212 97 97 97 97 97 97 97 97 106 106 106 106 106 106 
39 39 39 163 163 163 99 99 99 159 159 159 159 159 166 166 166 37 37 37 37 37 37 37 37 37 63 63 63 63 63 63 63 63 63 63 79 79 79 79 79 79 79 79 79 79 79 79 48 48 48 55 55 55 55 55 107 107 107 107 107 107 107 107 142 142 142 142 142 164 164 164 164 164 164 164 164 164 164 164 164 164 219 219 219 219 219 219 219 219 157 157 32 136 148 148 148 148 148 148 131 131 131 131 131 131 131 131 210 210 210 212 212 97 97 97 97 97 97 97 97 106 106 106 106 106 106 
39 39 39 163 163 99 99 99 99 159 159 159 159 159 159 166 166 37 37 37 37 37 37 37 37 37 63 63 63 63 63 63 63 63 63 63 79 79 79 79 79 79 79 79 79 79 79 48 48 48 48 48 48 48 55 55 107 107 107 107 107 133 133 133 133 142 142 142 142 164 164 164 164 164 164 164 164 164 164 164 164 164 219 219 219 219 219 219 219 157 157 32 32 136 148 148 148 148 148 131 131 131 131 131 131 131 131 131 210 210 210 210 212 97 97 97 97 97 97 97 97 97 106 106 106 106 106 
39 39 39 124 99 99 99 99 99 159 159 159 159 159 159 136 59 59 59 59 59 59 59 37 37 37 63 63 63 63 63 63 63 63 63 63 79 79 79 79 79 79 79 79 79 79 48 48 48 48 48 48 48 48 48 48 107 107 107 133 133 133 133 133 133 133 142 142 142 164 164 164 164 164 164 164 164 164 164 164 164 164 219 219 219 219 219 219 219 157 157 32 32 136 136 136 136 136 136 136 117 117 131 131 131 131 131 131 210 210 210 210 212 97 97 97 97 97 97 97 97 97 106 106 106 106 106 
39 39 63 63 124 99 99 99 99 159 159 159 159 159 136 136 59 59 59 59 59 59 59 59 59 59 59 63 63 63 63 63 63 63 63 63 79 79 79 79 79 79 79 79 79 48 48 48 48 48 48 48 48 48 48 48 107 107 133 133 133 133 133 133 133 133 133 142 142 164 164 164 164 164 164 164 164 164 164 164 164 164 219 219 219 219 219 219 213 213 213 213 32 136 136 136 136 136 136 117 117 117 117 131 131 131 131 131 210 210 210 210 210 97 97 97 97 97 97 97 97 97 106 106 106 106 106 
39 39 63 63 124 124 99 99 99 159 159 159 159 136 136 136 59 59 59 59 59 59 59 59 59 59 59 59 63 63 63 63 63 63 63 79 79 79 79 79 79 79 79 79 48 48 48 48 48 48 48 48 48 48 48 48 48 107 133 133 133 133 133 133 133 133 133 133 142 133 164 164 164 164 164 164 164 164 164 164 164 164 219 219 219 213 213 213 213 213 213 213 78 78 136 136 136 136 117 117 117 117 117 117 131 131 131 131 210 146 208 208 208 97 97 97 97 97 97 97 97 97 97 106 106 106 106 
39 39 39 124 124 124 143 63 99 159 159 159 159 136 136 136 59 59 59 59 59 59 59 59 59 59 59 59 59 63 63 63 63 63 63 79 79 79 79 79 79 79 79 48 48 48 48 48 48 48 48 48 48 48 48 48 99 133 133 133 133 133 133 133 133 133 133 133 133 133 133 133 133 133 133 164 164 164 164 164 164 164 213 213 213 213 213 213 213 213 213 213 78 78 78 136 136 117 117 117 117 117 117 117 117 131 146 146 146 146 208 208 208 65 65 97 97 97 97 97 97 97 97 106 106 106 106 
39 39 39 124 124 124 143 63 141 141 159 159 136 136 136 136 59 59 59 59 59 59 59 59 59 59 59 59 59 59 63 63 63 63 63 79 79 79 79 79 79 48 48 48 48 48 48 48 48 48 48 48 48 48 48 99 99 99 133 133 133 133 133 133 133 133 133 133 133 133 133 133 133 133 133 154 154 154 154 154 154 213 213 213 213 213 213 213 213 213 213 213 78 78 78 136 117 117 117 117 117 117 117 117 117 146 146 146 146 146 208 208 208 65 65 65 65 97 97 97 97 97 97 106 106 106 106 
39 39 39 124 124 143 143 63 141 141 159 136 136 136 136 136 59 59 59 59 59 59 59 59 59 59 59 59 59 59 59 63 63 63 63 79 79 79 79 79 79 48 48 48 48 48 48 48 48 48 48 48 48 48 99 99 99 99 99 133 133 133 133 133 133 133 133 133 133 133 133 133 133 133 154 154 154 154 154 154 154 213 213 213 213 213 213 213 213 213 213 213 78 78 78 117 117 117 117 117 117 117 117 117 117 153 146 146 146 146 208 208 208 65 65 65 65 97 97 97 97 97 97 106 106 106 106 
39 39 39 124 124 143 143 63 141 141 141 141 141 157 157 157 136 59 59 59 59 59 59 59 59 59 59 59 59 59 59 63 63 74 74 74 74 74 74 74 74 48 48 48 48 48 48 48 48 48 48 48 48 48 99 99 99 99 99 99 133 133 133 133 133 133 133 133 133 133 133 133 133 154 154 154 154 154 154 154 154 154 213 213 213 213 213 213 213 213 213 213 93 93 93 117 117 117 117 117 117 117 117 117 35 153 153 146 146 146 208 65 65 65 65 65 65 97 97 97 97 97 97 100 100 100 100 
39 39 39 124 124 143 143 63 141 141 141 141 141 157 157 157 136 59 59 59 59 59 59 59 59 59 59 59 59 59 59 74 74 74 74 74 74 74 74 74 74 74 74 74 74 74 99 99 99 99 99 99 99 99 99 99 99 99 99 99 99 133 133 133 133 133 133 133 133 133 133 133 133 154 154 154 154 154 154 154 154 154 154 213 213 213 213 213 213 213 213 93 93 93 93 71 71 71 71 71 71 71 71 71 35 153 153 153 146 215 215 65 65 65 65 65 65 97 97 97 97 100 100 100 100 100 100 
39 39 168 168 168 143 143 63 141 141 141 141 157 157 157 157 157 59 59 59 59 59 59 59 59 59 59 59 59 59 59 74 74 74 74 74 74 74 74 74 74 74 74 74 74 74 99 99 99 99 99 99 99 99 99 99 99 99 99 99 99 133 133 133 133 133 133 133 133 133 133 142 154 154 154 154 154 154 154 154 154 154 154 154 213 213 213 215 215 215 215 93 93 93 93 79 71 71 71 71 71 71 71 35 35 153 153 153 153 215 215 215 65 65 65 65 65 97 97 100 100 100 100 100 100 100 100 
110 110 168 168 168 168 168 138 138 138 138 138 157 157 157 157 157 157 59 59 59 59 59 59 59 59 59 59 59 59 59 74 74 74 74 74 74 74 74 74 74 74 74 74 74 74 74 99 99 99 99 99 99 99 99 99 99 99 99 99 99 133 133 133 133 133 133 142 142 142 142 142 154 154 154 154 154 154 154 154 154 154 154 154 154 215 215 215 215 215 215 215 215 215 93 79 79 71 71 71 71 71 35 35 35 153 153 153 153 153 215 65 65 65 65 65 65 100 100 100 100 100 100 100 100 100 100 
110 110 168 168 168 168 168 138 138 138 138 138 157 157 157 157 157 157 59 59 59 59 59 59 59 59 59 59 59 59 74 74 74 74 74 74 74 74 74 74 74 74 74 74 74 74 74 74 99 99 99 99 99 99 99 99 99 99 99 99 99 133 133 133 142 142 142 142 142 142 142 142 142 154 154 154 154 154 154 154 154 154 154 154 154 154 215 215 215 215 215 215 215 215 215 79 79 79 71 71 71 71 35 35 35 153 153 95 65 65 65 65 65 65 65 65 65 65 65 65 65 100 100 100 100 100 100 
110 110 168 168 168 138 138 138 138 138 138 138 138 157 157 157 157 157 59 59 59 59 59 59 59 59 59 59 59 59 74 74 74 74 74 74 74 74 74 74 74 74 74 74 74 74 74 74 99 99 99 99 99 99 99 99 99 99 99 99 99 142 142 142 142 142 142 142 142 142 142 142 142 154 154 154 154 154 154 154 154 154 154 154 154 154 215 215 215 215 215 215 215 215 215 79 79 79 79 71 91 91 91 91 91 91 201 95 95 65 65 65 65 65 65 65 65 65 65 65 65 100 100 100 100 100 100 
110 110 110 110 110 138 138 138 138 138 138 138 138 138 157 157 157 157 59 59 59 59 59 59 59 59 59 59 59 74 74 74 74 74 74 74 74 74 74 74 74 74 74 74 74 74 74 74 74 99 99 99 99 99 99 99 99 99 99 99 99 142 142 142 142 142 142 142 142 142 142 142 142 154 154 154 154 154 154 154 154 154 154 154 154 154 154 215 215 215 215 215 215 215 208 79 79 79 79 79 91 91 91 91 91 91 201 95 95 95 65 65 65 65 65 65 65 65 65 65 100 100 100 100 100 100 100 
110 110 110 110 110 157 138 138 138 138 138 138 138 180 180 115 46 46 59 59 59 59 59 59 59 59 59 59 59 74 74 74 74 74 74 74 74 74 74 74 74 74 74 74 74 74 74 74 74 74 99 99 99 99 99 99 99 99 99 99 142 142 142 142 142 142 142 142 142 142 142 142 142 154 154 154 154 154 154 154 154 154 154 154 154 154 154 215 215 215 215 215 215 215 208 79 79 79 79 79 91 91 91 91 91 201 201 95 95 95 95 65 65 65 65 65 65 65 65 65 100 100 100 100 100 100 100 
46 110 110 110 110 157 157 138 138 138 138 180 180 180 180 115 46 46 59 59 59 59 59 59 59 59 59 59 74 74 74 74 74 74 74 74 74 74 74 74 74 74 74 74 74 74 74 74 74 74 99 99 99 99 99 99 99 99 99 142 142 142 142 142 142 142 142 142 142 142 142 142 142 154 154 154 154 154 154 154 154 154 154 154 154 154 154 215 215 215 215 215 215 215 208 79 79 79 79 90 90 91 91 91 91 95 95 95 95 95 95 98 98 98 98 65 65 65 65 100 100 100 100 100 100 100 100 
46 46 58 58 157 157 157 157 138 138 180 180 180 180 180 115 46 46 59 59 59 59 59 59 59 59 59 59 74 74 74 74 74 74 74 74 74 74 74 74 74 74 74 74 74 74 74 74 74 74 74 99 99 99 99 99 99 99 142 142 142 142 142 142 142 142 142 142 142 142 142 142 142 154 154 154 154 154 154 154 154 154 154 154 154 154 154 154 215 215 215 215 215 215 208 79 90 90 90 90 90 91 91 91 91 95 95 95 95 95 98 98 98 98 98 98 98 98 98 100 100 100 100 100 100 100 100 
46 46 58 58 157 157 157 157 157 180 180 180 180 180 180 115 46 46 46 46 46 46 46 46 46 46 46 46 46 46 74 74 74 74 74 74 74 74 74 74 74 74 74 74 74 74 74 74 74 74 74 74 99 99 99 99 99 142 142 142 142 142 142 142 142 142 142 142 142 142 142 142 142 154 154 154 154 154 154 154 154 154 154 154 154 154 154 154 210 210 210 210 210 210 210 210 90 90 90 90 90 90 91 91 91 95 95 95 95 98 98 98 98 98 98 98 98 98 98 100 100 100 100 100 100 100 100 
