P2
#CREATOR : MyProgram
128 128
255
162 161 160 159 158 156 155 154 153 156 159 162 165 168 148 128 107 87 103 104 105 106 107 108 108 109 110 111 112 117 122 126 131 131 131 131 131 131 131 131 131 131 131 131 131 131 131 131 131 131 131 131 131 131 131 131 131 131 131 131 131 131 131 131 131 131 131 131 131 131 131 131 131 131 127 123 119 116 112 108 104 120 137 153 153 153 153 153 154 154 154 154 154 154 154 154 155 155 155 155 155 183 211 216 220 191 107 112 117 121 126 126 126 126 126 126 126 125 125 125 125 125 125 125 114 125 136 171 
161 161 160 159 158 157 156 155 154 160 163 166 169 165 148 128 107 87 99 104 103 102 103 104 105 106 107 109 112 117 122 126 130 131 131 130 130 130 130 130 130 130 130 130 130 130 130 130 130 130 130 130 130 130 130 130 130 130 130 130 130 130 130 130 130 130 130 130 130 130 130 131 131 131 128 124 120 116 113 109 106 115 131 148 154 154 154 154 155 155 155 155 155 155 155 155 155 156 156 156 156 192 207 211 213 187 107 112 117 122 122 125 126 126 126 126 126 126 125 125 125 124 124 126 118 127 136 171 
161 160 159 159 158 158 157 155 154 164 167 170 165 161 148 127 107 87 95 102 105 104 103 102 101 104 106 109 112 117 122 128 129 130 131 131 131 130 129 129 129 129 129 129 129 129 129 129 129 129 129 129 129 129 129 129 129 129 129 129 129 129 129 129 129 129 130 130 130 130 131 131 131 130 130 126 121 117 113 110 107 109 125 143 154 155 155 155 155 156 156 156 156 156 156 156 156 157 156 156 156 156 202 204 205 207 154 114 119 118 119 121 124 126 126 126 126 126 124 123 121 123 127 127 123 132 92 49 
160 159 159 158 157 157 156 156 155 167 170 166 162 158 147 127 107 87 93 98 106 107 106 105 104 103 106 109 112 117 125 127 128 129 130 131 132 131 130 130 129 129 129 129 129 129 129 129 129 129 129 129 129 129 129 129 129 129 129 129 129 129 129 129 129 129 130 130 130 131 131 131 130 130 129 129 123 118 114 111 109 107 119 138 151 156 156 156 156 156 157 157 157 157 157 157 157 157 157 157 156 156 176 204 211 206 201 115 114 114 115 118 120 123 126 125 123 122 120 120 123 126 128 127 127 90 49 49 
159 158 158 157 157 156 155 156 159 171 167 163 159 155 147 127 107 86 94 99 104 109 108 107 106 105 106 108 113 119 125 126 127 128 129 130 131 133 132 131 130 129 129 128 128 128 128 128 128 128 128 128 128 128 128 128 128 128 128 128 128 129 129 129 129 130 130 130 131 132 131 131 130 129 129 128 126 120 115 113 111 109 114 133 149 154 157 157 157 157 158 158 158 158 158 158 158 157 157 156 156 155 149 200 206 213 219 179 110 110 111 114 117 120 125 121 119 118 119 122 125 128 129 128 86 48 48 48 
158 158 157 156 156 156 157 158 163 170 168 162 157 152 147 127 106 86 96 101 105 107 108 108 109 108 107 108 114 122 124 125 126 127 128 129 130 131 133 132 132 131 130 129 128 128 127 127 127 127 127 127 127 127 127 127 128 128 128 128 129 129 129 129 129 130 131 131 132 132 131 130 130 129 128 128 127 123 138 115 113 110 108 128 147 152 157 158 158 158 158 159 159 159 159 158 158 157 157 156 156 155 149 171 202 208 215 199 140 105 107 110 114 117 124 120 115 118 121 124 127 130 130 84 46 47 48 48 
158 157 156 156 157 158 159 160 167 168 167 164 159 154 145 126 106 86 97 102 106 106 106 106 107 107 108 108 118 121 122 124 125 126 127 128 129 130 132 133 133 132 131 131 130 129 128 128 127 126 126 126 127 127 127 127 128 128 128 128 129 129 129 129 130 131 131 132 132 131 131 130 129 129 128 127 127 126 121 116 113 110 108 123 142 150 155 159 159 159 159 160 159 159 158 158 157 157 156 156 155 155 148 142 197 204 212 219 191 101 104 108 111 116 124 119 118 121 124 127 130 131 79 43 45 46 47 47 
157 156 156 158 159 160 161 163 168 167 166 164 161 156 144 125 106 86 98 103 104 104 104 105 105 106 106 113 119 120 121 123 124 125 126 127 128 129 131 132 133 133 133 132 131 130 128 125 132 139 125 125 126 126 126 127 127 128 128 128 129 129 130 130 131 131 132 132 132 131 130 130 129 128 128 127 126 125 122 117 113 110 108 118 138 148 153 158 160 160 160 160 159 159 158 158 157 156 156 155 155 154 148 146 162 202 209 219 215 156 101 105 108 115 123 118 121 124 127 129 132 73 41 42 43 45 46 47 
156 157 159 160 161 162 164 165 167 166 164 163 162 157 142 124 105 85 100 103 103 103 103 103 103 104 108 117 118 119 120 122 123 124 125 126 127 128 129 131 132 133 134 130 127 123 131 133 135 134 123 124 124 125 125 125 126 126 126 127 127 127 130 131 132 132 132 132 131 130 130 129 129 128 127 127 126 124 122 118 113 110 108 118 133 145 150 156 161 160 160 159 159 158 158 157 157 156 156 155 155 154 152 149 147 183 207 218 214 210 127 102 107 115 122 121 124 127 130 132 87 57 56 54 52 50 49 48 
157 159 160 162 163 164 166 167 166 164 163 162 160 159 141 122 104 85 101 101 101 101 101 101 102 104 111 116 118 118 120 121 122 123 124 125 126 128 129 130 131 132 131 122 124 127 129 132 134 129 121 122 122 123 123 124 124 125 125 124 123 126 129 132 132 133 132 131 131 130 130 129 128 128 127 126 124 122 120 119 114 110 108 118 128 143 148 153 158 159 158 158 157 157 156 156 155 155 154 153 153 152 151 150 149 148 204 218 218 217 173 99 106 114 121 124 127 130 133 87 42 49 56 54 52 50 49 49 
159 160 162 163 164 166 167 161 163 165 164 162 161 160 140 121 103 84 98 101 101 101 101 100 100 105 111 115 118 119 119 120 121 122 123 124 126 127 128 129 130 131 128 124 123 125 128 130 133 124 125 128 121 121 122 122 123 123 122 120 121 124 127 130 133 132 132 131 131 130 129 129 128 128 127 125 123 121 119 117 115 110 108 118 128 140 146 151 156 157 156 156 156 155 155 154 153 153 152 152 151 150 149 148 147 146 179 209 217 224 209 146 102 110 121 125 129 133 88 43 44 49 56 54 52 51 50 50 
160 162 163 165 166 167 161 155 156 160 164 163 162 161 141 121 102 83 95 102 102 102 101 101 100 105 110 114 119 119 119 120 120 121 122 124 125 126 127 128 129 130 125 125 126 124 126 129 128 125 129 143 135 128 120 129 137 146 131 116 119 122 126 129 124 129 132 131 130 130 129 129 128 127 126 124 122 120 118 116 114 111 108 118 128 138 143 148 153 155 155 154 154 153 153 152 152 151 151 150 150 149 148 147 146 144 155 200 210 218 217 193 98 109 121 125 129 86 43 45 47 49 55 54 52 52 51 51 
162 163 165 166 167 164 152 149 148 157 164 164 163 162 142 122 102 82 93 103 103 102 102 101 99 105 109 114 118 120 120 120 120 121 122 123 124 125 126 127 128 129 125 127 128 127 125 127 126 129 133 157 153 149 149 152 160 168 180 192 196 160 124 120 115 120 124 128 130 130 129 128 128 127 125 123 121 119 117 115 113 111 108 118 129 140 141 146 151 153 153 152 152 152 151 151 150 150 149 149 148 147 146 145 144 143 142 179 203 213 224 210 152 109 120 124 82 41 44 46 49 51 55 54 53 53 52 51 
163 165 166 168 166 155 143 143 148 159 165 164 164 163 144 124 105 85 90 100 103 103 102 101 99 104 108 113 117 120 120 121 121 121 121 122 123 124 125 126 128 127 127 129 131 129 128 126 141 156 156 155 152 174 177 181 184 185 185 159 187 183 188 193 170 136 115 120 124 128 129 128 127 125 123 121 120 118 116 114 112 110 108 119 130 141 140 143 148 151 151 150 150 150 149 149 149 148 147 147 146 145 144 143 142 141 140 158 196 210 221 227 206 116 120 80 39 42 44 47 50 52 55 54 54 53 53 52 
165 166 168 169 158 148 126 138 147 162 165 164 164 163 147 127 100 89 93 97 104 104 102 100 98 103 108 112 116 121 121 121 121 122 122 122 122 123 125 126 126 126 128 131 133 129 125 150 148 146 151 153 151 146 175 162 149 177 177 177 177 187 169 190 196 202 157 111 115 120 124 128 126 124 122 120 118 116 114 112 110 108 109 121 132 143 142 141 146 149 149 148 148 148 147 147 147 146 146 145 144 143 142 141 140 139 138 137 153 211 211 225 221 165 78 37 40 42 45 48 52 55 53 53 55 54 54 53 
166 168 169 163 152 130 108 132 147 164 165 164 163 162 146 130 88 92 97 101 105 103 102 100 98 102 107 111 115 120 121 122 122 122 122 123 123 123 124 125 125 174 161 147 126 123 120 125 131 136 141 146 151 159 167 175 169 169 169 168 168 192 181 186 193 197 201 180 112 115 118 123 124 122 120 118 116 114 112 110 108 109 109 120 134 145 143 142 143 147 147 146 146 146 145 145 145 145 144 144 143 142 141 140 139 139 139 139 141 194 208 223 218 214 35 38 42 45 49 52 54 52 50 49 51 54 55 54 
168 169 168 158 137 112 91 127 147 166 165 164 163 162 146 127 89 87 91 96 104 102 100 98 98 101 106 110 114 119 122 122 122 123 123 123 123 124 124 124 131 132 127 122 121 121 120 125 131 137 132 137 145 148 151 159 161 172 176 176 175 190 187 183 187 191 195 199 203 157 110 117 111 120 118 116 114 112 110 108 109 109 110 117 134 146 145 144 143 145 145 144 144 144 143 143 143 143 142 142 142 141 141 141 141 140 140 140 142 144 206 220 216 126 39 42 46 49 53 54 52 50 48 46 47 49 52 55 
169 171 163 152 122 94 95 127 147 164 165 164 162 161 143 124 91 82 86 93 102 101 99 98 98 101 105 109 114 118 122 123 123 123 123 124 124 124 125 151 95 104 113 120 122 121 121 122 130 137 133 128 139 147 145 143 154 165 176 183 183 188 186 186 188 192 196 200 197 196 194 112 112 107 116 114 112 110 108 109 109 110 111 115 131 148 147 146 144 143 143 143 143 143 143 143 142 142 143 143 142 143 143 142 142 142 141 142 144 144 170 218 155 37 42 46 50 53 53 51 49 48 46 44 42 53 65 42 
171 167 157 137 106 76 100 128 146 163 167 165 163 162 141 121 92 77 81 94 101 99 98 98 98 100 104 108 113 117 121 123 123 124 124 124 125 125 126 110 103 105 113 118 122 122 121 121 127 135 143 119 133 146 147 148 154 163 172 181 190 190 190 189 189 193 197 196 192 191 190 203 114 93 103 112 110 108 109 109 110 111 111 112 130 147 149 148 146 145 125 137 143 143 143 143 143 143 144 144 142 142 144 144 143 143 143 144 145 143 149 128 40 43 46 50 54 53 51 49 47 46 45 44 55 74 52 29 
172 162 152 120 87 78 103 128 144 161 168 166 164 162 142 122 94 71 80 96 100 99 99 99 98 99 103 108 112 116 121 124 124 124 125 125 126 127 170 114 109 105 111 116 122 122 122 121 124 132 145 131 126 139 153 154 159 164 173 183 189 187 191 192 192 194 195 188 186 186 185 207 215 208 113 111 108 107 106 105 104 105 107 112 129 146 151 150 149 147 131 107 119 131 143 143 144 144 145 144 143 142 142 145 145 145 144 145 144 143 127 43 42 46 50 54 53 51 50 49 48 46 45 50 68 63 34 111 
163 153 130 99 78 79 104 128 143 159 169 167 165 163 143 123 94 66 82 97 99 99 99 99 99 99 102 107 111 115 120 124 125 125 126 127 127 128 122 112 108 110 111 114 120 123 122 122 121 134 146 133 119 132 146 159 164 170 175 181 188 186 183 187 191 195 188 181 193 205 217 210 211 227 227 83 98 97 96 97 101 103 103 112 129 145 153 152 151 149 134 113 89 101 125 145 145 145 146 145 144 142 141 142 145 146 146 146 144 142 45 44 44 48 52 52 53 52 51 49 48 47 46 63 81 50 90 151 
155 138 108 78 79 81 105 128 146 157 171 169 166 161 144 123 95 68 83 99 99 99 99 99 99 99 102 106 110 115 119 123 124 125 126 127 127 121 110 112 113 115 116 118 120 123 122 121 124 136 148 135 122 136 149 156 160 166 173 181 187 189 180 180 184 175 191 206 209 211 212 209 207 216 225 202 87 90 93 96 98 98 99 111 130 144 156 154 152 150 136 118 95 71 107 138 146 146 147 146 145 143 142 141 142 145 147 148 149 76 45 46 45 49 50 50 51 51 51 50 48 47 59 69 66 95 146 148 
146 117 88 83 84 82 105 129 149 160 172 170 167 159 141 124 97 69 85 97 98 99 99 99 99 99 101 105 109 114 120 122 123 125 126 127 124 113 111 112 108 105 111 118 124 121 122 121 127 139 146 139 126 139 150 153 157 162 171 181 186 192 183 173 209 207 206 204 205 208 207 204 207 212 217 222 153 89 92 93 94 94 95 111 132 145 158 156 154 152 138 124 69 63 90 126 140 148 148 147 145 144 143 141 140 145 150 155 95 43 45 46 47 47 48 48 49 49 50 50 49 54 58 70 98 140 142 144 
126 99 81 87 93 88 102 127 152 161 170 171 168 157 139 122 96 71 86 96 96 97 98 99 99 99 100 104 109 115 121 121 122 123 125 127 115 110 112 114 114 110 106 103 99 120 127 120 129 139 144 142 129 143 148 151 154 158 169 181 162 143 187 206 206 205 204 202 202 204 202 205 208 213 218 219 219 88 88 89 89 90 90 111 133 147 160 158 156 154 140 125 75 55 65 108 133 141 149 147 146 144 143 141 141 148 153 141 42 45 48 51 55 46 46 46 47 47 48 48 49 62 74 87 134 142 147 141 
107 80 83 87 90 93 98 123 148 160 169 170 169 155 142 119 94 71 86 94 95 95 96 97 98 98 99 105 110 116 120 120 121 122 124 118 109 111 113 115 117 116 112 108 106 119 139 120 130 140 142 140 133 142 145 148 151 154 182 145 173 200 202 204 203 202 201 200 199 199 202 205 208 213 216 215 214 222 116 77 80 83 86 111 135 150 156 154 154 153 141 126 81 49 41 84 127 135 143 147 145 144 142 141 142 148 156 75 38 44 50 56 62 53 44 46 49 51 50 50 57 54 91 127 136 145 154 153 
87 88 89 90 91 92 93 125 143 155 167 169 170 157 142 117 94 71 87 92 93 94 94 95 97 99 100 105 111 116 119 119 120 120 144 108 110 112 114 116 118 120 117 115 113 119 137 135 131 140 141 138 136 138 139 141 142 155 129 196 198 199 201 201 200 199 198 197 196 199 202 205 209 212 212 211 210 217 225 144 62 70 81 106 130 154 154 154 155 153 143 120 81 42 43 58 101 128 138 143 145 143 142 141 143 147 101 42 43 49 55 61 60 52 47 56 51 45 50 58 65 71 116 134 135 145 155 165 
87 88 89 90 91 92 93 127 140 154 167 166 166 160 140 117 94 71 87 90 91 92 94 96 98 100 102 104 111 117 117 117 117 145 121 105 110 113 115 117 119 121 123 122 120 119 134 149 145 141 140 140 130 127 129 130 138 156 186 195 197 198 199 198 197 196 196 196 197 200 203 206 209 208 207 206 205 213 219 225 114 63 76 100 127 149 155 155 155 152 144 113 78 45 45 45 74 122 132 140 141 143 141 142 145 147 45 46 48 54 60 60 57 51 51 49 41 51 60 66 60 109 149 142 134 150 164 164 
88 89 88 89 90 91 92 125 141 154 168 166 165 163 140 117 94 71 88 90 92 94 96 98 100 101 103 105 110 116 114 114 128 170 98 102 107 111 116 119 121 123 125 131 134 133 148 132 116 134 143 138 125 117 118 120 173 176 194 193 195 197 197 197 197 197 197 196 199 202 205 207 208 206 204 202 200 206 212 218 224 89 71 99 127 144 150 155 156 151 146 113 80 47 48 48 48 84 115 136 138 139 141 150 159 75 44 51 52 58 61 58 55 50 49 48 55 61 55 49 98 147 142 134 149 163 164 164 
88 90 90 89 90 91 92 124 141 154 168 166 165 163 141 118 94 71 83 91 93 95 97 99 101 103 105 106 109 116 113 111 143 144 97 101 106 110 114 118 122 124 127 132 139 147 138 129 125 134 146 133 119 106 143 180 188 195 192 192 188 187 193 197 197 197 197 197 200 203 204 206 207 206 204 202 201 206 212 218 222 198 62 100 128 139 145 150 156 152 144 115 82 50 48 45 50 45 86 195 218 198 178 171 107 43 43 49 57 61 58 55 52 49 52 54 57 56 38 90 143 138 134 148 163 163 163 163 
89 90 92 91 89 90 91 122 142 155 168 167 165 163 142 119 96 72 79 89 95 97 99 101 102 104 106 108 109 115 113 109 217 117 97 101 105 109 114 120 116 127 129 132 140 140 142 133 134 141 110 111 112 174 165 199 187 174 189 180 170 176 182 189 195 197 197 199 201 202 203 205 206 206 203 201 203 206 212 216 219 223 53 91 129 136 144 151 156 155 143 116 83 45 43 40 51 69 212 198 183 199 215 203 80 45 43 41 62 59 56 53 50 50 51 53 56 51 77 138 140 142 147 162 162 162 162 162 
89 91 92 93 91 90 91 120 143 155 168 167 165 163 142 121 78 73 74 84 94 98 100 102 104 106 107 109 111 115 112 107 206 132 96 101 107 112 118 123 110 126 132 133 133 134 106 137 132 126 111 112 174 167 163 176 163 178 154 179 176 177 181 185 189 193 197 198 200 201 203 204 205 205 203 203 204 206 210 214 217 221 160 87 125 139 146 152 156 157 141 117 81 39 40 35 128 220 185 203 221 225 230 234 211 46 46 46 59 57 54 51 48 52 51 52 55 46 115 147 149 151 161 161 161 161 162 162 
90 91 93 94 93 92 90 118 144 156 169 167 165 163 142 120 81 75 69 79 90 100 102 104 105 107 109 111 112 114 109 160 195 122 96 102 108 114 120 126 104 120 135 122 125 127 136 128 119 111 143 175 167 160 173 152 173 183 187 185 182 180 184 188 192 194 193 197 199 200 202 203 204 205 203 204 200 205 205 207 213 218 223 76 122 141 148 152 156 160 139 118 76 34 37 187 216 152 210 215 211 215 221 227 219 44 51 50 56 54 52 49 46 53 53 52 54 84 154 156 158 160 160 160 161 161 161 161 
90 92 93 95 96 94 92 119 145 157 169 167 165 163 149 119 83 76 74 84 94 100 101 102 104 106 108 109 111 113 105 213 170 113 95 101 107 113 117 119 117 120 126 111 118 125 133 113 110 145 159 173 163 153 182 158 183 185 187 188 189 186 187 191 191 189 190 194 198 199 201 202 204 204 204 194 193 203 204 204 205 209 214 195 118 144 149 153 158 152 136 104 52 62 208 186 163 215 215 214 201 208 214 221 227 42 49 55 53 51 49 46 47 54 54 53 53 128 154 156 158 160 160 160 160 160 160 160 
91 92 94 95 97 96 94 121 145 159 169 169 167 165 155 123 92 76 78 88 99 101 99 101 103 105 106 108 110 112 103 218 161 103 95 101 106 108 111 113 119 121 116 120 123 127 130 92 154 155 181 143 158 172 180 166 179 180 186 187 188 189 190 188 186 184 186 191 195 198 200 201 203 204 189 173 201 202 202 203 204 204 205 210 214 133 151 156 152 144 132 89 165 213 175 195 214 210 209 209 201 207 214 220 225 44 51 53 51 49 47 44 48 56 55 42 102 152 154 157 159 160 159 159 159 159 160 160 
91 93 94 96 97 98 97 123 145 161 168 169 170 168 151 128 100 77 83 93 103 101 100 100 102 103 105 107 109 111 101 213 144 119 94 97 99 102 104 106 110 121 125 129 127 124 101 144 154 164 139 164 128 161 178 175 175 170 181 180 172 173 149 183 181 180 182 187 192 195 199 200 202 181 179 182 196 197 198 198 199 200 197 200 209 190 154 150 147 137 168 216 198 199 205 211 207 204 208 204 201 207 214 220 222 46 48 51 50 47 45 42 50 57 30 59 150 152 155 157 160 160 159 158 159 159 159 159 
92 93 95 96 98 99 99 123 145 163 168 169 169 170 147 124 100 77 86 95 102 101 100 99 100 102 104 106 108 110 99 208 147 125 100 98 97 96 98 99 101 120 125 108 112 116 146 144 142 146 170 126 165 150 167 183 172 160 176 192 175 157 179 166 177 175 178 183 188 192 196 199 165 180 182 192 192 188 193 194 195 195 189 189 194 209 150 146 141 199 203 191 178 199 208 203 199 203 207 199 201 207 214 219 199 47 46 49 49 46 44 44 56 69 60 126 151 153 156 158 161 160 159 158 158 158 158 158 
92 94 95 97 98 100 101 123 145 165 168 169 171 170 147 124 99 80 86 95 100 100 100 99 99 101 103 104 104 104 148 205 150 130 105 104 103 96 108 110 112 118 130 129 106 148 146 144 141 139 137 164 151 171 146 179 183 172 165 179 176 178 179 178 174 170 175 180 184 189 158 194 176 179 185 194 187 180 185 189 190 189 181 178 183 189 175 192 209 174 187 198 209 206 203 201 200 202 205 194 201 207 213 218 119 48 47 47 48 45 46 46 49 69 89 149 151 154 156 159 160 159 159 158 157 157 158 158 
93 94 96 97 99 100 102 124 145 167 170 172 171 170 147 121 94 83 87 96 99 99 99 98 98 98 98 98 97 97 196 201 152 133 111 109 103 97 109 121 122 129 135 105 148 146 135 132 130 134 141 140 175 149 156 176 179 183 154 166 177 178 178 179 176 173 171 173 178 183 186 189 186 184 189 189 182 175 174 183 186 181 172 167 173 197 199 201 204 207 212 207 206 205 202 200 201 203 204 189 201 206 212 217 38 43 45 46 47 47 48 48 43 63 128 151 153 155 157 160 160 159 158 157 157 157 157 157 
93 95 96 98 99 101 104 125 147 165 173 172 171 170 143 116 89 86 90 96 98 98 98 99 99 99 97 95 93 91 205 180 155 136 116 110 103 97 109 121 133 122 110 148 146 143 123 121 130 146 145 144 143 152 162 172 161 149 179 174 169 169 172 176 179 177 174 172 172 176 180 184 187 190 192 185 178 170 163 172 181 173 164 156 202 192 197 197 198 200 205 201 203 204 201 200 203 205 193 172 196 203 209 216 46 44 42 57 72 46 48 50 37 104 148 153 156 157 158 160 160 159 158 157 156 156 156 156 
94 95 97 98 100 103 105 128 150 163 173 172 171 170 148 116 84 88 93 97 98 99 99 100 101 102 101 99 97 89 213 189 167 164 157 137 117 97 103 108 114 102 142 141 141 141 112 127 142 149 149 146 146 142 165 150 162 174 171 174 170 157 162 166 170 170 170 170 170 170 175 179 183 185 182 175 168 175 182 173 165 157 196 191 185 199 195 195 196 196 197 198 200 201 200 201 204 207 181 155 190 170 204 162 46 55 53 49 45 42 47 65 81 145 150 154 159 160 161 161 160 159 158 157 156 155 156 156 
94 96 97 99 102 103 105 129 153 163 174 173 171 169 152 125 92 83 87 96 97 98 100 102 102 103 104 102 98 87 222 188 179 181 156 143 123 99 95 95 95 144 137 134 133 110 125 139 154 151 148 146 149 147 141 172 167 163 164 165 169 173 153 184 160 162 163 165 166 169 171 174 178 178 171 167 168 160 167 156 179 201 176 184 192 206 192 193 194 197 198 198 198 199 199 203 207 180 154 185 123 171 212 36 45 55 64 54 48 49 50 80 124 145 151 156 161 164 164 157 158 159 158 157 156 155 155 155 
95 96 98 100 102 103 105 129 149 164 174 173 171 169 152 135 99 77 83 95 97 97 98 100 101 103 104 106 95 85 217 188 186 170 155 150 130 100 97 93 142 142 137 126 96 123 138 147 145 151 148 148 151 152 150 166 158 151 154 155 160 153 164 169 160 159 161 162 165 168 170 172 174 170 166 162 168 172 152 199 165 182 198 198 198 194 190 194 197 199 199 199 199 200 200 208 211 152 182 133 167 172 219 38 41 44 53 53 50 51 52 101 149 146 151 156 162 167 153 154 155 155 156 157 156 155 154 154 
95 97 98 100 102 103 105 129 145 160 174 172 170 168 152 131 101 71 82 93 97 97 98 98 100 101 103 104 93 82 211 201 190 159 153 148 136 102 98 138 118 129 140 106 124 136 141 146 135 115 148 151 154 157 158 159 164 168 157 146 139 132 134 154 160 163 158 161 164 166 169 172 173 167 162 158 168 183 172 200 183 199 197 190 183 188 193 197 200 200 200 200 200 201 202 215 147 178 132 162 126 197 129 39 43 46 49 52 53 53 73 127 149 146 151 157 165 155 154 154 153 153 153 153 154 155 154 154 
97 96 98 100 102 103 105 127 141 158 172 171 169 168 157 128 99 70 81 92 97 97 98 98 98 99 101 103 92 81 214 203 179 148 152 147 142 103 129 127 126 135 104 128 151 137 134 144 126 129 132 124 137 151 148 92 110 89 121 152 157 131 105 162 164 166 140 156 159 162 140 142 171 165 159 153 197 179 192 200 200 198 197 190 188 192 197 201 201 201 201 201 201 202 203 196 168 152 81 93 169 221 38 41 44 48 51 53 55 55 94 153 150 146 155 163 157 156 155 154 154 154 154 154 153 153 153 153 
100 98 98 100 102 103 105 123 141 161 170 169 168 169 154 129 99 70 80 91 97 97 98 98 98 98 99 101 90 79 216 199 175 159 144 134 139 119 118 116 115 113 123 147 146 134 123 125 128 131 140 149 147 144 119 141 130 119 98 77 152 168 149 130 121 112 121 151 129 108 98 111 50 161 171 180 162 175 188 201 199 198 196 189 193 198 200 201 201 202 202 202 202 203 204 145 86 86 109 147 211 174 42 43 46 49 53 54 56 57 119 148 148 153 161 159 158 157 156 155 155 155 154 154 154 154 154 153 
102 101 99 99 101 103 105 125 145 165 168 168 169 170 153 133 101 69 79 90 97 97 98 98 98 98 99 99 90 80 219 203 186 170 137 121 137 117 116 115 114 123 142 141 140 129 126 127 130 133 137 146 128 138 136 104 96 88 108 88 116 141 117 77 67 57 128 66 60 54 50 46 35 173 151 173 194 195 196 197 198 197 196 194 197 198 199 200 201 202 202 203 203 148 92 92 93 107 136 177 217 44 45 47 48 51 54 55 56 86 147 150 153 159 160 159 158 158 157 156 156 155 155 155 155 155 154 153 
104 103 101 100 101 103 109 127 147 168 169 169 170 170 154 137 99 73 78 88 97 97 98 98 98 99 100 101 92 81 195 194 178 177 129 108 134 115 114 114 113 132 141 138 135 132 129 129 131 135 138 142 110 131 129 127 107 128 81 80 79 114 106 77 85 79 98 68 55 46 31 45 193 145 181 192 192 192 193 193 194 194 195 196 197 198 199 200 201 202 202 97 92 86 97 98 99 149 199 195 40 46 49 50 52 53 54 55 59 115 144 156 159 162 161 160 159 158 158 157 156 156 156 156 156 155 154 153 
106 105 104 102 101 102 113 128 149 165 169 170 171 171 155 137 91 76 82 88 97 97 98 98 99 100 101 102 96 85 136 185 185 184 140 152 156 150 102 102 121 142 136 129 129 135 131 123 133 137 125 99 118 125 110 95 76 91 54 63 98 108 100 76 71 100 68 71 51 39 96 185 110 190 189 189 189 190 191 191 192 192 194 196 197 197 198 200 201 141 90 105 98 91 122 152 164 188 211 36 42 49 53 54 55 55 60 54 67 144 141 153 164 163 162 161 160 159 158 157 157 157 157 156 156 156 154 153 
109 107 106 105 103 102 117 132 150 162 170 171 171 172 154 136 97 73 81 89 97 98 99 100 101 102 103 104 100 89 77 202 185 173 150 118 136 125 90 110 129 130 124 124 124 129 134 116 135 127 118 122 125 88 51 111 65 53 56 57 116 101 42 66 57 122 38 73 46 103 160 134 197 189 186 186 187 188 189 189 190 190 192 196 198 198 198 132 107 123 122 113 137 160 163 165 187 206 45 46 47 51 56 58 51 56 74 52 104 141 138 156 164 164 163 162 161 160 159 158 158 157 157 157 157 155 154 152 
111 109 107 105 103 100 115 133 151 161 171 171 172 173 154 136 103 70 80 90 96 97 99 101 103 103 104 105 104 93 86 219 185 181 178 174 167 100 110 124 137 118 118 118 118 123 110 127 90 137 141 102 63 65 61 51 53 46 57 116 80 43 73 103 89 38 35 137 129 134 138 198 194 189 183 183 184 185 186 187 188 188 191 195 199 159 46 114 102 104 153 160 166 171 176 178 209 45 48 51 54 57 60 53 46 58 39 50 141 142 147 165 165 164 164 163 162 161 160 159 158 158 158 158 157 155 154 152 
111 108 105 103 101 99 109 127 149 162 172 172 172 173 153 135 95 73 82 90 95 96 97 99 100 102 104 106 108 102 95 119 203 189 181 177 127 96 130 126 122 119 122 117 112 119 128 138 105 112 78 69 70 82 66 49 73 38 78 114 45 57 60 110 62 125 32 159 122 142 198 194 190 185 180 181 182 183 184 185 186 186 189 192 88 46 114 95 112 117 138 145 175 183 187 191 44 48 52 54 57 58 55 49 42 46 50 101 146 134 157 165 165 164 164 163 163 162 161 160 159 159 159 158 157 155 154 152 
110 107 104 102 99 97 103 122 147 163 173 173 173 174 153 134 87 75 83 91 95 95 95 96 98 100 102 104 109 105 99 94 221 207 194 180 146 130 125 130 107 119 131 124 117 136 121 105 96 87 77 66 67 59 41 113 33 42 98 46 58 70 47 116 34 123 101 116 154 192 191 191 187 182 182 180 180 181 182 182 183 184 186 187 102 89 76 101 138 131 123 154 184 194 144 46 44 51 55 58 57 53 50 44 43 58 62 117 135 126 166 166 165 165 164 164 163 163 162 161 160 160 159 158 157 155 154 152 
110 107 104 101 98 96 98 122 145 163 174 174 173 174 154 133 94 73 83 91 94 94 95 95 96 98 100 104 109 108 103 97 92 205 195 185 103 129 121 120 129 124 119 129 121 114 127 100 62 73 84 96 54 50 46 108 35 92 53 54 69 84 42 83 96 121 128 157 186 185 185 184 183 183 183 181 180 179 180 181 188 189 191 192 142 84 71 107 91 134 131 163 193 59 48 46 45 51 58 55 52 48 45 41 44 58 73 134 129 138 165 165 164 164 164 164 163 163 162 162 161 160 160 158 157 155 153 152 
109 106 103 101 98 95 92 123 143 161 175 175 174 175 154 137 101 71 83 92 93 93 94 94 94 96 99 104 110 109 107 101 93 211 200 190 141 129 120 111 122 133 107 117 126 92 133 70 59 58 70 88 59 44 60 64 81 43 49 53 51 48 36 56 75 81 116 150 184 179 175 171 167 177 178 171 173 176 178 192 193 195 196 197 181 123 65 59 100 110 138 157 117 39 43 47 45 52 58 57 58 49 40 42 44 59 104 132 127 149 165 166 164 163 163 163 162 162 162 162 161 161 159 158 156 155 153 152 
109 106 103 100 97 95 93 124 141 159 176 176 175 175 158 140 105 69 81 92 92 93 93 93 94 94 100 105 111 110 108 104 93 217 207 195 109 128 117 112 120 128 136 130 123 69 78 67 55 44 62 80 68 59 74 50 127 40 46 52 46 41 53 137 84 123 151 166 181 177 172 168 170 180 172 156 169 183 196 197 198 199 199 200 186 140 83 51 108 86 144 151 104 42 43 44 45 51 58 53 56 68 43 44 45 90 134 130 125 161 164 166 165 163 162 162 161 161 161 161 160 160 159 158 156 155 153 152 
108 105 103 100 97 95 93 121 138 156 174 176 175 175 157 139 104 68 80 92 95 95 95 96 96 96 101 106 111 110 109 108 94 223 214 154 110 108 111 113 120 128 112 116 120 45 60 59 48 43 47 91 71 75 70 35 86 107 93 34 34 33 154 83 179 132 186 174 183 173 168 164 173 183 177 171 180 190 196 199 201 202 203 203 191 155 99 43 37 78 150 165 90 46 47 46 48 52 58 59 43 45 46 48 50 94 133 127 143 159 154 167 165 164 162 161 160 160 160 160 159 159 159 158 156 155 153 152 
108 105 102 100 98 96 94 118 136 158 173 175 175 175 157 139 103 67 79 92 97 97 98 98 97 97 102 107 112 112 112 111 110 168 219 113 111 108 106 114 121 129 87 76 64 52 82 47 40 42 45 49 75 71 67 42 44 94 36 32 30 163 102 182 161 140 167 176 185 170 165 160 176 143 168 175 183 193 197 199 202 205 206 207 199 170 114 52 36 69 100 178 77 49 47 48 52 56 60 64 44 45 45 49 54 117 131 139 161 156 151 146 154 160 163 161 159 159 159 159 159 158 158 157 156 155 153 151 
107 105 102 100 98 96 94 115 137 159 171 173 175 175 157 138 102 68 79 92 99 100 100 99 98 99 104 109 112 115 115 115 114 112 223 113 121 118 119 118 126 121 105 60 53 44 104 41 64 54 44 65 46 55 63 119 49 124 34 29 145 123 182 183 165 144 168 178 186 168 163 163 164 164 171 178 186 194 197 200 203 205 208 210 206 185 123 60 34 56 49 158 115 48 47 51 55 59 62 62 44 45 45 46 79 139 130 149 159 154 151 151 150 147 149 153 156 158 158 158 158 157 157 156 156 154 153 151 
107 105 103 101 99 97 95 117 139 161 170 172 173 175 156 138 102 68 80 92 102 102 101 100 99 101 106 110 112 114 118 118 117 118 197 112 120 128 132 138 130 93 56 49 42 35 71 69 42 66 49 54 72 37 105 67 54 154 31 120 120 161 173 184 166 147 169 184 188 165 165 165 165 166 174 182 189 194 197 200 203 206 208 211 214 195 132 81 43 42 96 160 107 46 50 53 57 60 67 60 45 45 44 44 106 139 140 155 158 156 156 156 157 153 150 147 144 146 149 152 157 156 156 155 155 154 153 151 
105 105 103 101 99 97 93 119 141 163 168 170 173 176 156 137 103 69 81 92 104 103 102 101 100 103 108 109 111 113 116 121 121 123 128 112 109 138 133 130 96 45 47 67 60 36 37 96 58 52 55 47 55 65 42 92 31 44 95 125 141 159 165 184 180 162 174 191 174 157 167 167 167 169 177 184 192 195 197 200 202 205 207 210 210 204 153 102 51 49 75 161 117 53 51 55 58 62 72 58 46 46 42 74 136 138 150 161 161 161 161 162 162 160 157 153 149 147 145 144 142 145 149 152 154 153 153 151 
104 104 104 102 100 98 92 121 143 165 168 171 173 176 157 137 103 69 81 92 102 104 103 102 101 104 107 109 111 113 115 119 124 137 95 138 122 131 122 121 73 82 38 85 48 37 57 73 55 37 60 39 38 92 58 117 32 43 117 139 161 157 158 184 188 176 184 166 161 150 164 168 169 171 179 187 185 193 195 198 200 203 205 208 206 202 151 95 48 51 53 127 145 60 58 56 60 70 70 47 48 49 47 104 137 135 147 162 160 161 163 164 166 167 163 158 154 151 149 147 145 142 139 140 143 146 148 151 
102 102 102 102 100 98 90 119 144 163 169 171 174 177 157 138 104 70 80 91 101 104 104 103 102 105 107 109 111 113 115 117 168 159 62 89 134 123 112 113 50 119 40 103 36 57 77 50 48 48 52 53 36 100 35 78 33 157 100 185 176 163 150 184 188 191 161 82 112 142 156 170 172 174 181 179 178 191 193 196 198 201 203 206 203 200 139 79 46 48 50 93 158 67 65 63 61 83 59 48 49 51 52 120 138 132 158 164 160 158 160 161 163 162 161 159 157 155 152 150 147 144 142 139 136 136 138 141 
101 101 101 101 101 99 89 117 146 162 173 173 175 177 158 140 105 71 79 89 99 104 104 103 103 105 107 109 111 113 115 127 173 54 38 85 185 124 81 54 97 43 41 120 39 35 70 59 56 59 63 66 60 45 42 38 117 91 185 188 191 165 163 191 193 120 137 140 116 91 67 105 141 176 174 171 171 184 192 194 197 199 202 204 188 146 103 62 43 45 48 50 170 49 52 55 63 53 48 49 49 50 67 136 136 152 169 165 161 157 157 158 160 158 156 154 154 155 154 152 150 147 144 142 139 136 134 131 
99 99 99 99 99 99 87 115 145 161 176 177 177 178 159 141 107 72 80 88 98 105 104 104 100 102 108 110 112 114 134 138 137 49 62 81 139 76 70 63 94 65 114 41 42 40 62 48 93 51 46 41 83 52 41 49 149 158 167 186 181 153 176 198 110 130 147 117 163 127 76 77 78 96 166 164 164 177 190 189 188 187 187 97 96 117 137 112 49 44 45 48 174 81 50 55 64 50 47 47 47 48 82 137 133 150 166 164 162 159 155 155 155 153 153 154 154 154 154 154 152 150 147 144 142 139 139 133 
97 97 97 97 98 95 83 111 143 161 176 176 177 178 160 142 108 73 81 89 96 105 104 101 97 94 100 106 112 135 149 148 147 182 167 102 92 59 50 101 43 86 100 34 109 45 41 36 94 51 52 49 42 36 29 162 124 156 181 200 188 175 202 85 100 74 64 54 113 46 84 72 107 124 140 156 157 174 192 190 180 169 144 119 88 56 62 68 55 46 46 45 177 112 47 57 66 47 46 46 45 46 108 137 131 156 162 160 158 156 154 152 152 153 153 153 154 154 154 153 153 152 149 147 145 146 147 135 
96 96 96 98 99 90 79 109 142 159 175 176 177 179 160 139 107 72 83 90 98 105 102 98 95 91 93 99 200 136 148 152 156 118 79 40 35 116 84 92 74 73 85 39 40 43 47 43 32 120 64 58 52 38 92 103 194 176 193 199 197 197 64 57 49 54 53 46 63 50 39 54 136 135 135 152 155 180 193 201 191 103 60 55 53 51 54 54 51 48 46 44 180 102 74 67 60 47 47 46 45 44 144 138 140 161 159 158 156 154 152 153 153 152 153 153 154 154 153 153 153 152 152 149 146 143 144 137 
94 95 97 98 97 86 75 108 140 158 175 176 178 179 162 136 105 72 85 92 99 104 106 101 96 90 85 198 182 137 148 152 136 78 57 46 128 39 117 31 105 85 58 44 41 42 84 49 42 35 51 89 44 33 155 176 174 177 202 199 195 80 62 50 71 52 39 87 174 176 69 62 114 113 139 147 152 185 203 212 80 62 44 147 163 84 42 44 47 49 46 42 183 90 71 61 53 47 48 47 46 75 144 138 149 159 158 156 154 153 152 154 154 153 153 153 153 154 153 153 152 151 148 143 140 137 141 139 
96 97 98 99 93 83 74 108 139 158 176 177 178 179 164 133 102 71 87 93 98 104 107 107 102 97 51 170 107 180 147 131 115 39 35 120 41 86 68 49 127 97 56 46 43 40 120 44 42 39 37 37 36 105 107 174 153 185 199 199 98 105 86 43 93 67 70 72 188 210 182 70 92 117 134 143 150 183 216 169 102 80 62 74 168 116 48 47 48 51 47 43 176 78 68 57 47 47 48 48 48 105 140 139 158 157 156 155 153 151 152 154 156 155 154 153 153 153 153 152 149 147 143 137 133 134 137 141 
98 99 99 100 91 81 72 108 141 159 177 178 180 182 163 137 106 75 88 96 98 103 107 108 108 62 57 141 168 222 207 75 57 38 100 78 54 85 88 91 104 109 54 48 44 41 67 39 38 37 36 44 60 98 194 172 186 200 196 106 116 126 136 82 103 124 100 151 201 206 151 147 134 121 130 138 147 183 220 125 124 112 79 156 172 113 54 53 53 52 48 44 168 102 92 69 46 46 47 48 49 136 137 144 158 156 154 153 151 151 153 155 157 156 155 155 154 153 151 148 146 143 139 133 127 143 159 165 
100 101 101 97 89 80 71 106 142 160 178 180 182 184 162 137 109 78 90 98 106 107 108 37 55 127 144 153 153 76 41 72 103 133 71 36 41 45 80 72 149 132 115 80 45 41 41 41 38 36 35 34 156 141 165 178 187 193 93 114 128 138 141 141 124 107 112 129 147 159 166 173 133 125 128 136 145 187 223 173 159 144 117 142 127 68 71 56 55 61 59 45 156 126 92 57 45 45 45 46 86 135 137 148 159 157 154 152 150 152 153 155 155 152 151 151 150 149 144 145 142 140 134 143 161 177 183 188 
102 103 98 94 87 78 69 98 141 159 178 181 184 187 162 136 111 82 91 99 107 115 110 95 138 142 145 65 80 58 39 37 151 78 107 59 38 60 105 52 97 116 135 52 46 44 43 43 44 36 35 97 98 184 184 188 197 80 101 122 139 146 147 149 145 128 123 121 119 144 144 144 131 129 132 134 143 185 227 188 160 136 132 127 81 85 88 58 61 70 79 47 159 131 78 45 45 44 44 45 122 135 141 153 159 157 155 152 150 151 152 154 153 151 147 147 146 145 138 136 136 136 158 180 185 190 189 191 
104 100 95 91 86 77 54 97 141 159 177 180 183 186 165 138 112 85 92 98 105 112 111 139 167 119 71 66 89 40 62 75 79 106 108 59 35 75 54 118 113 83 59 52 47 46 46 46 46 42 35 159 122 167 194 203 60 101 118 134 151 153 155 157 160 149 146 150 160 170 169 167 130 133 136 138 141 182 224 204 170 156 147 135 123 96 105 61 59 58 56 48 161 135 64 45 44 44 43 43 131 134 146 157 159 157 155 152 150 150 151 153 152 149 146 143 142 141 134 127 152 177 186 193 194 191 190 194 
96 93 90 87 84 70 56 97 140 158 177 180 183 185 164 143 112 81 92 97 103 108 109 112 115 111 147 119 56 55 108 113 117 65 109 36 49 98 85 71 129 92 171 51 50 49 48 48 48 48 111 108 190 193 195 76 77 107 124 140 149 156 161 164 167 170 171 172 173 174 172 165 138 132 132 134 137 179 220 200 180 168 156 144 132 120 111 72 55 54 66 34 159 166 55 45 44 44 43 74 139 139 150 162 160 157 155 152 150 149 150 152 150 147 145 140 138 137 130 149 172 190 201 198 194 191 191 197 
88 85 82 80 77 73 59 99 139 158 176 179 182 184 163 143 108 77 90 98 104 148 157 151 144 60 58 56 59 69 91 119 98 120 46 43 48 46 86 117 124 65 49 130 91 51 48 44 41 37 147 118 180 194 168 53 87 113 130 140 148 154 161 167 172 175 175 176 176 177 170 163 145 139 133 130 133 175 217 198 175 167 159 148 137 127 116 84 51 64 76 38 156 148 46 45 44 44 43 104 135 145 155 160 159 157 154 152 150 148 149 151 148 146 143 140 135 133 142 171 192 196 199 197 195 192 194 199 
80 78 75 73 71 69 61 98 139 158 176 178 181 183 163 144 108 73 86 99 107 114 137 108 105 77 93 63 61 110 74 125 78 89 62 49 47 44 42 95 94 38 89 140 113 44 44 42 38 120 108 204 189 209 39 67 98 119 129 139 146 153 159 166 172 179 178 176 175 173 165 159 153 147 141 135 129 173 216 202 171 162 154 146 137 127 116 60 54 63 86 42 147 129 72 55 51 47 43 117 135 148 160 159 158 156 154 152 149 147 148 149 146 144 141 139 134 129 171 186 193 194 198 196 194 192 197 202 
81 76 71 67 64 62 57 93 140 158 176 175 177 180 164 144 109 71 84 106 101 109 117 63 104 94 128 70 118 46 88 130 105 58 42 61 58 49 46 44 64 41 75 108 147 36 36 36 36 138 116 186 197 50 55 71 108 118 129 138 145 151 158 164 170 174 174 173 171 170 159 153 147 142 136 130 131 165 215 210 166 158 149 141 133 124 116 54 52 51 90 39 138 142 103 40 64 50 62 129 135 148 159 157 156 155 154 152 149 147 147 147 145 142 140 137 134 153 181 196 195 194 196 194 195 198 202 205 
83 78 73 68 63 58 53 88 140 158 176 175 174 176 160 144 106 68 91 114 123 103 135 140 46 113 81 136 53 70 73 140 132 57 57 72 57 41 49 76 45 44 93 144 136 151 45 37 97 100 194 196 167 44 70 65 107 118 128 137 143 150 155 160 165 170 170 169 167 166 156 146 141 136 131 125 134 150 204 218 162 153 145 137 130 124 103 47 46 70 93 36 112 155 141 34 60 44 81 142 135 159 158 156 155 153 152 151 149 147 146 145 143 140 138 135 133 176 190 196 195 195 194 198 201 205 206 206 
84 79 74 69 64 59 51 88 138 158 175 175 174 173 161 144 106 68 93 119 144 129 133 42 82 131 120 56 76 95 82 99 78 56 56 60 46 33 53 108 76 85 128 180 40 135 38 29 157 113 199 206 33 37 86 60 105 117 128 135 141 146 151 156 160 165 167 165 164 162 152 142 134 130 125 120 135 150 192 224 157 151 144 138 131 125 90 41 56 70 85 40 85 162 134 28 56 38 106 145 147 158 156 155 154 152 151 149 148 147 145 143 141 139 136 134 158 185 197 198 199 200 201 205 207 207 206 206 
85 80 75 71 66 61 48 88 136 156 175 174 174 174 166 144 107 68 93 115 123 111 130 56 117 76 92 63 91 119 91 112 103 94 41 47 48 32 48 82 59 126 86 162 53 56 31 68 113 158 203 38 35 36 98 67 97 112 127 132 137 141 146 151 156 160 163 162 160 159 148 138 128 127 125 121 131 149 190 230 177 149 145 139 132 119 78 45 55 66 76 37 67 169 146 34 39 59 139 149 158 157 155 154 152 151 150 148 147 145 144 142 139 137 135 133 182 192 197 200 202 205 208 208 207 207 207 207 
87 82 77 72 68 63 46 87 133 154 175 175 175 174 170 144 110 68 86 105 103 115 106 70 98 126 63 70 61 51 99 89 135 132 45 45 63 30 43 55 79 157 99 99 42 42 76 121 107 166 141 38 36 34 109 74 92 111 127 131 134 138 142 146 151 156 160 158 157 155 142 128 115 131 128 123 125 143 177 218 181 145 141 137 133 114 59 48 59 68 78 34 48 167 158 40 38 80 143 152 158 156 155 153 152 151 149 148 146 145 144 141 138 136 133 157 187 194 197 199 203 207 208 208 208 208 207 207 
88 83 79 74 70 65 43 87 131 157 174 175 175 175 175 144 113 108 127 94 107 119 83 67 95 123 71 64 143 51 107 65 161 62 49 42 49 38 39 44 40 63 112 36 32 27 157 174 177 189 78 37 36 42 104 76 94 116 128 131 135 138 142 145 149 152 156 156 156 155 145 132 121 135 130 124 119 137 163 205 169 149 140 136 124 80 41 51 60 70 79 47 39 165 141 67 37 92 146 154 157 156 154 153 152 150 149 147 146 145 144 141 138 135 132 173 191 194 197 202 206 209 208 209 209 208 208 208 
84 83 79 75 71 67 57 95 139 165 174 174 174 174 173 143 109 75 85 96 107 119 60 65 92 119 57 58 84 110 88 99 159 52 46 39 89 63 36 38 76 164 45 43 45 47 169 180 190 52 45 37 40 51 108 78 99 118 128 131 135 138 142 146 149 152 154 156 156 156 149 136 126 129 59 93 89 119 149 193 165 153 142 135 114 45 43 50 62 71 81 61 39 154 124 94 63 117 148 155 157 155 154 153 151 150 148 147 146 145 144 141 138 135 142 188 192 196 200 205 209 208 208 209 209 209 209 208 
81 81 78 74 70 70 72 106 146 164 173 173 173 175 170 144 110 76 87 98 108 120 81 62 77 91 43 116 102 86 68 83 121 99 126 43 38 167 54 38 111 43 77 115 112 109 147 159 98 49 57 69 44 59 112 80 104 118 128 132 135 139 142 146 148 150 152 154 155 156 152 141 132 122 130 134 122 142 172 180 169 157 146 134 105 47 44 46 58 70 82 61 39 142 137 82 39 143 149 157 156 155 154 152 151 149 148 147 146 145 144 141 138 135 152 190 195 199 203 208 209 208 209 209 210 209 209 209 
77 77 78 73 69 72 86 120 154 163 172 173 174 176 168 146 112 77 88 99 109 120 85 50 57 63 142 44 80 62 112 98 83 146 140 46 46 138 71 59 47 107 109 145 185 99 124 211 46 47 51 71 56 51 119 81 109 119 128 132 135 139 143 144 146 148 150 152 153 155 156 152 147 143 138 166 154 175 195 175 160 148 137 126 53 50 46 43 56 70 74 60 39 104 150 84 73 140 151 157 156 154 153 152 151 149 148 147 146 145 144 141 137 134 162 191 198 202 206 211 209 208 209 209 210 210 210 209 
74 74 74 73 69 75 84 120 154 163 172 172 175 177 166 147 113 78 87 95 104 142 84 59 65 126 55 57 76 77 96 85 115 131 153 91 102 97 66 63 51 171 173 175 83 89 195 43 45 45 45 72 50 42 109 102 103 119 129 132 136 139 141 142 144 146 148 150 151 151 151 152 147 148 151 197 173 180 192 175 151 140 128 117 51 49 45 53 57 70 66 52 38 66 163 86 106 136 152 157 155 154 153 152 151 149 148 147 146 145 144 141 137 134 172 193 201 205 209 210 208 208 209 209 210 210 210 210 
70 70 70 70 68 76 82 120 154 162 171 173 176 178 164 149 112 76 82 87 146 119 59 68 123 39 50 61 72 92 81 69 58 116 110 136 157 55 62 68 93 143 160 177 95 122 57 53 43 44 54 74 44 43 99 122 96 116 129 132 135 137 139 140 142 144 146 148 147 145 146 149 147 153 164 211 191 185 189 178 140 137 136 47 48 47 44 62 67 71 64 58 37 54 168 106 119 133 154 156 155 154 153 152 151 149 148 147 146 145 144 141 137 134 182 195 204 208 211 209 208 209 209 210 210 211 211 210 
67 67 67 67 67 74 80 118 153 162 171 174 177 179 165 146 110 73 82 146 99 132 59 59 115 46 57 64 67 78 80 82 84 45 129 118 91 37 100 163 135 172 196 108 106 154 43 63 53 43 55 67 63 43 97 102 90 110 129 131 133 135 137 138 140 142 144 142 140 138 140 144 147 156 164 166 182 190 186 181 129 141 123 48 46 46 54 72 76 69 67 71 36 42 173 125 131 138 155 156 155 154 153 152 151 149 148 147 146 145 144 141 137 134 184 197 207 211 211 209 208 209 209 210 210 211 211 211 
63 63 63 63 66 71 78 116 153 162 171 174 178 180 166 143 107 71 99 91 118 145 53 49 106 53 56 59 61 126 107 88 69 121 60 100 96 89 122 155 211 200 95 89 188 47 43 55 53 47 48 60 71 43 94 90 85 105 124 128 132 136 139 141 143 145 139 126 123 132 131 131 130 130 130 121 145 127 113 99 118 145 51 49 47 45 63 81 74 67 61 63 42 42 163 142 147 152 157 156 155 154 153 152 151 149 148 147 146 145 144 141 137 146 186 199 210 212 210 208 208 209 209 210 210 211 211 211 
59 59 60 61 65 69 91 123 150 162 171 174 178 181 169 139 109 84 116 92 129 129 46 67 40 75 69 62 56 153 101 103 106 81 143 55 45 118 137 190 198 131 86 147 50 46 42 46 54 51 52 53 80 43 77 85 81 100 119 123 127 131 135 139 143 147 134 121 107 94 100 107 113 105 110 115 131 146 124 123 146 134 49 47 45 43 48 66 80 65 59 54 48 42 153 153 152 152 156 156 155 154 153 152 151 149 148 147 146 145 144 141 134 158 193 203 213 211 209 208 209 209 210 210 211 211 212 212 
56 56 56 60 63 67 94 120 147 160 171 174 178 182 172 152 132 129 75 92 140 113 68 84 66 52 82 64 47 180 73 91 108 77 60 115 111 146 133 121 185 106 118 158 50 52 45 38 54 54 54 54 64 48 61 82 76 95 114 118 122 126 130 135 140 143 144 130 117 125 129 132 136 170 178 185 203 165 136 147 119 45 47 45 42 40 45 50 101 79 56 53 50 44 148 147 147 160 156 156 155 154 153 152 151 149 148 147 146 145 144 139 129 165 200 208 214 211 209 208 209 209 210 211 212 213 211 211 
52 52 55 58 60 70 90 117 143 157 171 175 179 182 178 180 121 62 79 141 125 97 61 149 51 43 106 101 96 157 131 74 64 130 116 111 139 146 119 214 94 161 150 45 51 56 53 46 55 55 55 55 56 53 66 78 71 88 109 114 118 123 128 133 137 139 140 140 134 127 123 123 127 145 148 153 143 145 147 138 93 52 45 45 45 50 68 46 108 76 69 57 50 45 142 142 155 152 155 155 155 154 153 152 151 150 148 147 146 145 144 136 127 162 204 212 214 211 208 210 211 213 214 214 212 211 209 210 
49 50 52 52 52 72 93 114 140 154 172 176 179 183 166 148 107 65 88 118 109 81 53 139 50 34 93 48 84 133 88 106 89 65 133 107 107 146 113 204 160 215 49 46 50 56 62 55 55 55 56 57 57 58 58 58 67 80 96 107 113 118 124 129 135 136 138 138 133 129 125 122 118 121 123 126 128 136 145 129 66 53 46 49 49 61 58 46 100 64 82 70 59 47 137 150 163 148 154 154 154 154 153 152 151 150 148 147 146 145 141 134 125 159 208 215 215 214 215 215 216 214 213 211 210 208 207 209 
45 45 45 45 45 110 97 117 137 155 174 177 181 181 166 149 110 68 96 95 94 75 64 66 49 49 68 66 108 121 95 138 126 113 84 120 74 125 106 211 186 53 50 47 49 55 58 57 56 58 60 61 63 65 53 59 67 71 84 96 105 111 116 122 132 135 137 136 131 138 140 136 139 144 146 145 139 134 142 45 52 49 47 50 53 50 48 45 91 69 76 72 65 53 134 158 155 149 153 153 153 153 153 152 151 150 149 147 146 144 139 131 123 156 212 219 218 217 216 215 214 212 211 209 207 206 205 207 
47 47 48 48 48 105 103 120 138 157 175 178 179 179 167 150 110 71 96 121 99 79 74 58 40 63 42 56 70 109 101 130 106 97 88 132 85 104 98 218 82 52 51 48 49 55 55 53 55 53 57 62 67 72 47 60 73 59 62 84 96 103 109 119 129 135 136 134 137 148 154 154 160 167 161 155 149 144 140 52 48 44 49 53 60 56 54 51 99 73 70 66 63 59 131 166 147 150 153 153 153 153 153 152 151 150 149 148 146 142 136 128 122 168 216 220 218 216 215 214 213 211 209 207 205 204 204 206 
48 49 50 50 51 100 107 121 139 157 176 176 177 177 169 150 111 65 89 121 85 82 101 49 54 61 47 51 77 116 75 122 133 122 111 116 96 93 90 195 53 52 50 49 48 51 51 51 54 55 49 54 59 65 57 70 58 46 64 52 74 96 106 116 125 131 135 135 146 157 168 168 168 168 165 162 158 154 64 59 53 50 53 70 67 63 60 57 106 80 71 63 54 46 134 164 139 150 152 152 152 152 152 152 151 150 149 148 144 140 134 126 121 173 220 221 218 216 214 212 211 210 208 205 203 201 203 205 
50 51 51 52 47 88 111 121 140 158 176 175 175 175 171 151 105 59 81 121 53 54 128 41 67 59 51 45 84 122 49 63 110 122 134 115 138 112 86 55 51 50 49 48 47 47 47 50 52 55 51 46 50 58 66 61 56 50 66 55 43 70 87 105 122 128 134 138 142 151 164 168 169 169 168 164 160 144 53 63 57 56 57 64 62 62 63 63 104 87 78 69 61 53 136 161 156 151 151 151 151 151 151 151 151 150 149 146 142 137 131 125 120 172 224 222 219 217 215 212 210 209 207 204 202 199 189 178 
52 52 53 48 43 75 99 122 140 158 176 175 174 174 173 139 99 53 101 96 54 47 76 57 61 84 52 49 48 128 64 75 86 120 100 113 138 163 122 129 49 48 47 47 52 60 49 50 51 54 53 48 42 52 62 61 60 55 60 68 56 43 50 57 64 88 112 121 134 147 159 164 168 171 170 166 150 134 42 59 61 57 61 57 54 53 54 63 102 93 85 76 68 59 142 161 136 131 136 141 146 151 151 151 151 150 148 144 140 135 128 124 119 201 220 218 216 215 213 211 209 208 206 196 185 144 64 48 
53 54 49 44 39 65 92 108 140 158 175 175 174 173 172 134 92 121 159 70 55 39 86 63 55 59 53 48 55 133 137 101 64 139 66 128 129 157 70 148 110 47 46 46 57 73 51 52 53 54 55 50 44 48 58 57 56 55 54 81 83 85 94 110 125 128 131 134 141 148 155 159 164 168 172 169 166 164 64 65 65 54 54 51 47 44 54 63 107 88 79 70 65 64 148 160 125 111 116 121 126 131 135 140 145 150 146 142 137 133 127 121 143 202 216 215 212 211 209 207 205 204 177 119 61 43 47 50 
55 55 55 52 46 61 77 94 137 157 175 175 173 172 170 138 146 153 81 81 52 37 95 57 83 58 71 47 61 121 131 87 42 80 116 105 95 151 131 58 171 150 46 45 62 86 53 53 53 53 55 52 47 44 55 53 52 51 58 72 91 111 130 126 124 127 130 135 136 142 149 151 150 148 159 171 182 193 195 196 124 51 50 48 47 41 52 63 113 82 73 70 70 70 157 160 114 120 116 113 109 109 114 119 124 128 132 132 131 131 123 114 155 204 212 211 209 207 205 203 201 183 148 82 46 40 60 79 
92 70 65 59 54 62 63 79 122 154 175 174 172 171 169 181 119 56 55 164 36 34 90 43 58 57 107 62 55 77 125 124 123 120 166 82 119 90 121 94 171 86 129 44 61 89 52 52 52 53 56 56 49 44 51 50 49 62 62 62 82 105 127 124 123 126 130 137 137 138 142 149 147 150 161 173 184 190 193 195 198 202 126 49 70 39 50 72 118 76 76 75 75 75 166 153 128 129 125 122 118 114 110 107 103 107 110 114 114 121 114 108 156 205 208 207 205 203 201 199 189 152 77 38 53 67 82 82 
128 127 105 83 61 63 64 65 108 151 172 172 172 180 188 160 123 78 183 45 48 50 42 98 32 46 123 77 107 32 131 103 75 80 56 96 98 123 111 113 171 86 90 51 53 91 50 50 51 53 56 58 53 46 47 46 59 72 66 53 80 108 124 122 122 125 133 138 139 139 140 143 145 152 164 176 183 187 191 193 196 200 204 208 93 36 47 82 108 77 79 79 80 80 175 146 142 138 134 130 127 123 119 115 110 102 98 97 96 110 94 78 142 206 204 203 201 200 197 195 156 45 55 65 73 81 88 84 
128 130 130 109 87 77 59 60 113 147 170 169 169 168 168 140 111 160 158 43 42 49 64 88 39 35 138 69 71 46 97 56 108 131 57 62 114 98 162 131 101 150 51 162 60 74 49 49 51 54 56 58 57 50 43 56 70 83 67 51 83 110 121 120 120 127 135 139 140 141 141 142 143 155 167 176 180 184 187 191 194 198 203 208 213 159 45 72 98 78 73 82 82 67 164 143 143 142 141 138 135 131 127 123 117 109 101 93 111 129 106 82 146 208 208 206 202 198 194 126 47 68 78 78 81 89 93 87 
129 133 140 133 111 90 53 54 118 143 167 169 170 172 166 144 194 70 97 40 40 39 38 67 95 126 75 61 82 102 62 71 87 68 58 98 113 127 134 137 124 55 107 92 66 57 47 49 52 54 56 59 61 53 45 58 71 86 65 48 83 113 118 117 121 129 137 140 141 142 143 142 147 159 169 173 177 180 184 188 192 197 201 206 210 215 184 47 77 68 59 84 69 54 152 142 144 143 142 142 141 139 135 131 124 116 121 126 128 129 119 86 171 209 210 210 210 198 147 57 74 91 91 91 91 96 95 89 
129 136 143 150 136 107 65 52 113 148 166 172 175 177 163 146 219 145 36 38 43 48 54 55 57 66 63 57 55 46 46 86 88 58 66 67 80 92 143 145 147 53 162 134 184 52 53 55 57 59 62 61 64 56 48 56 73 88 86 46 81 115 115 115 123 131 140 142 142 142 141 141 151 162 166 170 174 178 182 186 190 195 199 203 208 212 216 179 55 55 56 68 74 59 141 144 146 145 144 143 142 141 140 139 136 133 130 127 128 130 131 110 196 211 211 210 205 189 121 52 80 90 99 101 102 104 98 92 
83 128 139 149 160 119 77 50 108 154 165 171 176 182 165 147 166 64 37 39 42 55 69 57 49 44 84 53 59 44 92 39 110 47 74 81 98 95 151 133 114 106 79 176 113 46 55 61 63 65 60 52 67 59 50 50 74 91 108 48 82 113 118 120 127 135 142 141 141 140 140 145 153 159 164 168 172 176 180 184 188 193 198 202 206 211 215 218 138 52 52 52 58 64 137 146 147 146 145 144 143 141 140 139 136 134 131 128 127 129 131 133 201 211 211 210 200 158 96 74 98 88 102 107 109 103 100 94 
37 82 127 151 160 135 91 48 104 159 167 175 179 181 167 149 214 67 37 40 42 45 45 45 44 42 104 49 63 41 96 44 105 81 49 95 64 98 92 118 140 159 43 80 79 40 49 59 68 60 52 44 70 62 53 45 54 118 112 49 82 110 122 125 132 140 139 139 139 138 138 144 150 155 161 165 169 173 177 181 186 191 196 201 205 209 213 217 220 49 48 45 47 101 133 148 148 147 146 144 142 140 139 139 135 132 131 129 127 129 141 162 207 211 211 210 192 128 71 87 100 100 103 114 97 102 103 97 
36 47 107 167 160 153 98 43 107 148 175 177 178 180 171 148 106 70 44 42 52 75 45 45 42 41 128 43 83 38 47 99 72 45 91 104 117 63 105 147 144 141 78 63 133 77 38 59 66 58 50 48 56 59 51 48 84 110 92 51 80 108 125 130 137 137 136 136 137 138 138 141 146 152 158 163 167 171 175 179 184 189 194 200 204 208 212 215 218 189 42 39 35 137 129 150 148 146 145 143 141 139 138 139 135 131 129 128 127 148 170 191 212 211 210 204 185 97 85 92 102 106 108 102 96 101 106 99 
34 42 96 162 165 155 96 38 111 143 176 176 177 179 175 147 115 177 51 49 47 45 45 46 42 39 151 37 62 35 54 57 52 47 62 94 114 84 78 150 140 166 32 45 186 46 39 71 64 56 51 51 51 57 52 52 97 103 106 50 82 106 129 135 134 134 136 137 138 139 137 140 144 149 154 160 165 169 173 177 182 187 192 198 202 207 211 214 217 219 39 37 33 142 149 151 147 145 143 142 140 138 138 139 135 131 127 125 155 176 197 212 213 209 208 198 157 95 99 96 104 108 113 90 95 100 104 102 
33 38 85 157 169 156 97 37 103 144 176 177 178 178 179 169 158 113 58 54 50 45 46 46 43 56 135 37 41 51 60 48 48 48 76 104 111 77 51 153 107 158 121 47 171 109 40 83 61 55 55 55 55 55 55 55 110 116 121 48 94 113 132 133 135 136 137 139 140 139 137 139 143 147 151 157 163 167 171 175 180 185 190 196 201 205 210 213 215 217 157 36 31 147 149 151 147 144 142 140 139 138 138 138 135 131 127 123 182 204 212 213 214 209 207 181 128 93 91 101 107 112 107 90 98 99 103 104 
32 33 74 152 173 152 96 36 98 149 177 177 178 178 173 157 128 48 60 54 50 46 44 46 43 143 118 36 45 54 38 44 50 57 54 52 108 69 90 143 146 149 151 116 155 172 45 64 59 58 57 57 54 52 52 81 123 122 121 48 93 118 133 135 136 137 139 140 141 139 136 138 142 146 150 154 159 164 168 173 178 183 188 194 199 204 208 211 213 214 216 32 32 139 150 152 148 144 141 139 138 138 138 138 134 131 123 136 210 211 213 214 216 210 205 153 100 91 82 100 111 111 100 89 106 106 107 107 
30 28 83 150 176 148 102 35 97 159 177 177 177 176 166 159 120 67 62 56 51 46 43 59 88 42 104 58 49 83 48 48 59 65 63 47 71 113 129 145 131 92 124 184 87 39 50 66 81 58 56 54 52 50 64 101 122 122 121 49 92 123 134 136 138 139 140 142 140 138 136 137 141 145 149 153 157 162 166 171 176 181 186 192 197 202 207 209 211 214 216 27 32 131 142 152 148 144 140 138 137 138 138 138 134 123 125 149 209 212 214 215 217 212 181 128 103 97 100 108 116 103 90 95 104 98 92 86 
29 34 74 148 175 154 117 34 95 156 175 175 175 175 168 160 137 60 57 54 50 46 42 71 47 50 89 68 52 59 59 44 59 74 77 41 34 64 143 129 115 109 38 88 82 140 138 121 103 100 61 56 52 47 78 110 121 121 121 49 91 128 135 137 139 140 142 142 140 138 136 136 140 144 148 152 156 160 164 169 175 180 185 191 196 201 206 209 211 213 215 115 42 136 147 148 145 142 140 137 137 138 138 138 123 125 127 162 209 211 213 216 218 208 156 118 106 95 94 102 101 90 96 101 103 97 92 87 
32 36 46 142 174 170 116 42 93 152 173 174 174 175 171 163 154 52 50 48 44 40 56 48 53 57 70 67 54 54 69 39 40 40 91 36 85 85 116 128 100 126 42 120 37 32 63 54 79 103 68 60 52 62 91 119 120 121 99 63 98 133 136 138 141 142 143 142 139 137 135 136 139 143 147 151 155 159 162 168 174 179 185 190 195 201 206 209 211 213 215 203 51 141 147 144 141 138 135 140 140 141 140 137 128 130 131 150 208 207 206 211 213 199 132 121 110 98 87 102 85 85 96 107 102 98 93 88 
35 35 43 136 170 162 114 50 92 151 170 174 175 175 176 161 158 54 47 42 38 65 69 52 49 57 65 65 57 49 56 42 43 43 70 97 49 106 88 142 101 94 147 88 51 43 57 55 63 58 54 51 48 77 106 113 121 121 77 76 110 133 136 139 142 143 143 141 139 137 135 135 139 143 146 150 154 157 160 166 172 178 184 189 195 200 205 209 211 213 213 213 80 146 143 139 136 134 138 143 143 142 139 136 133 138 137 137 185 192 204 215 207 189 126 114 102 91 89 102 70 85 101 101 100 99 94 89 
38 38 39 132 165 155 124 58 91 150 166 175 175 176 176 152 162 57 48 42 56 90 73 56 46 58 73 60 66 72 43 45 46 96 48 56 84 43 77 110 86 62 129 108 169 53 51 49 47 47 47 48 60 89 108 113 117 122 55 88 120 133 136 139 142 145 143 141 139 136 134 134 138 142 146 149 152 155 159 163 170 176 182 188 194 199 205 209 211 212 212 214 108 142 116 124 132 137 141 146 143 141 138 136 138 146 145 138 140 147 184 220 204 174 119 107 95 84 91 86 87 95 102 94 93 92 91 90 
40 41 37 128 161 147 133 61 87 146 163 175 176 176 175 156 127 59 50 41 43 44 44 43 43 52 61 55 71 60 44 42 43 75 57 80 118 94 65 35 150 53 69 128 37 51 49 47 47 47 47 48 72 101 110 115 119 108 68 99 130 133 137 140 143 143 142 140 138 136 134 133 137 141 144 147 150 154 157 161 167 174 180 186 192 199 204 209 210 212 213 215 189 108 77 90 104 114 119 122 128 140 137 135 143 153 150 140 135 159 196 216 203 158 113 100 88 93 94 84 94 104 96 88 89 90 91 74 
43 44 35 112 174 172 140 63 83 141 159 176 176 175 175 159 118 78 73 38 58 46 50 59 68 58 48 67 86 47 45 42 40 53 66 100 133 83 64 45 58 58 83 86 43 48 48 47 47 47 47 59 83 108 112 117 121 50 84 117 131 135 138 141 142 141 139 138 137 136 134 132 136 139 142 145 149 152 155 159 165 171 178 184 190 196 203 209 211 213 214 216 204 73 80 83 75 88 96 98 99 111 122 134 148 161 151 141 131 171 209 212 180 128 95 88 81 101 72 87 102 99 91 93 93 92 92 58 
46 42 33 102 170 176 146 69 86 142 160 177 176 176 175 160 111 96 96 35 49 48 47 56 63 62 46 73 77 52 49 45 44 44 32 101 122 142 99 55 109 63 46 47 48 48 48 48 47 47 47 71 95 110 114 118 82 37 104 128 132 136 139 141 140 138 137 136 135 133 132 131 134 137 141 144 147 150 153 157 163 169 175 182 188 194 200 207 210 212 214 216 218 77 84 91 90 81 73 74 75 81 93 89 123 136 148 156 146 184 222 208 149 102 76 70 80 90 84 100 106 94 86 98 97 97 87 58 
49 56 64 100 166 179 161 75 88 143 160 177 177 176 176 161 77 94 79 60 40 45 44 52 59 65 44 79 68 56 49 43 49 61 41 40 94 134 102 95 88 110 46 47 47 47 47 47 47 46 61 84 107 111 115 99 43 84 125 129 134 138 140 139 137 136 135 135 135 134 134 134 133 136 139 142 145 148 151 155 161 167 173 179 186 192 198 204 210 212 214 215 214 141 83 94 101 96 86 75 63 52 48 44 78 111 195 188 160 197 215 182 112 76 58 73 78 78 96 113 101 88 90 102 102 95 81 57 
67 78 90 102 166 174 168 95 84 142 161 178 177 177 176 145 87 93 62 43 57 72 41 49 57 60 56 63 74 56 48 41 42 43 51 49 48 77 117 134 108 99 47 47 47 47 46 46 46 53 75 98 105 113 115 52 44 113 128 132 135 139 139 139 138 138 138 138 137 137 137 137 134 135 137 140 143 146 150 153 158 165 171 177 183 190 196 202 208 211 213 215 211 205 78 89 100 111 100 89 78 67 41 45 35 153 197 190 173 210 208 156 74 50 69 77 71 92 112 92 88 83 95 107 104 90 76 57 
84 92 100 121 165 170 174 115 90 140 159 178 178 178 174 149 97 91 45 51 56 62 50 48 56 55 51 46 79 55 58 48 40 65 60 59 57 56 62 127 128 88 47 47 46 46 46 45 45 67 88 104 103 116 42 44 101 122 131 135 137 138 139 141 141 141 141 140 140 140 140 140 137 135 136 138 141 145 148 151 156 162 169 175 181 187 193 199 205 211 213 213 207 208 73 88 102 108 106 97 88 79 70 45 57 128 199 193 186 199 163 65 52 66 80 64 87 110 99 71 75 91 101 112 98 84 70 56 
71 99 107 139 159 164 174 134 95 135 160 176 179 179 173 157 122 94 41 45 50 54 58 57 55 50 45 60 83 55 78 55 38 87 53 81 60 108 74 133 83 103 50 44 43 43 43 42 62 82 102 102 101 34 68 101 116 131 133 134 136 137 139 140 141 142 144 143 143 143 143 142 139 136 137 138 140 143 146 149 154 160 166 173 179 185 191 197 203 209 212 210 210 211 106 93 99 105 111 102 93 83 80 84 71 129 200 211 185 130 74 54 68 67 66 86 109 98 87 67 79 98 109 105 95 88 80 72 
57 85 113 122 154 161 173 134 97 131 161 175 181 177 171 165 95 96 37 44 50 57 63 46 67 45 49 73 97 55 98 62 49 92 45 47 62 66 85 139 78 81 52 45 41 40 39 39 79 78 65 38 66 93 107 122 130 130 132 134 135 136 138 139 140 141 143 144 145 146 145 145 142 139 137 139 140 142 144 147 152 158 164 170 176 182 188 194 200 206 212 213 213 214 178 88 95 102 108 106 97 88 89 93 97 120 201 193 124 81 78 74 84 70 82 107 96 85 74 63 91 106 117 98 86 79 71 67 
44 64 85 105 148 160 173 135 99 130 161 173 182 176 170 165 68 48 44 42 56 62 69 51 79 39 56 73 83 47 105 116 59 46 81 39 117 94 80 112 148 58 55 48 41 39 37 36 45 54 70 85 99 113 128 129 129 130 131 133 134 136 137 138 139 141 142 143 144 146 147 148 145 142 139 139 140 142 144 146 149 156 162 168 174 180 185 191 197 203 208 212 211 209 208 83 90 98 104 110 101 95 99 103 107 111 148 119 88 85 81 78 74 86 99 111 93 79 68 76 103 114 109 91 78 70 63 61 
45 52 66 86 140 172 172 137 101 132 162 173 180 178 171 164 59 47 51 49 48 61 74 56 65 37 48 80 70 39 112 124 36 50 117 31 76 121 75 99 56 97 48 44 41 37 53 69 76 83 94 107 118 125 128 128 128 129 131 132 133 135 136 137 138 140 141 142 143 145 146 147 149 147 143 139 141 142 144 145 147 153 159 165 170 176 182 188 194 199 203 208 212 211 210 78 85 93 100 107 106 104 108 112 114 113 104 95 94 92 91 86 80 92 104 90 80 71 61 92 112 121 102 84 69 61 58 56 
45 52 60 67 131 195 184 154 103 133 162 174 179 179 174 127 49 54 58 56 55 53 54 55 50 85 50 87 59 44 105 83 91 46 88 53 34 74 42 86 120 45 44 43 41 50 65 81 93 106 118 120 121 128 128 128 128 128 130 131 133 134 135 136 138 139 140 141 143 144 145 147 148 149 151 146 144 146 147 149 151 153 155 161 167 173 179 185 190 194 199 203 208 213 211 123 82 89 96 103 110 112 115 117 117 115 106 109 108 107 98 86 85 97 83 68 67 67 83 112 117 111 92 77 60 54 52 50 
46 53 58 61 144 196 191 186 102 133 162 175 177 177 177 148 69 44 65 65 65 65 54 67 71 84 51 139 51 49 111 79 146 41 58 75 62 86 109 65 86 95 47 46 50 64 78 93 105 114 118 123 124 127 127 127 127 128 129 130 132 133 134 136 137 138 139 141 142 143 145 146 147 149 150 151 150 149 151 153 155 157 159 162 164 170 175 181 185 190 195 199 204 208 213 168 78 85 93 101 110 118 120 122 119 117 114 122 123 110 98 85 91 89 88 80 72 80 104 118 119 100 76 63 51 52 53 75 
46 49 52 55 157 197 191 185 100 131 162 176 177 179 180 115 89 64 38 51 64 77 53 78 75 71 68 137 61 62 117 75 88 101 58 123 38 56 74 44 59 74 130 49 63 77 91 105 109 114 118 123 127 127 127 127 127 127 128 130 131 132 134 135 136 137 139 140 141 143 144 145 147 148 149 150 152 153 155 157 159 161 164 166 168 170 172 177 181 186 190 195 199 204 208 213 75 84 92 101 109 118 126 124 121 119 128 136 123 111 98 85 83 82 80 79 77 102 126 124 121 90 59 58 57 56 78 100 
