P2
#CREATOR : MyProgram
128 128
255
156 157 157 158 158 159 160 160 161 162 162 163 163 164 144 124 104 84 100 102 103 105 106 108 109 111 112 114 115 117 118 120 122 123 125 126 128 129 131 132 134 135 137 138 140 140 139 139 139 139 138 138 138 138 137 137 137 136 136 136 136 135 135 135 134 134 134 134 133 133 133 133 132 132 129 125 122 118 115 111 108 124 140 156 156 156 156 156 156 156 156 156 156 156 156 156 156 156 156 156 156 174 192 210 228 168 108 109 110 111 111 112 113 114 115 116 116 117 118 119 120 121 121 122 123 124 144 164 
156 157 157 158 158 159 160 160 161 162 162 163 164 164 145 125 105 85 99 101 103 105 106 108 109 111 112 114 115 117 118 120 121 123 125 126 128 129 131 132 134 135 137 138 139 138 138 138 138 137 137 137 137 136 136 136 135 135 135 135 134 134 134 134 133 133 133 132 132 132 132 131 131 131 127 124 121 117 114 110 108 121 137 153 156 156 156 156 156 156 156 156 156 156 156 156 156 156 156 156 156 180 198 216 226 197 137 109 111 112 113 114 115 116 116 117 118 119 120 121 122 122 123 124 125 124 144 164 
156 157 157 158 158 159 160 160 161 162 162 164 163 164 146 126 106 86 99 101 103 104 106 108 109 111 112 114 115 117 118 120 121 123 124 126 128 129 131 132 134 135 136 137 138 137 137 137 136 136 136 136 135 135 135 134 134 134 134 133 133 133 133 132 132 132 131 131 131 131 130 131 131 130 126 123 119 116 113 110 109 118 134 150 156 156 156 156 156 156 156 156 156 156 156 156 156 156 156 156 156 156 204 214 224 211 167 115 110 112 115 116 117 117 118 119 120 121 122 122 123 124 125 126 126 124 88 52 
156 157 157 158 158 159 160 160 161 163 165 165 161 164 146 127 107 87 98 100 102 104 106 107 109 111 112 114 115 117 118 120 121 123 124 126 127 129 131 132 134 135 135 136 136 136 136 135 135 135 135 134 134 134 134 133 133 133 132 132 132 132 131 131 131 130 130 130 130 130 130 130 132 129 125 122 118 115 113 111 109 116 132 148 155 156 156 156 156 156 156 156 156 156 156 156 156 156 156 156 156 156 180 212 222 209 196 145 109 111 113 116 118 119 120 121 122 122 123 124 125 126 127 127 126 86 50 52 
156 157 157 158 158 159 160 161 163 165 167 161 161 164 146 128 108 88 97 100 102 104 106 107 109 110 112 114 115 117 118 120 121 123 124 126 127 129 130 132 133 134 134 135 135 135 135 134 134 134 133 133 133 133 132 132 132 131 131 131 131 130 130 130 130 129 129 129 129 129 129 131 131 127 124 121 117 115 113 111 109 113 129 145 153 156 156 156 156 156 156 156 156 156 156 156 156 156 156 156 156 156 156 188 220 213 205 174 123 110 112 115 117 119 122 123 123 124 125 126 127 128 128 127 85 49 50 52 
156 157 157 158 158 159 161 163 165 167 163 158 161 164 146 128 108 88 97 99 101 103 105 107 109 110 112 113 115 117 118 120 121 123 124 126 127 129 130 131 132 133 134 134 134 134 133 133 133 132 132 132 132 131 131 131 130 130 130 130 129 129 129 129 128 128 128 128 128 129 130 131 130 126 123 119 117 115 113 111 110 110 126 142 152 154 156 156 156 156 156 156 156 156 156 156 156 156 156 156 156 156 155 167 199 222 215 199 152 108 111 113 116 118 120 123 125 126 127 128 129 129 129 85 47 49 50 52 
156 157 157 158 159 161 163 165 167 165 160 158 161 164 146 128 109 89 96 98 100 103 105 107 109 110 112 113 115 116 118 120 121 123 124 126 127 128 129 130 131 132 133 133 133 132 132 132 132 131 131 131 130 130 130 130 129 129 129 128 128 128 128 127 127 127 128 128 128 129 130 132 129 125 122 119 117 115 114 112 110 108 123 139 151 153 156 156 156 156 156 156 156 156 156 156 156 156 156 156 156 155 154 153 178 215 224 217 177 130 109 112 114 117 119 121 124 126 129 129 130 130 86 46 47 49 50 52 
156 157 158 160 162 163 165 167 167 162 157 158 161 164 146 128 110 90 95 98 100 102 104 106 108 110 112 113 115 116 118 119 121 123 124 126 127 127 128 129 130 131 132 132 132 131 131 131 130 130 130 129 129 129 129 128 128 128 127 127 127 127 126 127 127 127 127 127 128 129 131 131 127 124 121 119 118 116 114 112 110 108 120 136 150 152 154 156 156 156 156 156 156 156 156 156 156 156 156 156 155 154 153 152 158 199 217 226 203 155 108 110 113 115 118 120 122 125 127 130 132 88 44 46 47 49 50 52 
156 158 160 162 164 166 167 169 164 159 154 158 161 164 146 128 110 91 95 97 99 101 103 106 108 110 112 113 115 116 118 119 121 122 124 125 126 126 127 128 129 130 131 131 130 130 130 129 129 129 129 128 128 128 127 127 127 126 126 126 126 126 126 126 126 126 127 127 128 130 131 130 126 123 122 120 118 116 114 112 110 109 118 133 149 151 153 155 156 156 156 156 156 156 156 156 156 156 156 155 154 153 152 151 150 174 211 219 228 184 141 110 112 114 117 119 122 124 126 129 88 44 45 46 47 49 50 52 
157 160 162 164 166 168 170 166 161 156 154 158 161 164 146 128 110 92 94 96 98 101 103 105 107 109 111 113 115 116 118 119 121 122 123 124 125 126 126 127 128 129 130 129 129 129 129 128 128 128 127 127 127 126 126 126 126 125 125 125 125 125 125 125 126 126 126 127 129 130 132 129 126 124 122 120 118 116 114 113 111 109 115 131 147 150 152 154 156 156 156 156 156 156 156 156 156 156 155 154 153 152 151 150 149 148 204 215 225 217 174 96 111 114 116 118 121 123 126 88 44 45 45 46 47 49 50 52 
159 161 164 166 168 170 168 163 158 152 154 158 161 164 146 128 110 90 94 96 98 100 102 104 106 109 111 113 115 116 118 119 120 121 122 123 124 125 125 126 127 128 129 128 128 128 127 127 127 126 126 126 126 125 125 125 124 124 124 124 124 125 125 125 125 125 126 128 129 131 131 128 126 124 122 120 118 117 115 113 111 109 113 128 144 148 151 153 155 156 156 156 156 156 156 156 156 155 154 153 152 151 150 149 147 145 178 212 223 221 207 146 98 113 115 118 120 122 86 44 45 45 46 46 47 49 50 52 
160 163 165 168 170 170 165 160 154 151 154 158 161 164 146 127 108 88 94 96 98 100 102 104 106 108 110 112 114 116 118 119 119 120 121 122 123 124 124 125 126 127 127 127 127 126 126 126 126 125 125 125 124 124 129 134 139 143 144 145 131 124 124 124 125 125 127 128 130 131 130 128 126 124 122 121 119 117 115 113 111 110 110 125 141 147 150 152 154 156 156 156 156 156 156 156 155 154 153 152 151 150 148 146 145 143 153 192 220 224 210 196 84 99 114 117 119 83 44 45 45 46 46 47 48 49 50 52 
162 164 167 169 172 167 162 156 151 151 154 158 161 164 145 125 106 86 94 96 98 100 102 104 106 108 110 112 114 116 117 118 118 119 120 121 122 123 123 124 125 126 126 126 126 125 125 125 124 124 129 134 139 144 149 155 160 162 163 164 166 167 152 138 124 126 127 129 130 132 130 128 126 125 123 121 119 117 115 114 112 110 108 123 138 146 148 151 153 155 156 156 156 156 156 155 154 153 152 150 149 147 145 144 142 140 139 172 200 228 217 206 144 116 116 116 80 44 45 45 46 46 47 48 48 49 50 52 
163 166 168 171 158 156 153 151 148 152 155 159 163 164 143 123 104 84 92 96 98 100 102 104 106 108 110 112 114 116 118 119 119 119 120 120 121 122 122 123 124 125 125 125 124 124 129 134 139 144 149 155 160 165 170 175 180 181 182 183 185 186 187 188 161 134 121 122 124 129 128 128 127 125 123 121 119 118 116 114 112 110 108 120 135 145 147 149 152 154 156 156 156 156 155 154 153 151 149 148 146 144 143 141 140 138 136 152 180 214 225 215 204 148 148 77 41 44 45 46 46 47 48 48 49 50 50 52 
165 167 170 171 145 142 139 137 148 154 158 162 164 164 141 121 102 82 90 96 98 100 102 104 106 108 110 112 114 115 117 119 121 122 122 122 123 123 123 123 124 124 127 131 134 137 140 144 147 150 153 157 160 163 166 170 172 173 175 176 177 178 184 188 190 192 154 116 124 126 124 124 124 124 123 122 120 118 116 114 112 110 109 118 133 144 146 148 150 153 155 156 156 155 154 152 150 149 147 145 144 142 140 139 137 135 134 132 166 201 227 221 214 180 121 39 41 44 46 47 47 48 48 49 50 50 51 52 
166 169 171 166 131 128 126 130 147 157 160 164 164 164 140 119 100 80 88 96 98 100 102 104 106 108 110 112 113 115 117 119 121 123 124 124 125 125 125 126 126 122 124 126 128 131 133 136 140 143 146 149 153 156 159 162 165 166 167 168 174 179 185 189 191 192 194 196 124 122 121 120 120 120 120 120 120 118 116 114 113 111 109 115 130 142 145 147 149 151 154 156 155 153 152 150 149 147 146 144 143 141 140 138 137 135 134 135 149 187 221 223 218 212 36 39 41 44 47 47 48 48 49 50 50 51 51 52 
168 170 170 157 117 115 112 130 147 159 163 164 164 164 140 117 98 78 86 94 98 100 102 104 106 108 110 111 113 115 116 118 121 123 125 127 127 127 128 128 124 119 122 124 126 128 130 133 135 137 139 142 145 149 152 155 157 158 164 169 175 181 186 189 191 193 195 196 198 151 118 116 116 116 116 116 116 116 116 115 113 111 109 113 128 141 143 146 148 150 153 150 155 153 152 150 149 147 146 144 143 141 140 138 137 136 137 138 142 166 207 226 220 128 40 39 41 44 47 48 49 49 50 50 51 52 53 44 
169 172 165 143 103 101 112 129 147 162 164 164 164 164 140 116 96 76 84 92 98 100 102 104 106 108 109 111 113 114 116 118 120 122 124 126 128 129 130 128 120 117 119 122 124 126 128 130 133 135 137 139 141 144 146 148 154 159 165 171 176 182 187 190 191 193 195 197 198 200 177 113 112 112 112 112 112 112 112 112 112 111 110 110 125 140 142 145 147 150 152 144 141 153 152 150 149 147 146 144 143 141 140 138 138 139 140 142 145 149 183 228 136 44 43 42 41 44 47 49 49 50 50 51 52 53 57 36 
171 169 161 130 90 94 111 129 146 164 164 164 164 164 140 116 94 74 82 90 98 100 102 104 106 108 109 111 112 114 116 118 120 122 124 126 128 130 132 124 116 115 117 119 121 124 126 128 130 132 135 137 140 143 146 147 155 161 166 172 177 183 188 190 192 194 195 197 199 201 202 204 108 108 108 108 108 108 108 108 108 108 108 108 125 142 142 144 146 149 151 139 121 147 152 150 149 147 146 144 143 141 140 140 141 142 144 145 148 152 156 104 53 45 45 46 45 44 47 49 50 51 51 52 54 58 49 28 
172 164 156 116 76 94 111 129 146 164 164 164 164 164 140 116 92 72 80 88 96 100 102 104 106 107 109 110 112 114 115 117 119 121 123 125 127 130 126 120 112 113 115 117 119 121 124 127 130 132 135 138 141 144 146 146 156 162 167 173 179 184 189 190 192 194 196 197 199 194 206 208 211 164 104 104 104 104 104 104 104 103 103 109 127 144 144 143 146 148 150 133 100 126 152 151 149 148 146 145 143 142 142 143 144 146 147 148 150 155 113 61 44 45 46 47 48 48 47 49 51 51 52 55 59 63 41 92 
159 151 132 92 79 93 111 129 146 164 164 164 164 164 140 116 92 70 78 86 94 100 102 104 105 107 108 110 112 113 115 117 119 121 123 125 127 131 120 114 108 111 114 116 119 122 125 127 130 133 136 139 141 144 143 145 155 163 168 174 180 186 189 191 193 194 196 185 205 207 210 212 215 217 220 100 100 99 99 99 99 97 95 111 129 146 146 145 145 147 150 127 94 106 132 151 149 148 146 145 143 144 145 146 147 149 150 151 153 128 70 44 45 46 46 47 48 49 50 49 51 52 55 59 63 55 105 156 
145 137 108 81 81 88 109 129 146 164 164 164 164 164 140 116 92 68 76 84 92 100 102 103 105 107 108 110 111 113 115 116 118 121 123 125 127 119 114 108 109 111 114 117 120 122 125 128 131 133 136 139 142 145 139 144 154 163 169 175 181 187 189 191 186 175 204 207 209 212 214 216 217 218 219 180 95 94 94 94 92 89 93 112 131 148 148 147 147 146 149 121 88 85 111 137 149 148 146 145 145 147 148 149 151 152 153 155 156 78 44 45 46 46 47 48 49 49 50 51 52 56 60 64 68 108 148 156 
132 124 84 84 84 84 105 126 146 164 164 164 164 164 140 116 92 71 79 87 95 99 101 103 105 106 108 109 111 113 114 116 118 120 122 124 130 113 107 107 110 112 115 117 120 123 126 128 131 134 137 140 142 142 134 143 153 164 170 176 182 188 177 166 194 206 208 211 213 214 215 216 217 218 219 220 135 89 89 87 84 81 94 113 133 150 150 149 149 148 148 115 83 65 91 117 143 148 146 147 149 150 151 152 153 153 154 154 100 44 45 45 46 47 47 48 49 50 51 52 53 57 61 65 100 140 156 155 
119 100 87 87 87 87 101 122 143 164 164 164 164 164 140 116 92 73 81 89 97 99 100 102 104 106 108 109 111 112 114 116 118 120 122 136 113 107 106 108 111 113 116 118 121 123 126 129 132 135 137 140 143 138 131 142 152 163 171 177 160 156 185 205 207 209 210 211 212 213 214 215 216 217 218 219 220 84 81 79 76 76 96 115 134 152 152 151 151 150 146 112 78 44 70 96 122 148 149 149 150 150 151 151 152 152 153 127 44 45 45 46 47 47 48 49 50 51 51 51 53 57 61 92 132 155 156 155 
105 89 89 89 89 89 96 117 140 164 164 164 164 164 140 116 91 76 84 92 96 98 100 102 103 105 107 109 110 112 114 115 117 119 121 129 107 104 107 109 111 114 116 119 121 124 127 130 132 135 138 141 141 133 130 141 151 162 172 132 168 204 205 206 207 208 209 209 210 211 212 213 214 215 216 217 218 218 140 71 68 78 97 116 135 154 154 153 153 152 144 110 76 45 51 91 132 142 146 148 149 149 150 150 151 151 152 72 44 45 46 47 47 48 49 49 50 51 52 50 54 58 84 124 154 156 156 155 
92 92 92 92 92 92 92 116 140 164 164 164 164 164 140 116 90 79 87 93 95 97 99 101 103 105 106 108 110 112 113 115 117 119 146 106 103 105 108 110 112 115 117 120 122 125 127 130 133 136 138 141 137 129 129 140 150 167 146 182 200 201 202 203 204 205 206 207 208 209 210 211 211 212 213 214 216 218 217 138 60 79 98 118 137 156 155 155 154 154 142 108 74 47 40 57 98 135 141 144 147 148 149 149 150 150 98 44 45 46 46 47 48 48 49 50 51 52 50 50 54 76 116 153 155 156 156 154 
92 93 93 93 93 93 93 116 140 164 164 164 164 164 140 115 89 81 89 93 95 96 98 100 102 104 106 108 109 111 113 115 116 131 128 101 104 106 109 111 113 116 118 121 123 126 128 131 133 136 139 141 133 125 128 139 162 160 196 197 198 199 200 201 202 203 204 204 205 206 207 208 209 210 211 212 214 216 219 215 137 74 93 112 126 152 157 157 156 155 140 106 75 48 38 39 64 113 137 139 142 145 147 148 149 123 44 45 45 46 47 48 48 49 50 50 51 52 48 51 68 108 148 154 156 156 156 154 
92 93 94 94 94 94 94 117 140 164 164 164 164 164 140 114 88 84 90 92 94 96 98 100 101 103 105 107 109 111 112 114 116 156 100 102 105 107 109 112 114 116 119 121 124 127 129 132 134 137 139 136 128 120 127 157 174 192 193 194 195 196 197 198 199 200 201 202 203 204 205 206 206 207 208 210 212 214 217 219 214 68 82 97 122 149 156 158 158 157 138 104 77 50 36 37 37 74 132 135 137 140 143 145 148 78 46 46 46 47 47 48 49 50 50 51 52 49 47 60 100 140 153 156 156 156 156 154 
93 93 94 94 94 94 94 117 140 164 164 164 164 164 140 113 86 87 89 91 93 95 97 99 101 103 104 106 108 109 111 112 160 152 100 103 106 108 110 113 115 117 120 122 125 127 130 132 135 137 140 132 124 116 152 188 189 190 190 191 192 193 195 196 197 198 199 199 200 201 202 203 204 205 206 208 210 213 215 217 220 212 67 87 122 145 153 160 159 159 136 105 78 51 34 35 35 36 116 196 193 191 188 185 112 58 48 48 49 49 49 49 49 50 51 51 51 47 52 92 132 152 155 156 156 156 155 153 
93 94 95 95 95 95 95 118 141 164 164 164 164 164 139 112 85 87 89 90 92 94 96 98 100 101 103 104 106 107 109 110 204 140 101 104 106 109 111 113 116 118 121 123 126 128 131 133 136 135 130 122 122 158 182 186 186 187 188 189 189 190 192 193 194 195 196 197 198 199 200 201 201 202 203 206 208 211 213 215 218 220 52 87 123 142 149 156 161 161 134 107 80 52 32 33 33 140 194 198 202 208 214 220 76 55 50 50 51 51 51 51 51 52 52 52 48 44 84 124 150 153 156 156 156 156 155 153 
93 94 95 96 96 96 96 119 142 164 166 165 165 164 137 111 84 86 88 90 92 94 96 98 100 101 103 104 105 106 107 108 192 130 101 104 107 109 112 114 117 119 121 124 127 129 132 133 131 128 120 129 165 175 179 183 183 184 185 186 187 188 189 191 192 193 194 194 195 196 197 198 199 200 201 204 206 209 211 213 216 215 159 88 123 138 146 153 160 162 135 108 81 54 30 31 164 193 196 199 202 208 214 220 220 52 52 52 52 52 51 51 51 51 51 50 47 65 116 149 152 155 156 156 156 156 155 153 
93 94 95 96 97 97 97 120 143 164 168 168 167 167 140 113 84 86 88 90 92 94 96 98 100 102 103 104 105 106 107 160 180 120 102 104 107 110 112 115 118 120 122 125 127 130 128 126 123 118 135 165 169 173 177 181 181 181 182 183 184 185 186 188 189 190 191 192 193 194 195 196 197 197 199 202 204 207 209 211 210 210 209 127 124 135 142 149 157 164 137 110 82 55 28 188 191 194 198 201 204 208 214 220 218 52 51 51 51 51 50 50 50 50 50 48 45 86 148 151 154 156 156 156 156 156 154 152 
93 94 95 96 97 98 98 121 143 164 168 171 170 169 143 116 84 86 88 90 92 94 96 98 100 102 103 104 105 107 108 212 164 110 102 105 108 110 113 116 118 121 123 126 126 124 121 119 116 142 158 162 166 170 174 178 178 179 179 180 181 182 184 185 187 188 189 190 190 191 192 193 194 195 198 200 202 205 207 207 205 205 204 204 124 133 142 151 160 160 132 92 52 95 196 192 191 196 199 202 206 209 214 220 217 52 51 50 50 50 49 49 49 49 49 46 44 122 150 152 155 156 156 156 156 156 154 152 
93 94 95 96 97 98 98 121 143 164 168 172 173 172 145 116 84 86 88 90 92 94 96 98 100 102 104 105 106 107 108 212 156 100 103 105 108 111 113 116 119 121 124 128 132 136 140 144 148 152 156 160 164 168 172 176 176 176 177 178 178 179 181 182 184 185 186 187 188 189 190 191 192 193 196 198 200 203 203 201 200 200 199 201 188 138 147 156 158 155 140 100 152 204 200 196 192 194 199 204 207 210 214 220 215 52 51 50 49 48 48 48 48 48 47 44 96 149 151 154 156 156 156 156 156 156 154 152 
94 94 95 96 97 99 99 121 143 164 168 172 175 175 148 116 84 86 88 90 92 94 96 98 100 102 104 105 106 107 122 204 148 109 103 106 108 111 114 116 119 122 125 129 133 137 141 145 147 149 153 157 161 165 169 173 173 173 174 175 176 177 178 180 181 183 184 185 185 186 187 188 189 191 194 196 198 199 197 196 195 195 196 199 188 172 151 157 154 151 148 183 201 203 203 200 196 192 197 202 207 212 215 220 214 52 51 50 49 47 47 47 47 47 45 83 148 150 153 156 156 156 156 156 156 156 153 151 
94 95 95 96 97 99 100 121 143 164 168 172 176 177 148 116 84 86 88 90 92 94 96 98 100 102 104 106 107 108 137 196 140 119 103 106 108 111 114 116 119 122 125 129 133 137 141 144 146 148 151 155 159 163 167 171 171 171 171 172 173 174 175 177 178 180 181 182 183 184 185 186 187 189 192 194 196 193 191 191 190 191 194 196 188 172 156 166 176 186 196 198 200 202 203 202 200 196 195 200 205 210 215 220 212 52 51 50 49 47 46 46 46 45 70 129 148 152 154 156 156 156 156 156 156 155 153 151 
94 95 96 96 97 99 100 123 143 164 168 172 176 180 148 116 84 86 88 90 92 94 96 98 100 102 104 106 107 102 155 188 149 128 107 106 109 111 114 117 119 122 126 130 134 138 141 143 145 147 149 152 156 160 164 168 168 168 168 169 170 171 173 174 176 177 179 180 180 181 182 183 185 187 190 192 190 187 186 186 186 189 191 193 188 172 169 179 189 195 197 198 198 200 202 204 202 199 196 198 203 208 214 220 124 52 51 50 49 47 46 45 45 57 111 144 148 152 156 156 156 156 156 156 156 155 153 151 
94 95 96 97 97 99 100 126 145 164 168 172 176 180 148 116 84 86 88 90 92 94 96 98 100 102 104 106 108 89 177 180 159 138 116 106 109 111 114 117 119 122 126 130 134 138 140 142 144 145 147 150 154 158 162 166 166 166 166 166 167 169 170 172 173 174 176 177 178 179 180 181 183 185 188 186 183 181 181 181 184 186 188 191 188 172 182 192 194 196 198 200 200 200 201 203 203 201 198 196 202 208 214 220 36 45 52 50 49 48 47 45 44 92 140 145 150 155 156 156 156 156 156 156 156 155 152 150 
94 95 96 97 98 99 100 128 149 163 168 172 176 180 148 116 84 86 88 90 92 94 96 98 100 102 104 106 108 76 198 189 168 147 126 106 109 112 114 117 120 123 127 131 135 137 139 141 143 144 146 148 152 155 159 163 163 163 163 164 165 166 167 169 170 172 173 175 176 176 177 179 181 183 182 180 177 176 176 178 181 183 186 188 188 185 191 193 195 197 199 201 201 202 202 202 203 202 200 183 198 205 213 220 39 39 46 52 50 49 48 46 69 117 144 149 154 157 156 156 156 156 156 156 156 154 152 150 
94 95 96 97 98 99 100 128 152 162 167 172 176 180 148 116 84 86 88 90 92 94 96 98 100 102 104 105 104 88 220 199 178 156 135 114 109 112 115 117 120 124 128 132 134 136 138 140 142 143 145 147 149 153 157 161 161 161 161 161 162 163 165 166 168 169 170 172 173 174 175 177 179 179 176 174 172 171 173 176 178 181 183 186 188 190 192 194 196 198 200 202 203 203 203 204 204 204 187 171 181 200 207 132 42 42 42 48 51 50 49 47 95 143 148 153 157 158 156 156 156 156 156 156 156 154 152 150 
95 95 96 97 98 99 100 128 156 161 166 171 176 180 148 117 88 86 88 90 92 94 96 99 101 103 103 102 101 100 217 207 187 166 145 123 109 112 115 117 120 124 128 131 133 135 137 139 140 142 144 146 148 151 155 158 158 158 158 158 159 160 162 163 165 166 168 169 171 171 172 175 175 172 170 168 167 168 171 173 176 178 182 189 189 191 193 195 197 199 201 203 204 205 205 205 206 183 175 158 160 189 202 44 44 45 45 45 49 51 50 62 120 146 151 156 159 158 157 156 156 156 156 156 156 154 151 149 
95 96 96 97 98 99 100 128 154 162 167 171 176 180 150 121 91 87 89 91 93 95 97 99 101 100 99 98 98 98 215 204 193 175 154 133 111 112 115 118 121 125 129 130 132 134 136 138 139 141 143 145 147 149 152 156 156 156 156 156 156 158 159 161 162 164 165 167 168 169 170 171 169 166 164 162 163 166 168 171 176 187 190 190 190 191 193 195 198 200 201 203 205 207 207 207 197 161 153 145 138 167 196 42 46 47 48 48 49 51 51 91 145 150 154 159 159 158 157 156 156 156 156 156 155 153 151 149 
95 96 97 97 98 99 100 127 153 164 169 173 178 180 154 124 95 84 89 91 93 95 97 99 98 97 97 96 96 96 212 201 191 180 163 142 121 113 115 118 122 126 128 129 131 133 135 136 138 140 142 144 145 147 150 147 136 153 153 153 154 155 156 158 159 161 162 164 165 166 168 165 163 160 158 158 161 163 170 181 192 192 191 191 191 191 194 196 198 200 202 204 206 208 209 209 169 140 132 124 116 185 116 41 44 47 48 49 50 51 52 119 149 153 157 160 159 158 157 156 156 156 156 156 155 153 151 149 
95 96 97 98 98 99 100 126 151 166 171 175 178 180 154 128 98 81 89 91 93 95 96 95 95 95 95 94 94 94 209 199 188 177 167 151 130 113 115 118 122 125 126 128 130 132 134 135 137 139 141 143 144 146 148 137 126 115 129 151 151 152 154 155 157 158 160 161 163 164 162 159 157 154 153 156 165 175 186 193 193 193 192 192 192 192 194 196 198 201 203 205 207 209 210 190 141 119 111 116 161 244 36 39 43 46 49 50 51 52 84 148 152 156 160 160 159 158 157 156 156 156 156 156 155 152 150 148 
95 96 97 98 99 99 99 124 150 168 173 176 178 180 154 128 102 79 87 92 94 94 93 93 93 93 93 92 92 92 207 196 185 175 164 153 140 118 116 119 122 124 125 127 129 131 133 134 136 138 140 141 143 145 139 128 117 106 95 84 148 144 140 136 132 128 124 120 119 117 108 84 60 148 159 170 180 191 194 194 194 194 193 193 193 192 194 197 199 201 203 205 208 210 212 162 112 97 116 148 206 148 43 42 41 45 48 50 51 52 116 150 155 159 161 160 159 158 157 156 156 156 156 156 154 152 150 148 
95 96 97 98 99 100 98 124 148 170 174 176 178 180 154 128 102 76 84 92 92 92 92 93 93 93 93 93 93 92 204 193 183 172 161 151 140 128 116 119 121 122 124 126 128 129 131 133 134 136 138 139 141 138 130 119 108 97 85 84 133 126 114 101 89 76 75 73 72 70 69 52 36 159 171 184 196 196 195 195 195 195 194 194 194 193 195 197 199 201 204 206 208 142 76 80 84 116 148 180 180 52 51 50 49 48 47 50 52 84 144 152 158 162 162 161 159 158 157 156 156 156 156 156 154 152 150 147 
96 96 97 98 99 100 98 124 148 172 174 176 178 180 154 128 102 76 84 92 93 94 94 94 94 94 94 94 95 92 164 195 184 173 161 150 139 127 116 118 119 121 123 124 126 128 129 131 133 134 136 138 134 131 122 111 98 86 74 84 118 110 104 92 79 89 63 55 46 37 29 20 196 169 182 189 191 194 195 196 196 196 195 195 195 194 195 197 200 202 204 138 98 87 99 105 115 152 182 212 49 51 52 52 52 52 52 52 52 112 146 154 161 163 162 161 160 159 157 156 156 156 156 156 154 151 149 147 
96 97 97 98 99 100 97 124 148 171 174 176 178 180 154 128 102 76 84 92 93 94 95 95 95 96 96 96 96 92 124 198 187 176 164 153 142 133 117 118 118 119 121 123 124 126 128 129 131 133 134 131 127 124 112 99 87 75 68 84 102 93 88 82 70 103 60 51 42 34 84 164 108 180 182 184 187 189 191 193 194 195 195 196 196 195 196 198 200 147 121 94 98 111 123 130 147 183 220 47 49 51 52 52 52 52 52 52 78 140 148 156 164 163 162 161 160 159 158 157 156 156 156 155 153 151 149 147 
96 97 98 98 99 100 96 124 148 169 174 176 178 180 154 128 102 76 84 92 93 94 95 96 96 97 97 97 97 92 84 201 190 178 168 159 149 140 119 119 119 120 120 121 123 124 126 128 129 131 127 124 111 97 84 88 76 63 68 84 87 77 71 66 60 116 56 47 68 123 154 156 185 179 180 181 182 184 186 189 191 192 193 194 194 195 196 169 143 116 98 110 122 134 146 154 178 215 44 46 48 50 52 52 52 52 52 52 104 141 149 157 163 163 162 161 160 159 158 157 156 156 156 155 153 151 149 146 
96 97 98 99 99 99 95 124 148 168 173 176 178 180 154 128 102 76 84 92 93 94 95 96 96 97 98 99 99 92 84 204 195 185 176 166 157 120 120 121 121 121 121 122 122 122 124 126 127 124 111 97 84 71 57 44 48 52 68 84 72 60 71 81 92 72 52 83 114 144 175 191 184 178 178 179 181 182 184 185 186 188 190 191 192 158 44 139 112 109 121 133 145 157 169 179 209 47 46 46 48 50 52 52 52 52 52 66 130 143 150 158 162 162 162 161 160 159 158 157 156 156 156 155 153 150 148 146 
96 97 98 99 100 98 94 124 148 166 171 176 178 180 154 128 102 76 84 92 93 94 95 96 96 97 98 99 100 92 84 146 204 192 183 173 164 121 122 122 122 122 123 123 123 123 124 124 111 97 84 75 66 57 48 65 49 57 73 76 73 61 84 95 60 124 78 107 137 166 196 190 183 177 176 177 179 180 182 184 185 186 187 188 120 52 80 108 120 132 144 156 169 181 192 204 49 48 47 46 47 49 51 52 52 52 52 93 137 144 151 159 161 161 162 161 160 159 158 157 156 156 156 154 152 150 148 146 
97 97 98 99 100 97 94 124 148 165 170 175 178 180 154 128 102 76 84 92 93 94 95 96 96 97 98 99 101 100 96 88 172 204 190 181 144 123 123 123 124 124 124 124 124 124 124 108 94 81 79 71 62 53 44 87 51 63 65 68 71 62 76 108 28 112 104 133 160 183 192 189 182 176 174 175 177 179 180 182 183 185 186 188 131 73 67 95 117 135 153 170 187 204 128 52 51 50 49 48 47 49 51 52 52 52 52 119 138 145 153 159 160 160 161 161 160 159 158 157 156 156 156 154 152 150 148 145 
97 98 98 99 100 97 93 123 148 163 168 173 178 180 154 128 102 76 84 92 93 94 95 96 97 98 99 100 101 102 100 96 92 220 204 188 124 124 124 124 124 124 124 124 124 124 111 93 77 64 75 72 57 48 65 108 52 55 57 60 63 62 68 91 95 100 124 147 171 189 188 186 181 175 172 173 175 177 178 180 181 183 189 192 152 95 54 82 104 126 146 163 180 52 52 52 52 52 51 50 49 48 50 52 52 52 81 133 140 146 154 158 159 159 160 160 160 159 158 157 156 156 156 154 152 149 147 145 
97 98 98 99 99 96 92 122 148 162 167 172 177 180 154 128 102 76 84 92 93 94 95 96 97 98 99 101 102 103 104 100 96 220 212 180 122 124 124 124 124 124 124 124 124 113 95 77 61 59 70 74 59 44 60 76 80 46 49 52 55 57 60 74 88 111 135 158 182 185 183 182 180 174 170 171 173 175 176 178 183 190 193 196 163 116 59 70 91 113 134 156 104 52 52 52 52 52 52 52 51 50 50 52 52 52 109 134 141 148 155 157 158 158 159 159 159 160 158 157 156 156 156 153 151 149 147 145 
97 98 99 99 99 95 91 122 148 160 165 170 175 180 154 128 102 76 84 92 93 94 95 97 98 99 100 101 102 103 105 104 100 220 220 166 119 123 124 124 124 124 124 124 115 97 80 62 44 55 65 76 68 60 52 44 108 74 40 43 46 49 52 75 99 122 146 169 183 181 179 177 176 173 168 169 171 173 177 184 191 194 197 200 175 127 80 57 78 100 129 159 104 52 52 52 52 52 52 52 52 51 50 51 52 66 128 135 142 149 156 156 157 157 158 158 158 159 159 158 156 156 155 153 151 149 147 144 
97 98 99 100 98 94 90 121 148 159 164 169 174 178 154 124 98 72 80 92 95 96 97 98 99 100 101 102 103 104 105 106 104 220 228 147 117 120 124 124 124 124 124 117 100 82 64 46 45 53 64 71 73 68 60 52 98 76 68 34 37 40 107 122 136 151 165 180 178 177 175 173 172 170 166 168 170 178 185 193 196 199 202 205 186 139 91 44 73 103 132 161 105 52 52 52 52 52 52 52 52 52 52 51 52 95 130 137 144 152 156 156 156 156 156 157 157 158 158 158 157 156 155 153 151 148 146 144 
97 98 99 100 97 93 90 120 148 157 162 167 175 175 158 128 98 68 82 92 94 97 98 99 100 101 102 103 104 105 106 107 108 183 224 127 114 118 122 124 124 124 120 102 84 53 48 49 47 51 62 67 69 71 68 60 88 100 44 36 28 148 154 160 165 171 177 180 176 174 172 170 168 166 164 171 179 186 194 197 200 203 206 209 197 150 103 57 46 71 118 164 108 52 52 52 52 52 52 52 52 52 52 52 52 124 132 140 148 156 156 156 156 156 156 156 156 157 157 157 157 156 155 152 150 148 146 144 
98 98 99 100 96 93 89 119 148 156 161 168 176 173 159 132 102 70 85 91 94 97 100 101 102 103 104 105 106 107 108 109 116 142 220 108 112 115 119 123 124 122 104 73 49 50 51 52 48 49 60 62 64 66 68 68 78 124 68 12 140 148 156 162 168 174 180 180 173 171 169 167 165 164 167 180 187 195 198 201 204 207 210 213 209 161 116 71 46 47 52 161 105 59 53 52 52 52 52 52 52 52 52 52 82 128 136 144 152 156 156 156 156 156 156 156 156 156 156 156 157 156 154 152 150 148 146 143 
98 99 99 99 95 92 88 118 148 154 162 170 177 171 156 136 105 73 87 91 94 97 100 102 103 104 105 106 107 108 109 110 124 124 176 119 119 120 121 123 124 93 63 51 52 53 54 54 49 48 55 57 60 62 64 66 68 148 28 108 146 151 156 164 171 177 182 180 172 169 167 165 165 166 171 183 196 199 202 205 208 211 214 217 220 175 129 84 49 44 84 159 108 66 54 53 52 52 52 52 52 52 52 52 113 132 140 148 156 156 156 156 156 156 156 156 156 156 156 156 156 156 154 152 150 147 145 143 
98 99 100 98 95 91 87 118 148 156 163 171 179 168 154 140 107 75 88 91 94 97 100 103 105 106 107 108 109 110 111 118 132 132 132 129 129 130 131 127 100 52 53 54 55 55 56 57 51 46 51 53 55 57 60 63 62 44 76 137 152 156 161 167 172 179 185 180 172 166 164 165 166 167 174 187 192 194 197 200 203 206 209 212 216 187 142 97 52 47 81 156 115 73 55 54 54 53 52 52 52 52 52 68 130 136 144 152 156 156 156 156 156 156 156 156 156 156 156 156 156 155 154 151 149 147 145 143 
98 99 100 98 94 90 86 117 147 158 165 173 180 168 155 138 110 77 88 91 94 96 99 102 105 107 108 109 110 111 112 126 140 140 92 140 138 140 129 113 76 61 55 56 57 58 59 60 52 44 47 49 52 55 57 60 57 44 105 155 159 162 167 172 177 183 188 180 172 164 165 166 168 169 178 185 188 190 193 196 199 202 205 208 212 200 155 98 51 47 44 128 122 80 56 56 55 54 54 53 52 52 52 100 134 140 148 156 156 156 156 156 156 156 156 156 156 156 156 155 154 153 153 151 149 147 145 142 
98 99 100 97 93 89 86 116 146 161 168 175 180 171 158 136 112 79 87 90 93 96 99 102 105 108 110 111 112 113 120 134 148 124 52 100 148 132 116 100 85 71 56 57 58 59 56 62 60 49 46 47 49 52 55 57 51 164 135 161 165 168 172 177 183 188 142 108 113 118 136 168 169 170 179 181 184 186 189 191 194 197 200 204 208 212 143 75 50 47 45 100 137 87 58 57 56 55 55 54 53 53 52 132 138 144 152 156 156 156 156 156 156 156 156 156 156 156 155 154 153 152 151 151 149 146 144 142 
98 99 100 96 92 89 85 115 145 164 171 177 179 174 159 135 110 82 87 90 93 96 99 102 105 108 111 112 113 114 128 142 156 79 59 96 144 106 68 72 76 80 65 59 60 52 49 64 68 54 47 48 49 49 52 55 108 92 164 168 171 175 178 183 188 129 117 127 121 98 76 108 140 172 175 177 180 182 185 187 190 193 196 200 177 153 129 52 50 48 46 44 156 98 59 58 57 57 56 55 54 53 74 136 142 148 156 156 156 156 156 156 156 156 156 156 155 154 153 152 152 151 150 149 148 146 144 142 
99 99 99 95 91 88 84 114 144 166 174 177 179 177 157 133 108 84 87 90 93 96 99 102 105 107 110 113 115 122 136 146 155 28 65 103 140 82 70 74 71 67 64 60 48 36 51 67 76 58 48 49 50 51 51 52 148 158 169 176 179 182 185 188 116 126 136 146 156 120 84 92 100 108 157 182 183 184 185 186 187 188 165 141 118 95 124 87 50 48 46 44 162 111 60 59 58 57 56 55 54 53 96 139 146 152 156 156 156 156 156 156 156 156 156 155 154 153 152 151 150 149 149 148 147 146 144 141 
99 100 98 94 91 87 82 113 143 169 174 176 178 180 156 132 108 84 90 89 87 90 94 98 101 105 109 112 116 126 135 145 154 164 141 119 96 61 73 84 80 77 73 58 65 53 39 49 84 63 50 50 51 52 48 113 154 165 174 184 187 190 193 76 80 82 84 94 104 68 63 100 108 111 124 143 192 193 194 195 196 145 127 103 70 36 59 82 85 48 46 44 168 117 64 56 56 56 55 54 53 52 118 143 149 156 156 156 156 156 156 156 156 155 154 153 152 152 151 150 149 148 147 147 146 145 143 141 
99 100 97 94 90 85 79 110 141 172 174 176 179 181 156 132 108 84 90 97 95 93 91 89 93 97 100 104 204 141 150 160 148 129 103 78 52 63 75 86 90 87 70 57 58 70 57 42 28 68 51 52 50 45 76 147 160 173 182 189 196 199 76 60 44 46 48 50 52 47 41 36 116 113 121 140 159 177 202 203 161 103 82 67 52 61 42 41 40 63 46 44 174 113 67 58 52 52 52 52 52 52 140 145 150 155 156 156 156 156 156 156 155 154 153 152 151 150 149 148 148 147 146 145 145 144 143 141 
99 100 97 93 89 83 77 108 139 170 175 177 179 182 156 132 108 84 90 97 103 101 99 98 96 94 92 188 172 156 144 132 120 94 69 62 51 64 76 88 100 83 67 55 47 75 74 60 36 44 52 47 41 36 140 153 166 180 193 199 204 76 73 70 67 63 61 63 196 154 112 71 122 116 119 137 156 175 193 212 84 60 36 108 180 86 48 47 47 46 45 44 180 98 71 62 53 48 48 48 48 81 141 144 149 154 156 156 156 156 155 154 153 152 152 151 150 149 148 147 146 145 145 144 143 143 142 140 
99 99 96 92 86 81 75 106 137 167 176 178 180 182 157 132 108 84 90 97 103 110 108 106 104 88 72 175 159 173 116 104 85 69 71 73 51 63 75 87 101 80 63 54 46 55 92 52 44 48 49 46 40 108 150 161 174 187 199 212 96 92 92 92 91 88 82 76 200 179 147 105 128 122 116 137 157 178 199 182 106 82 58 130 162 111 55 54 53 52 50 47 176 84 75 66 56 47 44 44 44 111 142 145 149 152 156 156 156 155 154 153 152 151 150 149 148 148 147 146 145 144 143 143 142 141 141 140 
99 99 95 90 84 78 73 103 134 165 176 179 181 183 158 132 108 84 90 97 103 110 116 100 84 68 52 161 161 190 220 76 78 81 83 66 50 62 75 88 102 116 60 52 44 36 40 44 45 45 46 45 76 126 159 170 183 195 208 116 111 108 108 108 108 108 108 156 204 183 161 140 133 126 120 140 164 185 206 152 128 105 81 153 144 115 61 61 59 56 53 49 172 102 71 66 60 51 42 40 73 140 143 146 150 153 156 155 154 153 152 152 151 150 149 148 147 146 145 144 144 143 142 141 141 140 152 164 
100 98 93 87 82 76 70 101 132 162 177 180 182 184 159 133 108 84 90 97 103 112 121 28 80 132 140 148 111 73 36 68 90 92 95 58 50 62 75 89 103 117 96 88 44 38 40 44 45 45 44 44 94 144 169 179 191 204 96 121 126 124 124 124 124 122 120 127 175 176 155 144 137 130 123 130 163 192 213 174 151 127 103 155 126 97 68 65 62 58 55 52 164 121 77 59 53 47 42 36 96 140 143 146 149 153 155 153 152 151 151 150 149 148 148 147 146 145 144 143 142 141 141 140 152 164 176 188 
100 97 91 85 79 74 68 99 129 160 178 180 183 185 159 134 109 84 90 98 107 116 126 84 136 120 116 118 91 54 52 68 92 104 87 51 49 62 76 90 104 118 132 52 46 41 42 44 47 47 46 75 112 162 178 187 200 76 101 126 141 140 140 138 136 134 132 139 145 170 154 147 140 134 127 120 153 187 220 196 173 149 126 137 108 93 77 66 64 60 57 54 164 127 89 52 49 45 42 52 112 140 143 146 149 156 154 152 150 149 148 148 147 146 145 145 144 143 142 142 141 140 155 170 185 191 190 189 
100 94 89 83 77 71 66 96 127 157 178 181 183 186 160 135 109 84 93 103 112 121 131 140 124 108 92 87 72 52 68 84 100 116 80 43 49 63 77 92 107 122 60 54 49 43 44 45 48 48 48 106 143 180 188 196 76 96 116 136 156 154 152 150 148 146 144 151 157 164 157 151 144 137 130 124 144 177 220 200 183 165 148 133 117 102 87 63 64 62 59 56 164 127 89 49 51 47 44 68 128 139 143 146 154 155 153 151 149 147 146 145 145 144 143 142 142 141 140 139 143 170 196 195 194 193 192 191 
98 92 86 80 75 69 63 97 124 155 179 181 184 186 161 136 110 82 92 101 110 120 129 134 108 128 148 100 52 67 81 96 110 105 71 36 51 66 81 96 111 88 148 57 51 45 46 47 49 50 90 138 168 191 196 76 92 108 125 141 154 159 164 162 160 158 156 163 169 163 158 152 147 141 134 127 134 172 220 197 180 163 150 142 127 111 96 60 61 62 61 58 164 127 86 46 51 49 46 84 136 139 142 151 155 153 152 150 148 146 144 143 142 142 141 140 139 139 138 146 173 191 197 196 195 194 193 192 
95 92 84 78 72 67 61 98 125 152 179 182 185 187 162 135 108 81 90 99 109 119 130 129 102 76 73 71 61 76 90 105 119 95 60 40 39 58 77 97 116 97 114 116 53 47 49 50 51 52 132 155 178 201 144 77 93 109 125 142 151 156 162 167 172 170 168 175 169 162 157 151 146 140 135 129 124 172 220 196 177 160 152 144 136 121 105 58 58 59 59 60 164 123 83 42 48 51 48 100 136 139 147 156 154 152 150 149 147 145 143 141 140 139 139 138 137 136 149 173 186 196 197 197 196 195 194 193 
93 94 81 76 70 64 58 99 126 153 180 183 185 188 161 134 106 79 89 98 108 119 130 123 97 92 89 79 70 70 99 114 119 84 52 44 43 41 61 80 54 28 79 131 84 50 51 52 47 90 143 159 186 212 60 77 94 110 126 142 149 154 159 164 170 175 180 174 168 162 156 150 145 139 134 128 125 172 220 196 175 162 154 146 138 130 115 55 55 56 61 52 147 134 80 39 45 50 50 116 135 144 153 155 153 151 149 147 146 144 142 140 138 137 136 136 135 152 168 180 193 197 198 199 198 197 195 194 
91 91 83 73 67 62 56 99 127 154 177 180 183 186 162 132 105 78 87 98 109 120 131 117 105 108 98 88 78 68 101 123 108 76 50 49 47 46 44 43 42 48 84 116 148 52 47 41 36 128 155 169 187 44 61 78 95 111 127 141 146 151 157 162 167 172 177 173 167 161 155 149 144 138 133 127 126 165 220 196 172 164 156 148 140 132 124 52 57 61 66 44 130 154 103 36 41 47 52 132 141 149 156 154 152 150 148 146 144 143 141 139 137 135 134 133 150 162 175 188 196 197 199 200 199 198 197 196 
89 89 85 73 65 59 54 96 129 155 175 177 181 184 165 136 106 76 87 98 109 120 131 119 72 104 99 94 87 77 89 132 100 68 54 53 50 45 47 55 54 68 104 140 144 148 36 31 80 139 166 186 188 45 62 79 96 112 128 139 144 149 154 159 165 170 174 170 166 160 154 148 143 137 132 127 127 159 210 216 178 162 154 146 138 130 106 51 60 66 71 36 113 159 140 36 41 55 76 135 146 154 155 153 151 149 147 145 143 141 140 138 136 134 132 145 157 170 182 195 197 198 199 200 200 199 198 197 
86 87 87 75 63 57 51 94 130 158 172 175 179 182 169 139 109 80 90 101 111 122 132 36 86 100 95 90 85 81 76 71 65 60 55 51 46 44 50 68 67 88 124 144 36 108 64 20 124 151 177 204 28 45 62 79 96 113 129 136 141 147 152 157 162 167 171 167 163 159 153 147 142 136 131 128 128 152 199 236 183 158 151 144 136 128 88 49 58 67 76 28 96 164 100 36 57 79 100 137 151 155 153 152 150 148 146 144 142 141 139 138 136 135 138 152 165 177 190 197 198 199 200 201 201 200 199 198 
84 84 85 77 65 55 49 92 131 161 170 173 177 180 173 143 113 84 93 102 111 121 116 52 100 95 90 85 80 75 80 99 105 100 52 47 44 44 53 71 79 108 128 148 76 76 32 60 113 166 192 84 38 48 63 80 97 113 129 134 139 144 149 155 160 165 168 164 160 156 153 146 141 135 130 129 130 145 189 222 189 155 148 141 134 126 71 48 57 64 68 55 84 172 108 48 61 93 124 140 156 154 153 151 150 148 147 145 144 142 140 139 137 136 143 159 172 184 196 197 198 199 200 201 203 202 200 199 
82 82 83 79 67 54 46 89 132 164 168 171 175 178 176 147 116 83 91 100 109 118 100 68 94 89 84 79 74 76 84 103 121 140 48 44 44 44 56 74 92 100 108 103 74 44 72 100 128 181 140 37 47 57 67 81 98 114 126 131 137 142 147 152 157 162 164 161 157 153 149 146 140 134 130 130 131 139 177 208 185 151 145 138 131 124 53 46 52 56 60 64 72 180 118 59 55 86 134 150 155 154 153 152 151 149 148 146 145 143 141 140 138 137 149 167 179 192 197 198 199 200 201 202 203 203 202 201 
79 80 80 81 69 56 44 88 132 163 168 171 174 177 180 147 114 81 90 99 107 116 91 66 88 99 79 74 72 80 88 107 125 93 44 44 44 44 59 57 36 68 76 59 43 40 116 138 167 196 37 47 57 67 77 87 98 115 124 129 134 139 144 150 155 160 161 158 154 150 146 143 139 133 131 131 132 132 163 194 171 148 142 137 131 92 36 40 44 48 52 56 60 188 130 71 49 80 144 153 153 153 153 152 151 150 149 147 146 144 143 141 139 138 154 174 187 196 197 198 199 201 202 203 204 204 203 202 
77 78 78 79 70 58 55 99 140 162 169 172 175 178 177 146 113 80 89 97 106 118 89 64 86 108 88 68 76 84 92 111 95 65 72 42 43 44 42 40 70 164 44 41 39 36 172 188 204 36 46 56 66 76 86 96 106 116 121 126 132 137 142 147 152 157 158 154 151 147 143 139 136 132 113 95 76 111 145 180 168 156 144 138 116 61 40 44 48 52 56 60 58 150 140 83 42 114 151 152 152 152 152 151 150 149 148 147 146 145 144 142 140 139 160 181 194 197 198 199 200 201 202 203 204 205 204 203 
75 75 76 76 72 60 67 110 141 162 170 174 177 179 175 144 112 79 87 96 108 119 89 62 84 64 44 116 95 88 96 98 86 93 100 39 40 156 44 42 104 44 87 100 112 124 144 160 95 39 45 55 65 75 85 95 105 115 119 124 129 134 139 145 150 155 155 151 148 144 140 136 133 137 141 122 117 151 186 177 168 158 149 140 86 43 45 48 52 56 60 60 56 112 148 92 36 148 151 151 151 151 151 151 150 149 148 147 146 144 143 142 141 140 165 189 196 198 199 200 201 202 203 204 205 206 206 204 
73 73 73 74 74 62 78 116 142 161 169 175 178 181 172 141 110 77 86 98 109 121 90 60 76 92 108 44 63 81 100 107 114 121 128 36 80 124 84 44 44 100 129 144 156 105 116 153 46 43 45 55 65 75 85 95 104 114 119 122 127 132 137 142 147 152 152 148 144 141 137 133 129 142 168 149 157 192 183 174 165 155 146 111 56 47 49 52 56 60 63 58 54 95 156 100 76 148 149 149 149 149 149 149 149 148 147 146 145 144 143 142 141 140 168 196 197 198 199 200 201 202 204 205 206 207 207 206 
70 71 71 72 72 64 89 117 143 160 168 176 179 182 170 138 107 76 88 99 111 122 92 62 61 65 81 71 62 80 84 80 105 131 156 113 48 92 52 56 60 156 172 188 76 144 212 53 50 46 44 54 64 74 84 94 103 113 118 121 125 129 134 140 145 150 149 145 141 138 134 130 126 147 173 177 198 189 180 171 161 152 143 81 50 51 53 56 60 64 61 57 52 78 164 84 116 148 148 148 148 148 148 148 148 148 147 146 145 144 142 141 140 141 169 198 198 199 200 201 202 203 204 205 206 207 208 207 
68 68 69 69 70 66 93 118 144 159 167 175 180 183 167 136 105 76 91 102 113 124 89 65 63 62 60 71 61 72 68 64 60 96 132 140 148 60 74 88 102 124 180 166 88 74 60 56 53 49 46 54 64 74 83 93 102 111 118 121 124 128 132 137 142 147 146 142 138 134 130 126 127 152 178 204 195 186 177 167 158 149 140 52 54 56 58 60 64 63 59 55 50 61 172 104 136 149 148 147 147 147 147 147 147 147 146 145 144 143 142 141 139 141 169 200 200 201 201 202 203 204 205 206 207 208 209 208 
66 66 67 67 68 68 94 119 145 158 166 174 181 184 165 133 111 76 96 107 117 117 86 67 66 64 63 61 60 71 82 85 78 72 108 116 87 75 116 130 144 166 188 144 100 120 59 58 56 53 49 53 63 73 82 92 101 110 117 121 124 127 131 135 140 145 143 139 135 131 127 123 132 157 176 181 177 167 158 149 140 140 94 52 56 60 62 64 66 61 57 53 48 44 180 124 142 151 150 148 147 146 145 145 145 145 145 145 144 143 142 141 134 142 174 202 202 203 203 204 204 205 205 206 208 209 210 209 
63 64 64 65 65 71 95 120 146 158 166 174 182 186 162 137 120 76 100 111 122 109 82 70 68 67 65 58 66 116 110 103 97 90 84 84 64 90 124 172 186 208 76 128 180 60 58 57 56 55 52 53 62 72 81 90 100 109 117 120 124 127 130 134 137 142 139 135 131 127 123 119 137 149 153 158 158 149 140 140 140 140 48 52 56 60 64 68 65 62 59 56 53 46 170 130 147 152 151 150 148 147 146 145 144 144 144 144 143 142 141 140 130 142 180 203 204 204 205 206 206 207 207 208 208 209 210 211 
61 62 62 63 64 74 98 121 147 157 165 173 181 187 162 146 120 76 100 115 120 102 79 72 71 63 56 64 72 135 103 97 90 84 92 52 79 105 132 180 228 122 106 83 60 59 58 57 55 54 53 52 61 71 80 89 99 108 116 120 123 127 130 133 137 140 136 132 128 124 120 116 121 126 130 135 140 140 140 140 140 92 48 52 56 59 62 65 70 67 64 61 55 49 161 135 153 154 152 151 150 149 147 146 145 144 143 143 143 142 141 137 125 145 186 205 206 206 207 207 208 209 209 210 210 211 211 212 
59 59 60 61 63 77 101 124 148 156 164 172 180 188 171 155 120 76 100 120 113 94 76 69 61 54 62 70 78 153 109 90 84 92 100 108 114 120 127 124 168 118 136 113 57 56 55 54 53 52 52 52 54 61 72 83 94 105 116 119 122 125 128 130 133 137 140 136 132 128 124 122 124 129 134 138 143 140 140 140 140 44 47 50 53 56 60 63 76 73 70 65 58 51 151 141 157 155 154 153 151 150 149 147 146 145 144 142 141 141 140 133 121 151 193 207 208 208 209 209 210 210 211 212 212 212 212 210 
57 57 58 60 61 80 104 125 147 158 166 174 182 186 176 164 120 76 100 124 105 87 68 156 52 60 68 76 84 172 128 84 91 98 105 111 112 115 121 220 108 169 167 55 54 53 52 52 52 52 52 52 53 56 60 71 82 93 104 115 118 121 124 127 130 134 141 140 136 132 128 128 130 132 137 142 146 145 140 140 92 46 46 48 51 54 57 60 81 78 74 67 60 53 141 147 158 157 155 154 153 151 150 149 148 146 145 144 143 141 140 128 116 158 199 209 209 210 211 211 212 212 212 212 212 212 211 207 
54 55 57 58 60 81 103 124 145 160 168 176 184 184 175 159 117 73 84 108 99 80 60 108 53 52 60 68 83 124 124 94 95 102 109 114 114 115 116 180 156 220 54 53 52 52 52 52 52 52 52 52 52 55 58 62 69 80 92 105 114 117 120 123 126 132 138 144 140 136 132 134 136 138 140 145 150 150 145 140 49 49 49 48 48 51 54 57 87 83 76 69 62 55 131 153 160 158 157 156 154 153 151 150 149 148 146 145 144 143 137 128 116 164 206 211 211 212 212 212 212 212 212 212 212 212 209 205 
52 53 55 56 57 80 101 123 144 162 170 178 185 182 174 154 115 71 86 92 94 75 65 60 54 49 52 63 81 99 120 103 101 106 113 116 117 118 110 185 204 52 52 52 52 52 52 52 52 52 52 52 52 53 57 61 64 68 81 93 106 113 116 119 123 129 135 141 144 140 138 140 142 144 146 148 153 154 150 52 52 51 51 51 50 50 52 55 92 85 78 71 65 58 122 158 161 160 158 157 156 154 153 152 150 149 148 147 145 142 135 128 116 164 212 212 212 212 212 212 212 212 212 212 212 210 207 203 
52 51 52 53 55 77 100 121 143 164 172 180 183 180 174 149 112 68 91 85 89 74 69 63 57 51 44 62 80 98 116 113 110 109 116 119 120 112 104 236 102 50 52 52 52 52 52 52 52 52 52 52 52 52 55 59 63 66 60 81 94 106 113 115 120 126 132 138 145 144 144 146 148 150 152 154 156 159 108 53 53 53 53 53 53 52 52 52 92 86 79 73 66 60 112 164 163 161 160 158 157 156 154 153 152 150 149 148 146 139 132 125 116 164 212 212 212 212 212 212 212 212 212 212 212 208 204 201 
52 50 49 51 52 75 97 120 141 163 174 182 181 178 173 144 107 65 88 97 84 78 72 67 61 54 47 62 89 107 84 102 120 117 120 122 114 106 98 152 59 49 52 52 52 52 52 52 52 52 52 52 52 52 54 58 61 65 67 52 73 95 107 112 117 123 129 136 142 148 150 152 154 156 158 160 162 164 94 53 55 54 54 54 54 54 53 55 92 86 79 73 67 62 121 159 155 158 161 160 159 157 156 154 153 152 151 149 143 136 130 123 116 176 212 212 212 212 212 212 212 212 212 212 209 206 202 198 
52 50 48 48 49 72 95 117 140 161 176 181 179 176 173 140 102 63 85 108 73 79 76 70 64 58 51 44 80 116 52 70 88 106 124 116 108 100 92 68 58 47 51 52 52 52 52 52 52 52 52 52 52 52 52 56 60 63 66 64 44 65 87 108 114 121 127 134 140 147 152 157 159 161 163 165 167 150 80 54 56 56 56 55 55 54 49 57 92 86 80 74 69 64 130 154 149 145 143 152 160 159 157 156 154 153 152 148 141 134 127 120 127 188 212 212 212 212 212 212 212 212 212 211 207 203 200 196 
52 50 48 46 47 69 92 115 137 160 178 179 177 174 172 135 97 60 103 100 62 67 73 73 67 61 54 47 62 132 81 70 101 119 96 119 141 164 88 112 56 46 50 52 52 52 52 52 52 52 52 52 52 52 52 54 58 61 64 67 56 36 82 113 113 120 126 133 139 146 151 156 161 165 167 169 171 137 66 54 57 57 57 57 54 50 46 60 92 87 82 76 71 66 139 149 144 140 136 131 137 145 154 157 156 155 152 145 138 131 124 117 138 200 212 212 212 212 212 212 212 212 212 180 148 116 84 52 
52 50 48 46 44 67 89 112 135 157 180 178 176 174 173 140 92 116 140 92 50 56 62 68 71 65 58 51 44 148 109 70 87 132 68 113 138 142 84 156 100 44 48 52 52 52 52 52 52 52 52 52 52 52 52 53 57 60 62 65 68 76 103 119 119 119 125 132 138 145 150 155 160 165 171 174 176 123 52 55 57 59 58 55 51 47 43 63 103 86 82 77 73 68 148 144 139 135 131 126 122 123 131 139 148 156 149 142 135 128 121 114 149 212 212 212 211 211 211 211 211 210 170 120 88 56 50 58 
52 51 51 50 49 52 75 97 120 143 175 175 176 175 173 156 140 156 96 84 39 45 51 56 62 68 62 55 49 116 124 92 60 84 108 112 116 120 124 68 172 109 47 51 52 52 52 52 52 52 52 52 52 52 52 52 55 58 61 64 72 98 124 124 124 124 124 130 137 143 149 154 159 164 170 175 180 188 196 204 132 60 56 52 48 43 39 69 113 85 81 76 72 68 148 146 140 135 130 124 119 113 108 115 123 130 137 135 132 125 118 111 160 212 210 210 210 209 209 209 209 179 128 78 28 48 68 64 
92 74 56 55 55 57 60 83 105 153 170 170 171 171 172 172 108 44 52 164 28 37 47 56 65 57 79 60 54 84 132 100 124 98 102 113 121 125 129 88 157 133 112 49 52 52 52 52 52 52 52 52 52 52 52 52 54 56 59 62 77 103 123 126 128 129 129 129 136 142 148 153 158 163 168 173 178 185 193 201 205 208 136 63 54 45 36 80 124 84 80 76 72 68 148 148 144 138 133 127 122 117 114 110 107 104 111 119 116 113 111 108 160 212 210 209 208 208 208 207 187 137 87 38 46 66 74 71 
132 114 96 78 60 63 65 68 116 164 166 167 169 171 173 160 112 116 188 36 40 44 53 63 55 47 110 90 71 52 140 114 88 92 96 100 119 130 134 108 142 114 93 73 52 52 52 52 52 52 52 52 52 52 52 52 52 55 58 61 81 105 122 125 128 130 133 135 135 141 146 152 157 162 167 172 177 183 191 199 203 206 209 212 76 62 48 92 106 77 80 76 72 68 148 148 147 142 136 131 126 123 119 116 112 109 106 103 100 95 89 84 160 212 210 209 207 206 206 196 145 78 48 56 64 84 80 77 
132 148 130 112 83 61 63 66 114 161 168 170 171 173 175 149 116 127 137 38 46 53 60 52 44 36 140 87 60 60 104 78 82 86 90 94 105 124 139 128 127 95 74 73 71 52 52 52 52 52 52 52 52 52 52 51 57 64 62 60 84 108 121 124 127 129 132 135 137 140 145 150 155 160 165 170 175 180 188 196 201 204 207 210 215 138 60 74 88 70 75 76 72 68 148 148 148 145 139 135 132 128 125 121 118 115 112 108 105 100 95 102 154 212 210 209 207 206 204 136 69 58 66 74 82 90 87 83 
132 148 164 135 107 76 61 64 112 157 172 172 174 175 170 137 168 76 87 41 48 55 57 59 86 124 68 68 68 68 68 72 76 80 84 88 92 111 129 148 112 76 94 111 91 52 52 52 52 52 52 52 51 51 51 51 62 77 75 54 87 111 120 123 126 128 131 135 139 139 143 148 153 158 163 168 173 178 185 193 199 202 205 209 213 218 141 56 70 63 68 73 72 68 148 148 148 148 145 141 138 134 131 127 124 120 117 114 111 105 100 120 165 212 212 210 208 207 157 60 68 76 84 92 100 96 93 89 
132 120 151 159 130 100 68 62 109 154 176 176 176 178 159 189 220 128 36 43 51 54 54 55 58 73 64 64 64 64 65 72 75 76 78 82 86 97 116 132 148 52 132 150 110 52 52 52 51 51 51 51 51 50 50 50 66 86 89 48 85 113 120 122 125 130 134 138 140 139 142 147 152 157 162 167 172 177 183 191 197 200 203 207 212 217 222 144 52 57 61 66 70 68 148 148 146 147 146 144 143 140 136 133 129 126 122 119 116 111 118 138 177 212 212 211 210 208 111 69 77 85 93 100 101 103 99 96 
76 85 138 160 153 124 92 60 105 150 180 180 180 180 167 153 140 89 39 46 51 51 51 52 54 57 60 60 60 61 62 67 77 81 82 83 83 84 102 121 139 100 95 188 111 55 51 51 51 50 50 50 50 50 49 51 71 91 102 42 79 116 120 124 128 133 137 140 139 138 142 146 150 155 160 165 170 175 180 188 195 198 201 205 210 215 220 225 140 54 57 61 64 68 148 144 145 146 146 143 141 140 140 138 135 131 128 124 121 116 136 156 189 212 212 212 211 161 83 78 86 94 100 102 103 104 105 102 
20 72 125 162 155 148 101 55 101 147 184 184 181 176 161 164 212 92 41 47 48 48 49 49 49 53 92 56 56 57 58 61 71 81 87 88 89 82 107 121 134 148 44 68 92 58 55 50 50 50 49 49 49 49 49 56 76 96 116 36 78 119 123 127 131 136 140 139 139 138 141 145 149 153 158 163 168 173 178 185 193 196 199 203 208 213 218 223 228 52 52 52 52 104 142 143 144 145 146 143 141 138 136 136 136 136 133 130 127 134 154 174 200 212 212 212 212 133 79 87 95 101 102 103 104 106 107 108 
21 64 114 164 157 151 96 49 96 142 188 183 177 172 167 143 100 72 44 44 45 45 46 46 46 48 124 52 53 54 55 56 66 76 86 94 94 79 116 130 143 151 63 60 124 61 58 54 49 49 49 48 48 48 48 60 81 101 114 41 81 122 126 130 134 139 140 139 138 137 140 144 148 152 157 162 167 172 177 183 191 194 197 202 207 212 216 221 225 138 43 39 36 140 141 142 143 144 145 144 141 139 136 134 132 132 132 132 132 152 172 192 212 213 214 214 184 105 89 97 101 102 103 104 106 106 106 105 
21 55 107 157 160 153 99 44 94 144 188 181 175 168 163 157 124 180 47 46 46 45 45 45 44 44 136 44 49 51 52 53 60 70 80 90 100 77 84 139 149 153 81 52 156 64 55 57 53 48 48 48 47 47 47 65 85 114 111 45 84 125 129 133 137 140 139 138 138 137 139 143 147 152 156 160 165 170 175 180 188 192 195 200 205 210 215 218 221 224 76 34 32 141 140 141 142 143 144 144 141 139 136 134 131 129 128 128 168 188 208 210 213 216 217 202 156 90 98 101 102 103 104 104 105 105 105 102 
22 46 99 151 169 156 100 44 101 151 188 181 175 168 161 155 148 116 49 49 48 48 47 47 47 87 148 36 41 46 49 50 55 65 75 84 90 75 52 148 152 156 100 44 188 96 46 61 56 52 47 47 47 46 50 70 96 121 109 50 87 128 132 136 140 139 139 138 137 136 138 142 147 151 155 159 163 168 173 178 185 190 193 198 203 208 212 215 218 221 148 28 28 143 141 140 141 142 143 144 141 139 136 134 131 129 126 124 204 206 208 211 213 217 220 174 128 99 101 102 102 102 103 103 103 103 103 98 
23 37 90 144 179 149 100 44 104 157 188 181 175 168 162 156 149 52 52 51 51 50 50 50 70 104 112 50 43 41 42 46 49 59 67 74 81 73 89 143 121 125 160 104 172 164 36 64 60 55 51 46 46 46 55 79 111 123 107 54 90 131 135 139 139 139 138 137 137 136 137 141 146 150 154 158 162 167 172 177 183 188 192 197 202 205 208 211 214 217 220 28 28 144 143 141 140 141 142 144 142 139 137 134 132 129 127 135 206 207 209 211 214 217 201 151 100 100 100 101 101 101 101 101 102 102 102 95 
24 32 81 134 188 142 97 44 104 164 188 182 176 169 163 157 151 53 53 53 53 52 52 52 60 68 76 64 52 50 48 46 44 51 57 64 71 70 113 137 132 95 114 164 96 28 48 68 63 59 54 50 45 45 61 94 122 126 105 59 95 134 138 140 139 138 137 137 136 135 136 141 145 149 153 157 162 166 170 175 180 186 190 195 199 202 205 208 211 216 217 28 28 145 144 142 141 140 142 143 142 139 137 134 132 129 126 146 208 208 209 211 214 212 183 132 101 99 99 99 99 100 100 100 100 100 101 92 
24 33 72 125 184 148 96 44 105 148 186 182 177 171 164 158 152 55 54 54 54 54 53 52 55 63 71 67 55 52 51 49 47 60 62 64 66 68 122 132 127 105 68 89 113 140 124 108 97 87 76 65 55 44 76 109 125 129 102 63 99 137 140 139 138 138 137 136 136 135 135 140 144 148 152 157 161 165 169 173 178 184 188 193 196 199 202 207 211 215 215 120 32 147 145 144 142 141 141 142 142 139 137 134 132 129 125 157 210 210 210 212 212 204 164 116 103 98 98 98 98 98 98 99 99 99 99 89 
25 34 62 116 180 160 108 47 108 141 183 180 176 172 166 160 153 56 56 56 55 54 52 53 53 58 66 70 58 53 53 52 50 48 76 78 80 87 132 127 121 116 89 63 36 44 52 67 82 80 69 58 48 64 94 124 128 132 100 68 104 140 139 139 138 137 136 136 135 134 135 139 143 147 151 156 160 164 168 172 177 182 186 189 193 198 203 207 212 213 212 212 36 148 147 145 144 142 141 141 142 140 137 135 132 128 124 168 212 212 212 212 204 196 148 109 104 99 97 97 97 97 97 97 97 98 98 86 
26 35 53 112 176 156 120 49 97 139 181 177 174 170 166 161 155 57 57 57 55 53 52 53 54 54 62 70 62 54 54 53 52 51 64 92 60 84 108 117 112 95 128 111 44 49 51 50 49 55 62 51 54 84 105 126 120 124 84 75 111 138 140 139 137 137 136 135 134 134 134 138 142 146 151 155 159 163 167 172 176 180 185 189 194 198 203 208 211 210 209 207 89 143 131 140 145 143 142 140 141 140 137 134 131 131 131 128 172 172 189 223 215 180 132 110 105 101 96 96 96 96 95 96 96 96 96 82 
27 35 44 108 172 152 132 52 94 137 179 175 171 167 164 160 156 59 58 57 54 52 53 53 54 55 57 65 65 55 54 54 53 53 52 68 84 55 63 108 91 73 106 139 172 52 51 49 48 47 45 44 65 86 106 127 117 116 68 81 132 135 138 139 138 137 136 135 134 133 133 137 141 145 150 154 158 162 166 169 173 177 183 190 194 199 203 208 208 207 205 203 143 137 99 113 124 132 140 142 140 140 137 135 137 139 138 135 132 166 200 233 212 164 116 111 107 102 97 95 95 95 94 94 94 95 95 79 
27 36 49 103 172 160 140 56 92 134 177 173 169 165 161 161 135 60 58 55 53 52 53 54 54 55 56 60 68 56 55 55 54 54 49 92 108 79 49 20 148 52 84 116 72 50 50 49 47 46 45 56 69 87 108 129 118 108 52 103 130 133 136 139 139 138 137 136 134 133 132 136 140 143 147 151 155 159 162 166 170 174 180 187 194 199 204 206 204 202 200 198 196 132 68 82 96 108 116 124 132 140 142 144 146 148 146 134 141 175 210 244 192 140 106 107 108 103 99 94 94 94 94 93 93 93 93 76 
28 41 55 98 172 168 148 60 96 132 174 170 167 166 165 164 114 65 57 54 52 53 53 54 55 55 56 57 63 59 56 56 55 53 47 89 132 103 75 46 53 60 76 92 47 48 49 48 47 45 44 68 81 94 110 130 120 72 71 124 127 130 134 137 140 139 138 137 136 135 134 134 137 140 144 148 152 156 159 163 167 171 177 183 190 197 204 205 207 208 209 211 212 104 74 79 83 88 92 98 104 110 117 130 143 156 136 116 149 183 216 216 164 112 95 97 98 99 100 95 93 93 93 92 92 92 92 73 
40 47 60 94 172 168 156 64 100 136 172 171 170 170 169 168 102 70 55 53 52 53 54 54 55 56 56 57 58 62 57 57 56 50 44 72 101 129 101 72 79 72 58 44 45 46 47 47 46 45 58 80 93 106 119 132 84 36 100 128 131 134 137 139 140 141 140 139 138 137 136 135 136 138 141 145 149 152 156 160 164 168 173 180 187 194 200 206 207 211 216 222 228 76 80 85 89 94 91 82 73 79 85 94 107 138 162 145 155 188 221 187 136 84 85 86 87 89 90 91 92 93 93 94 94 95 88 70 
52 59 65 89 172 168 164 68 101 134 172 174 174 173 173 147 106 74 54 52 53 53 54 55 55 56 57 57 58 62 58 58 53 50 51 56 75 98 127 98 98 84 65 43 45 44 46 47 45 44 73 93 105 118 123 103 55 76 128 131 134 137 138 139 139 140 141 141 140 139 138 137 136 138 140 142 146 149 153 157 161 165 170 177 183 190 197 203 208 209 209 211 217 144 87 91 96 100 91 82 73 64 55 61 72 121 188 174 160 193 210 159 108 74 75 76 77 78 84 92 93 96 96 97 98 95 84 66 
64 71 77 84 172 168 164 98 97 132 172 174 176 177 176 143 111 79 53 52 53 54 54 55 56 56 57 58 58 59 59 57 56 57 58 59 68 86 105 124 105 87 63 43 46 46 44 45 45 58 87 105 118 114 94 73 58 116 131 135 136 137 137 138 139 140 141 142 142 141 140 139 138 138 140 142 144 146 150 154 158 161 166 173 180 186 193 199 206 210 211 211 212 212 81 97 102 99 90 81 72 63 54 45 36 115 194 195 189 199 182 131 80 63 65 68 76 84 92 87 94 99 100 100 101 91 80 63 
76 90 103 117 168 166 164 128 92 132 172 174 176 178 180 148 116 84 52 53 53 54 55 55 56 57 57 58 59 59 60 61 63 64 65 66 68 79 98 127 108 86 58 42 45 48 47 45 44 73 102 117 105 85 64 44 95 132 134 135 136 136 137 138 139 140 140 141 142 143 142 141 140 139 140 142 144 146 148 151 155 158 163 170 176 183 189 196 202 209 212 213 213 214 76 92 108 102 95 89 82 76 69 63 56 121 200 201 203 204 153 103 52 60 68 76 84 92 91 80 94 103 103 104 98 87 76 60 
70 86 112 138 164 168 166 131 95 134 172 173 174 175 176 160 128 85 51 55 56 57 57 58 59 59 60 61 61 62 68 62 65 69 72 73 75 76 91 129 109 81 54 41 44 47 49 48 57 86 116 92 68 44 73 103 132 133 134 134 135 136 137 138 138 139 140 141 142 143 143 143 142 141 140 142 144 146 148 150 152 155 159 166 173 179 186 192 199 205 212 214 215 215 116 84 99 111 106 101 96 91 86 81 76 134 206 207 188 140 89 65 66 68 76 84 92 94 83 76 95 106 107 106 94 83 72 57 
65 74 97 123 158 177 167 134 98 137 171 173 173 173 172 172 117 63 50 54 58 59 60 61 61 62 63 63 64 66 75 60 63 67 70 74 77 81 84 132 104 77 49 41 44 47 50 50 69 76 60 44 69 93 118 131 132 132 133 134 135 136 137 137 138 139 140 141 141 142 143 144 144 143 142 142 144 146 148 150 152 154 156 162 169 175 182 188 195 201 208 214 216 217 156 76 90 105 113 108 104 99 94 89 85 116 212 172 127 76 78 79 81 82 84 92 97 86 75 77 96 109 110 102 90 79 68 54 
59 68 81 107 152 186 169 137 102 140 169 173 174 174 174 158 96 51 49 53 57 61 63 63 64 65 65 66 67 73 83 92 62 65 69 72 75 78 80 100 100 72 45 40 43 46 49 52 57 62 67 79 103 128 129 130 131 132 133 134 134 135 136 137 138 139 139 140 141 142 143 144 144 145 144 143 144 146 148 150 152 154 159 164 169 175 180 185 191 198 204 211 217 218 196 95 83 96 110 116 111 106 101 96 94 92 156 113 89 90 92 94 95 97 98 100 89 78 68 78 97 113 109 97 86 75 63 50 
53 63 72 92 146 195 170 138 105 139 168 172 176 176 175 144 74 50 47 51 55 59 63 66 67 67 68 69 72 81 90 100 60 63 67 70 73 74 76 77 100 68 40 40 43 48 56 64 76 91 96 114 127 128 129 130 131 131 132 133 134 135 136 137 137 138 139 140 141 142 142 143 144 145 146 145 144 146 148 150 152 156 161 167 172 177 183 188 193 199 204 209 215 220 204 113 79 90 101 116 119 114 109 104 103 101 100 99 99 98 97 97 96 95 95 94 85 72 60 79 97 116 105 93 82 71 59 47 
47 57 66 76 140 204 172 140 108 137 167 171 175 177 177 130 52 49 46 50 54 58 62 66 69 70 71 71 79 89 98 107 92 62 65 67 69 70 72 73 84 68 36 44 52 60 68 76 84 100 124 125 127 128 128 129 130 131 132 133 134 134 135 136 137 138 139 140 140 141 142 143 144 145 145 146 146 146 148 150 153 159 164 169 175 180 185 191 196 200 204 207 211 215 212 132 75 86 97 107 121 122 117 113 112 109 105 101 97 93 92 91 90 90 89 88 82 69 84 103 121 108 94 83 73 63 54 44 
42 51 60 68 144 208 200 168 104 136 165 169 173 177 178 116 82 48 45 49 53 57 61 65 69 73 73 78 87 96 105 115 124 60 62 63 65 66 68 69 71 68 55 61 68 74 80 88 96 104 124 125 126 127 128 129 130 130 131 132 133 134 135 136 136 137 138 139 140 141 142 142 143 144 145 146 147 147 148 151 156 161 167 172 176 180 183 187 191 195 198 202 206 210 213 172 72 82 93 104 114 127 124 122 119 115 111 107 103 99 95 91 87 84 83 82 79 80 108 127 113 99 86 72 59 50 40 72 
36 44 52 60 136 212 204 196 100 132 164 168 172 176 180 146 112 78 44 48 52 56 60 64 68 72 76 75 75 74 74 73 73 72 72 71 71 70 70 69 69 68 74 80 87 93 99 105 112 118 124 125 126 127 127 128 129 130 131 132 133 133 134 135 136 137 138 139 139 140 141 142 143 144 145 145 146 147 148 152 156 159 163 167 171 174 178 182 186 189 193 197 201 204 208 212 68 79 89 100 111 121 132 128 124 120 116 112 108 104 100 96 92 88 84 80 76 104 132 118 105 91 77 63 50 36 68 100 
