P2
#CREATOR : MyProgram
127 127
255
162 162 162 162 162 162 162 162 162 162 162 162 162 162 162 162 162 162 162 162 162 162 162 162 162 162 162 162 162 162 162 162 162 126 126 126 126 126 126 126 126 126 126 126 126 126 126 126 126 126 126 126 126 126 126 126 126 126 126 126 126 126 126 126 126 126 126 126 126 126 126 126 126 126 126 126 126 126 126 126 126 126 126 126 126 126 126 126 126 126 126 126 126 126 126 126 171 171 171 171 171 171 171 171 171 171 171 171 171 171 171 171 171 171 171 171 171 171 171 171 171 171 171 171 171 171 171 
162 162 162 162 162 162 162 162 162 162 162 162 162 162 162 162 162 162 162 162 162 162 162 162 162 162 162 162 162 162 162 162 162 126 126 126 126 126 126 126 126 126 126 126 126 126 126 126 126 126 126 126 126 126 126 126 126 126 126 126 126 126 126 126 126 126 126 126 126 126 126 126 126 126 126 126 126 126 126 126 126 126 126 126 126 126 126 126 126 126 126 126 126 126 126 126 171 171 171 171 171 171 171 171 171 171 171 171 171 171 171 171 171 171 171 171 171 171 171 171 171 171 171 171 171 171 171 
162 162 162 153 153 162 168 162 130 162 162 162 162 162 162 162 162 162 162 162 162 162 162 162 162 162 162 162 162 162 162 162 162 126 126 126 126 126 126 126 126 126 126 126 126 126 126 126 126 126 126 126 126 126 126 126 126 126 126 126 126 126 126 126 126 126 126 126 126 126 126 126 126 126 126 126 126 126 126 126 126 126 126 126 126 126 126 126 126 126 126 126 126 126 126 126 171 171 171 171 171 171 171 171 171 171 171 171 171 171 171 171 171 171 171 171 171 171 171 171 171 171 171 171 171 171 171 
162 162 162 153 153 153 153 168 168 168 130 130 130 106 106 106 103 103 103 125 125 125 131 131 131 130 130 130 129 129 129 131 131 131 139 139 139 133 133 133 126 126 126 126 126 126 126 126 126 126 126 126 126 126 126 126 126 126 126 126 126 126 126 126 126 126 126 126 126 126 126 126 126 126 126 126 126 126 126 126 126 126 126 126 126 126 126 126 126 126 132 132 132 129 129 129 108 108 108 153 153 153 163 163 163 152 152 152 152 152 152 217 217 217 217 217 217 171 171 171 171 171 171 171 171 171 171 
162 162 153 153 153 153 153 153 168 168 168 168 168 130 130 130 130 106 106 106 106 103 103 103 103 125 125 125 125 131 131 131 131 130 130 130 130 129 129 129 129 131 131 131 131 139 139 139 139 133 133 133 133 126 126 126 126 126 126 126 126 126 126 126 126 126 126 126 126 126 126 126 126 126 126 126 126 126 132 132 132 132 129 129 129 129 108 108 108 108 153 153 153 153 163 163 163 163 152 152 152 152 152 152 152 152 217 217 217 217 217 217 217 217 217 217 217 171 171 171 171 171 171 171 171 171 171 
162 162 162 153 153 153 153 153 168 168 168 168 168 130 130 130 130 130 106 106 106 106 106 103 103 103 103 103 125 125 125 125 125 131 131 131 131 131 130 130 130 130 130 129 129 129 129 129 131 131 131 131 131 139 139 139 139 139 133 133 133 133 133 126 126 126 126 126 132 132 132 132 132 129 129 129 129 129 108 108 108 108 108 153 153 153 153 153 163 163 163 163 163 152 152 152 152 152 152 152 152 152 152 217 217 217 217 217 217 217 217 217 217 217 217 217 217 171 171 171 171 171 171 171 171 171 171 
162 162 170 153 153 153 153 153 168 168 168 168 168 130 130 130 130 130 106 106 106 106 106 103 103 103 103 103 125 125 125 125 125 131 131 131 131 131 130 130 130 130 130 129 129 129 129 129 131 131 131 131 131 139 139 139 139 139 133 133 133 133 133 126 126 126 126 126 132 132 132 132 132 129 129 129 129 129 108 108 108 108 108 153 153 153 153 153 163 163 163 163 163 152 152 152 152 152 152 152 152 152 152 217 217 217 217 217 217 217 217 217 217 217 141 141 141 171 171 171 171 171 171 171 171 171 171 
162 162 162 170 153 153 153 153 168 168 168 168 168 130 130 130 130 130 106 106 106 106 106 103 103 103 103 103 125 125 125 125 125 131 131 131 131 131 130 130 130 130 130 129 129 129 129 129 131 131 131 131 131 139 139 139 139 139 133 133 133 133 133 126 126 126 126 126 132 132 132 132 132 129 129 129 129 129 108 108 108 108 108 153 153 153 153 153 163 163 163 163 163 152 152 152 152 152 152 152 152 152 152 217 217 217 217 217 217 217 217 217 141 141 141 141 141 171 171 171 171 171 171 171 171 171 171 
162 162 162 170 170 170 170 170 159 159 159 159 159 122 122 122 122 122 105 105 105 105 105 107 107 107 107 107 120 120 120 120 120 125 125 125 125 125 133 133 133 133 133 131 131 131 131 131 126 126 126 126 126 117 117 117 117 117 122 122 122 122 122 126 126 126 126 126 126 126 126 126 126 127 127 127 127 127 110 110 110 110 110 142 142 142 142 142 156 156 156 156 156 151 151 151 151 151 149 149 149 149 149 141 141 141 141 141 141 141 141 141 141 141 141 141 140 171 171 171 171 171 171 171 171 171 171 
162 162 162 170 170 170 170 170 159 159 159 159 159 122 122 122 122 122 105 105 105 105 105 107 107 107 107 107 120 120 120 120 120 125 125 125 125 125 133 133 133 133 133 131 131 131 131 131 126 126 126 126 126 117 117 117 117 117 122 122 122 122 122 126 126 126 126 126 126 126 126 126 126 127 127 127 127 127 110 110 110 110 110 142 142 142 142 142 156 156 156 156 156 151 151 151 151 151 149 149 149 149 149 141 141 141 141 141 141 141 141 141 141 141 140 140 140 140 171 171 171 171 171 171 171 171 171 
162 162 162 127 170 170 170 170 159 159 159 159 159 122 122 122 122 122 105 105 105 105 105 107 107 107 107 107 120 120 120 120 120 125 125 125 125 125 133 133 133 133 133 131 131 131 131 131 126 126 126 126 126 117 117 117 117 117 122 122 122 122 122 126 126 126 126 126 126 126 126 126 126 127 127 127 127 127 110 110 110 110 110 142 142 142 142 142 156 156 156 156 156 151 151 151 151 151 149 149 149 149 149 141 141 141 141 141 141 141 141 141 141 140 140 140 140 171 171 171 171 171 171 171 171 171 171 
162 162 162 127 170 170 170 170 159 159 159 159 159 122 122 122 122 122 105 105 105 105 105 107 107 107 107 107 120 120 120 120 120 125 125 125 125 125 133 133 133 133 133 131 131 131 131 131 126 126 126 126 126 117 117 117 117 117 122 122 122 122 122 126 126 126 126 126 126 126 126 126 126 127 127 127 127 127 110 110 110 110 110 142 142 142 142 142 156 156 156 156 156 151 151 151 151 151 149 149 149 149 149 141 141 141 141 141 141 141 141 140 140 140 140 145 145 171 171 171 171 171 171 171 171 171 171 
162 162 162 85 170 170 170 170 159 159 159 159 159 122 122 122 122 122 105 105 105 105 105 107 107 107 107 107 120 120 120 120 120 125 125 125 125 125 133 133 133 133 133 131 131 131 131 131 126 126 126 126 126 117 117 117 117 117 122 122 122 122 122 126 126 126 126 126 126 126 126 126 126 127 127 127 127 127 110 110 110 110 110 142 142 142 142 142 156 156 156 156 156 151 151 151 151 151 149 149 149 149 149 141 141 141 141 141 141 141 140 140 140 140 145 145 145 171 171 171 171 171 171 171 171 171 171 
162 162 162 85 127 127 127 127 162 162 162 162 162 130 130 130 130 130 105 105 105 105 105 107 107 107 107 107 119 119 119 119 119 125 125 125 125 125 123 123 123 123 123 122 122 122 122 122 139 139 139 139 139 175 175 175 175 175 168 168 168 168 168 190 190 190 190 190 121 121 121 121 121 121 121 121 121 121 105 105 105 105 105 141 141 141 141 141 147 147 147 147 147 147 147 147 147 147 142 142 142 142 142 140 140 140 140 140 140 140 140 140 140 145 145 145 156 171 171 171 171 171 171 171 171 171 171 
162 162 162 85 127 127 127 127 162 162 162 162 162 130 130 130 130 130 105 105 105 105 105 107 107 107 107 107 119 119 119 119 119 125 125 125 125 125 123 123 123 123 123 122 122 122 122 122 139 139 139 139 139 175 175 175 175 175 168 168 168 168 168 190 190 190 190 190 121 121 121 121 121 121 121 121 121 121 105 105 105 105 105 141 141 141 141 141 147 147 147 147 147 147 147 147 147 147 142 142 142 142 142 140 140 140 140 140 140 140 140 140 145 145 145 156 156 171 171 171 171 171 171 171 171 171 171 
162 162 162 86 127 127 127 127 162 162 162 162 162 130 130 130 130 130 105 105 105 105 105 107 107 107 107 107 119 119 119 119 119 125 125 125 125 125 123 123 123 123 123 122 122 122 122 122 139 139 139 139 139 175 175 175 175 175 168 168 168 168 168 190 190 190 190 190 121 121 121 121 121 121 121 121 121 121 105 105 105 105 105 141 141 141 141 141 147 147 147 147 147 147 147 147 147 147 142 142 142 142 142 140 140 140 140 140 140 140 140 145 145 145 156 156 156 171 171 171 171 171 171 171 171 171 171 
162 162 162 86 85 127 127 127 162 162 162 162 162 130 130 130 130 130 105 105 105 105 105 107 107 107 107 107 119 119 119 119 119 125 125 125 125 125 123 123 123 123 123 122 122 122 122 122 139 139 139 139 139 175 175 175 175 175 168 168 168 168 168 190 190 190 190 190 121 121 121 121 121 121 121 121 121 121 105 105 105 105 105 141 141 141 141 141 147 147 147 147 147 147 147 147 147 147 142 142 142 142 142 140 140 140 140 140 140 140 145 145 145 156 156 156 46 171 171 171 171 171 171 171 171 171 171 
162 162 162 86 85 127 127 127 162 162 162 162 162 130 130 130 130 130 105 105 105 105 105 107 107 107 107 107 119 119 119 119 119 125 125 125 125 125 123 123 123 123 123 122 122 122 122 122 139 139 139 139 139 175 175 175 175 175 168 168 168 168 168 190 190 190 190 190 121 121 121 121 121 121 121 121 121 121 105 105 105 105 105 141 141 141 141 141 147 147 147 147 147 147 147 147 147 147 142 142 142 142 142 140 140 140 140 140 140 145 145 145 145 156 156 46 46 171 171 171 171 171 171 171 171 171 171 
162 162 162 86 85 85 85 85 165 165 165 165 165 122 122 122 122 122 92 92 92 92 92 98 98 98 98 98 119 119 119 119 119 118 118 118 118 118 105 105 105 105 105 123 123 123 123 123 129 129 129 129 129 159 159 159 159 159 176 176 176 176 176 195 195 195 195 195 217 217 217 217 217 83 83 83 83 83 98 98 98 98 98 148 148 148 148 148 138 138 138 138 138 145 145 145 145 145 143 143 143 143 143 145 145 145 145 145 145 145 145 145 156 156 46 46 47 171 171 171 171 171 171 171 171 171 171 
162 162 162 87 85 85 85 85 165 165 165 165 165 122 122 122 122 122 92 92 92 92 92 98 98 98 98 98 119 119 119 119 119 118 118 118 118 118 105 105 105 105 105 123 123 123 123 123 129 129 129 129 129 159 159 159 159 159 176 176 176 176 176 195 195 195 195 195 217 217 217 217 217 83 83 83 83 83 98 98 98 98 98 148 148 148 148 148 138 138 138 138 138 145 145 145 145 145 143 143 143 143 143 145 145 145 145 145 145 145 145 156 156 156 46 46 47 171 171 171 171 171 171 171 171 171 171 
162 162 162 87 86 85 85 85 165 165 165 165 165 122 122 122 122 122 92 92 92 92 92 98 98 98 98 98 119 119 119 119 119 118 118 118 118 118 105 105 105 105 105 123 123 123 123 123 129 129 129 129 129 159 159 159 159 159 176 176 176 176 176 195 195 195 195 195 217 217 217 217 217 83 83 83 83 83 98 98 98 98 98 148 148 148 148 148 138 138 138 138 138 145 145 145 145 145 143 143 143 143 143 145 145 145 145 145 145 145 156 156 156 46 46 47 47 171 171 171 171 171 171 171 171 171 171 
162 162 162 95 86 85 85 85 165 165 165 165 165 122 122 122 122 122 92 92 92 92 92 98 98 98 98 98 119 119 119 119 119 118 118 118 118 118 105 105 105 105 105 123 123 123 123 123 129 129 129 129 129 159 159 159 159 159 176 176 176 176 176 195 195 195 195 195 217 217 217 217 217 83 83 83 83 83 98 98 98 98 98 148 148 148 148 148 138 138 138 138 138 145 145 145 145 145 143 143 143 143 143 145 145 145 145 145 145 156 156 156 46 46 47 47 51 171 171 171 171 171 171 171 171 171 171 
162 162 162 95 86 85 85 85 165 165 165 165 165 122 122 122 122 122 92 92 92 92 92 98 98 98 98 98 119 119 119 119 119 118 118 118 118 118 105 105 105 105 105 123 123 123 123 123 129 129 129 129 129 159 159 159 159 159 176 176 176 176 176 195 195 195 195 195 217 217 217 217 217 83 83 83 83 83 98 98 98 98 98 148 148 148 148 148 138 138 138 138 138 145 145 145 145 145 143 143 143 143 143 145 145 145 145 145 156 156 156 46 46 46 47 51 51 171 171 171 171 171 171 171 171 171 171 
162 162 162 95 86 86 86 86 167 167 167 167 167 120 120 120 120 120 95 95 95 95 95 102 102 102 102 102 112 112 112 112 112 108 108 108 108 108 116 116 116 116 116 133 133 133 133 133 146 146 146 146 146 142 142 142 142 142 191 191 191 191 191 198 198 198 198 198 202 202 202 202 202 208 208 208 208 208 62 62 62 62 62 154 154 154 154 154 146 146 146 146 146 62 62 62 62 62 142 142 142 142 142 156 156 156 156 156 156 156 156 46 46 47 47 51 38 171 171 171 171 171 171 171 171 171 171 
162 162 162 98 86 86 86 86 167 167 167 167 167 120 120 120 120 120 95 95 95 95 95 102 102 102 102 102 112 112 112 112 112 108 108 108 108 108 116 116 116 116 116 133 133 133 133 133 146 146 146 146 146 142 142 142 142 142 191 191 191 191 191 198 198 198 198 198 202 202 202 202 202 208 208 208 208 208 62 62 62 62 62 154 154 154 154 154 146 146 146 146 146 62 62 62 62 62 142 142 142 142 142 156 156 156 156 156 156 156 46 46 47 47 51 51 38 171 171 171 171 171 171 171 171 171 171 
162 162 162 98 87 86 86 86 167 167 167 167 167 120 120 120 120 120 95 95 95 95 95 102 102 102 102 102 112 112 112 112 112 108 108 108 108 108 116 116 116 116 116 133 133 133 133 133 146 146 146 146 146 142 142 142 142 142 191 191 191 191 191 198 198 198 198 198 202 202 202 202 202 208 208 208 208 208 62 62 62 62 62 154 154 154 154 154 146 146 146 146 146 62 62 62 62 62 142 142 142 142 142 156 156 156 156 156 156 46 46 46 47 47 51 38 38 171 171 171 171 171 171 171 171 171 171 
162 162 162 98 87 86 86 86 167 167 167 167 167 120 120 120 120 120 95 95 95 95 95 102 102 102 102 102 112 112 112 112 112 108 108 108 108 108 116 116 116 116 116 133 133 133 133 133 146 146 146 146 146 142 142 142 142 142 191 191 191 191 191 198 198 198 198 198 202 202 202 202 202 208 208 208 208 208 62 62 62 62 62 154 154 154 154 154 146 146 146 146 146 62 62 62 62 62 142 142 142 142 142 156 156 156 156 156 46 46 46 47 47 51 51 38 50 171 171 171 171 171 171 171 171 171 171 
162 162 162 108 87 86 86 86 167 167 167 167 167 120 120 120 120 120 95 95 95 95 95 102 102 102 102 102 112 112 112 112 112 108 108 108 108 108 116 116 116 116 116 133 133 133 133 133 146 146 146 146 146 142 142 142 142 142 191 191 191 191 191 198 198 198 198 198 202 202 202 202 202 208 208 208 208 208 62 62 62 62 62 154 154 154 154 154 146 146 146 146 146 62 62 62 62 62 142 142 142 142 142 156 156 156 156 156 46 46 46 47 47 51 38 38 50 171 171 171 171 171 171 171 171 171 171 
162 162 162 108 95 87 87 87 166 166 166 166 166 121 121 121 121 121 95 95 95 95 95 101 101 101 101 101 110 110 110 110 110 107 107 107 107 107 111 111 111 111 111 138 138 138 138 138 107 107 107 107 107 177 177 177 177 177 189 189 189 189 189 197 197 197 197 197 201 201 201 201 201 202 202 202 202 202 217 217 217 217 217 145 145 145 145 145 147 147 147 147 147 35 35 35 35 35 221 221 221 221 221 46 46 46 46 46 46 46 47 47 51 51 38 50 103 171 171 171 171 171 171 171 171 171 171 
162 162 162 108 95 87 87 87 166 166 166 166 166 121 121 121 121 121 95 95 95 95 95 101 101 101 101 101 110 110 110 110 110 107 107 107 107 107 111 111 111 111 111 138 138 138 138 138 107 107 107 107 107 177 177 177 177 177 189 189 189 189 189 197 197 197 197 197 201 201 201 201 201 202 202 202 202 202 217 217 217 217 217 145 145 145 145 145 147 147 147 147 147 35 35 35 35 35 221 221 221 221 221 46 46 46 46 46 46 47 47 47 51 38 38 50 103 171 171 171 171 171 171 171 171 171 171 
162 162 162 99 95 87 87 87 166 166 166 166 166 121 121 121 121 121 95 95 95 95 95 101 101 101 101 101 110 110 110 110 110 107 107 107 107 107 111 111 111 111 111 138 138 138 138 138 107 107 107 107 107 177 177 177 177 177 189 189 189 189 189 197 197 197 197 197 201 201 201 201 201 202 202 202 202 202 217 217 217 217 217 145 145 145 145 145 147 147 147 147 147 35 35 35 35 35 221 221 221 221 221 46 46 46 46 46 46 47 47 51 51 38 50 50 103 171 171 171 171 171 171 171 171 171 171 
162 162 162 99 95 87 87 87 166 166 166 166 166 121 121 121 121 121 95 95 95 95 95 101 101 101 101 101 110 110 110 110 110 107 107 107 107 107 111 111 111 111 111 138 138 138 138 138 107 107 107 107 107 177 177 177 177 177 189 189 189 189 189 197 197 197 197 197 201 201 201 201 201 202 202 202 202 202 217 217 217 217 217 145 145 145 145 145 147 147 147 147 147 35 35 35 35 35 221 221 221 221 221 46 46 46 46 46 47 47 51 51 38 38 50 103 129 171 171 171 171 171 171 171 171 171 171 
162 162 162 99 98 87 87 87 166 166 166 166 166 121 121 121 121 121 95 95 95 95 95 101 101 101 101 101 110 110 110 110 110 107 107 107 107 107 111 111 111 111 111 138 138 138 138 138 107 107 107 107 107 177 177 177 177 177 189 189 189 189 189 197 197 197 197 197 201 201 201 201 201 202 202 202 202 202 217 217 217 217 217 145 145 145 145 145 147 147 147 147 147 35 35 35 35 35 221 221 221 221 221 46 46 46 46 47 47 47 51 51 38 50 50 103 129 171 171 171 171 171 171 171 171 171 171 
92 92 92 99 98 95 95 95 166 166 166 166 166 128 128 128 128 128 99 99 99 99 99 99 99 99 99 99 99 99 99 99 99 101 101 101 101 101 101 101 101 101 101 116 116 116 116 116 170 170 170 170 170 183 183 183 183 183 167 167 167 167 167 177 177 177 177 177 195 195 195 195 195 182 182 182 182 182 190 190 190 190 190 209 209 209 209 209 203 203 203 203 203 203 203 203 203 203 205 205 205 205 205 47 47 47 47 47 47 51 51 38 38 50 103 129 161 161 171 171 171 171 171 171 171 171 171 
92 92 92 95 98 95 95 95 166 166 166 166 166 128 128 128 128 128 99 99 99 99 99 99 99 99 99 99 99 99 99 99 99 101 101 101 101 101 101 101 101 101 101 116 116 116 116 116 170 170 170 170 170 183 183 183 183 183 167 167 167 167 167 177 177 177 177 177 195 195 195 195 195 182 182 182 182 182 190 190 190 190 190 209 209 209 209 209 203 203 203 203 203 203 203 203 203 203 205 205 205 205 205 47 47 47 47 47 47 51 51 38 38 50 103 129 161 161 161 161 161 171 171 171 171 171 171 
92 92 92 95 98 95 95 95 166 166 166 166 166 128 128 128 128 128 99 99 99 99 99 99 99 99 99 99 99 99 99 99 99 101 101 101 101 101 101 101 101 101 101 116 116 116 116 116 170 170 170 170 170 183 183 183 183 183 167 167 167 167 167 177 177 177 177 177 195 195 195 195 195 182 182 182 182 182 190 190 190 190 190 209 209 209 209 209 203 203 203 203 203 203 203 203 203 203 205 205 205 205 205 47 47 47 47 47 51 51 38 38 50 50 103 129 161 161 161 161 161 161 161 161 171 171 171 
92 92 92 101 108 95 95 95 166 166 166 166 166 128 128 128 128 128 99 99 99 99 99 99 99 99 99 99 99 99 99 99 99 101 101 101 101 101 101 101 101 101 101 116 116 116 116 116 170 170 170 170 170 183 183 183 183 183 167 167 167 167 167 177 177 177 177 177 195 195 195 195 195 182 182 182 182 182 190 190 190 190 190 209 209 209 209 209 203 203 203 203 203 203 203 203 203 203 205 205 205 205 205 47 47 47 47 47 51 51 38 38 50 103 129 161 161 161 161 161 161 161 161 161 161 161 161 
92 92 92 101 108 95 95 95 166 166 166 166 166 128 128 128 128 128 99 99 99 99 99 99 99 99 99 99 99 99 99 99 99 101 101 101 101 101 101 101 101 101 101 116 116 116 116 116 170 170 170 170 170 183 183 183 183 183 167 167 167 167 167 177 177 177 177 177 195 195 195 195 195 182 182 182 182 182 190 190 190 190 190 209 209 209 209 209 203 203 203 203 203 203 203 203 203 203 205 205 205 205 205 47 47 47 47 51 51 38 38 50 50 103 129 161 161 161 161 161 161 161 161 161 161 161 161 
92 92 92 101 108 98 98 98 173 173 173 173 173 127 127 127 127 127 95 95 95 95 95 97 97 97 97 97 222 222 222 222 222 142 142 142 142 142 95 95 95 95 95 110 110 110 110 110 147 147 147 147 147 172 172 172 172 172 169 169 169 169 169 171 171 171 171 171 169 169 169 169 169 171 171 171 171 171 170 170 170 170 170 206 206 206 206 206 199 199 199 199 199 207 207 207 207 207 123 123 123 123 123 51 51 51 51 51 51 38 38 50 103 103 129 161 161 161 161 161 161 161 161 161 161 161 161 
92 92 92 92 108 98 98 98 173 173 173 173 173 127 127 127 127 127 95 95 95 95 95 97 97 97 97 97 222 222 222 222 222 142 142 142 142 142 95 95 95 95 95 110 110 110 110 110 147 147 147 147 147 172 172 172 172 172 169 169 169 169 169 171 171 171 171 171 169 169 169 169 169 171 171 171 171 171 170 170 170 170 170 206 206 206 206 206 199 199 199 199 199 207 207 207 207 207 123 123 123 123 123 51 51 51 51 51 38 38 50 50 103 129 161 161 161 161 161 161 161 161 161 161 161 161 161 
92 92 92 92 99 98 98 98 173 173 173 173 173 127 127 127 127 127 95 95 95 95 95 97 97 97 97 97 222 222 222 222 222 142 142 142 142 142 95 95 95 95 95 110 110 110 110 110 147 147 147 147 147 172 172 172 172 172 169 169 169 169 169 171 171 171 171 171 169 169 169 169 169 171 171 171 171 171 170 170 170 170 170 206 206 206 206 206 199 199 199 199 199 207 207 207 207 207 123 123 123 123 123 51 51 51 51 51 38 38 50 50 103 129 161 161 161 161 161 161 161 161 161 161 161 161 161 
92 92 92 92 99 98 98 98 173 173 173 173 173 127 127 127 127 127 95 95 95 95 95 97 97 97 97 97 222 222 222 222 222 142 142 142 142 142 95 95 95 95 95 110 110 110 110 110 147 147 147 147 147 172 172 172 172 172 169 169 169 169 169 171 171 171 171 171 169 169 169 169 169 171 171 171 171 171 170 170 170 170 170 206 206 206 206 206 199 199 199 199 199 207 207 207 207 207 123 123 123 123 123 51 51 51 51 38 38 50 50 103 129 129 161 161 161 161 161 161 161 161 161 161 161 161 161 
92 92 92 92 99 98 98 98 173 173 173 173 173 127 127 127 127 127 95 95 95 95 95 97 97 97 97 97 222 222 222 222 222 142 142 142 142 142 95 95 95 95 95 110 110 110 110 110 147 147 147 147 147 172 172 172 172 172 169 169 169 169 169 171 171 171 171 171 169 169 169 169 169 171 171 171 171 171 170 170 170 170 170 206 206 206 206 206 199 199 199 199 199 207 207 207 207 207 123 123 123 123 123 51 51 51 51 38 38 50 50 103 129 161 161 161 161 161 161 161 161 161 161 161 161 161 161 
92 92 92 92 99 108 108 108 173 173 173 173 173 133 133 133 133 133 100 100 100 100 100 100 100 100 100 100 219 219 219 219 219 123 123 123 123 123 111 111 111 111 111 119 119 119 119 119 141 141 141 141 141 104 104 104 104 104 129 129 129 129 129 57 57 57 57 57 45 45 45 45 45 170 170 170 170 170 196 196 196 196 196 199 199 199 199 199 206 206 206 206 206 88 88 88 88 88 217 217 217 217 217 38 38 38 38 38 38 50 103 103 129 161 161 161 161 161 161 161 161 161 161 161 161 161 161 
92 92 92 92 99 108 108 108 173 173 173 173 173 133 133 133 133 133 100 100 100 100 100 100 100 100 100 100 219 219 219 219 219 123 123 123 123 123 111 111 111 111 111 119 119 119 119 119 141 141 141 141 141 104 104 104 104 104 129 129 129 129 129 57 57 57 57 57 45 45 45 45 45 170 170 170 170 170 196 196 196 196 196 199 199 199 199 199 206 206 206 206 206 88 88 88 88 88 217 217 217 217 217 38 38 38 38 38 50 50 103 129 129 161 161 161 161 161 161 161 161 161 161 161 161 161 161 
92 92 92 92 95 108 108 108 173 173 173 173 173 133 133 133 133 133 100 100 100 100 100 100 100 100 100 100 219 219 219 219 219 123 123 123 123 123 111 111 111 111 111 119 119 119 119 119 141 141 141 141 141 104 104 104 104 104 129 129 129 129 129 57 57 57 57 57 45 45 45 45 45 170 170 170 170 170 196 196 196 196 196 199 199 199 199 199 206 206 206 206 206 88 88 88 88 88 217 217 217 217 217 38 38 38 38 38 50 50 103 129 161 161 161 161 161 161 161 161 161 161 161 161 161 161 161 
92 92 92 92 95 108 108 108 173 173 173 173 173 133 133 133 133 133 100 100 100 100 100 100 100 100 100 100 219 219 219 219 219 123 123 123 123 123 111 111 111 111 111 119 119 119 119 119 141 141 141 141 141 104 104 104 104 104 129 129 129 129 129 57 57 57 57 57 45 45 45 45 45 170 170 170 170 170 196 196 196 196 196 199 199 199 199 199 206 206 206 206 206 88 88 88 88 88 217 217 217 217 217 38 38 38 38 50 50 103 103 129 161 161 161 161 161 161 161 161 161 161 161 161 161 161 161 
92 92 92 92 95 108 108 108 173 173 173 173 173 133 133 133 133 133 100 100 100 100 100 100 100 100 100 100 219 219 219 219 219 123 123 123 123 123 111 111 111 111 111 119 119 119 119 119 141 141 141 141 141 104 104 104 104 104 129 129 129 129 129 57 57 57 57 57 45 45 45 45 45 170 170 170 170 170 196 196 196 196 196 199 199 199 199 199 206 206 206 206 206 88 88 88 88 88 217 217 217 217 217 38 38 38 38 50 50 103 129 129 161 161 161 161 161 161 161 161 161 161 161 161 161 161 161 
92 92 92 92 101 99 99 99 174 174 174 174 174 140 140 140 140 140 94 94 94 94 94 95 95 95 95 95 95 95 95 95 95 187 187 187 187 187 121 121 121 121 121 118 118 118 118 118 78 78 78 78 78 49 49 49 49 49 59 59 59 59 59 125 125 125 125 125 198 198 198 198 198 179 179 179 179 179 186 186 186 186 186 46 46 46 46 46 148 148 148 148 148 191 191 191 191 191 52 52 52 52 52 50 50 50 50 50 103 103 129 161 161 161 161 161 161 161 161 161 161 161 161 161 161 161 161 
92 92 92 92 101 99 99 99 174 174 174 174 174 140 140 140 140 140 94 94 94 94 94 95 95 95 95 95 95 95 95 95 95 187 187 187 187 187 121 121 121 121 121 118 118 118 118 118 78 78 78 78 78 49 49 49 49 49 59 59 59 59 59 125 125 125 125 125 198 198 198 198 198 179 179 179 179 179 186 186 186 186 186 46 46 46 46 46 148 148 148 148 148 191 191 191 191 191 52 52 52 52 52 50 50 50 50 50 103 103 129 161 161 161 161 161 161 161 161 161 161 161 161 161 161 161 161 
92 92 92 92 101 99 99 99 174 174 174 174 174 140 140 140 140 140 94 94 94 94 94 95 95 95 95 95 95 95 95 95 95 187 187 187 187 187 121 121 121 121 121 118 118 118 118 118 78 78 78 78 78 49 49 49 49 49 59 59 59 59 59 125 125 125 125 125 198 198 198 198 198 179 179 179 179 179 186 186 186 186 186 46 46 46 46 46 148 148 148 148 148 191 191 191 191 191 52 52 52 52 52 50 50 50 50 50 103 129 129 161 161 161 161 161 161 161 161 161 161 161 161 161 161 161 161 
92 92 92 92 101 99 99 99 174 174 174 174 174 140 140 140 140 140 94 94 94 94 94 95 95 95 95 95 95 95 95 95 95 187 187 187 187 187 121 121 121 121 121 118 118 118 118 118 78 78 78 78 78 49 49 49 49 49 59 59 59 59 59 125 125 125 125 125 198 198 198 198 198 179 179 179 179 179 186 186 186 186 186 46 46 46 46 46 148 148 148 148 148 191 191 191 191 191 52 52 52 52 52 50 50 50 50 103 103 129 161 161 161 161 161 161 161 161 161 161 161 161 161 161 161 161 161 
92 92 92 92 92 99 99 99 174 174 174 174 174 140 140 140 140 140 94 94 94 94 94 95 95 95 95 95 95 95 95 95 95 187 187 187 187 187 121 121 121 121 121 118 118 118 118 118 78 78 78 78 78 49 49 49 49 49 59 59 59 59 59 125 125 125 125 125 198 198 198 198 198 179 179 179 179 179 186 186 186 186 186 46 46 46 46 46 148 148 148 148 148 191 191 191 191 191 52 52 52 52 52 50 50 50 50 103 129 129 161 161 161 161 161 161 161 161 161 161 161 161 161 161 161 161 161 
92 92 92 92 92 95 95 95 169 169 169 169 169 138 138 138 138 138 94 94 94 94 94 104 104 104 104 104 114 114 114 114 114 140 140 140 140 140 118 118 118 118 118 45 45 45 45 45 46 46 46 46 46 35 35 35 35 35 33 33 33 33 33 119 119 119 119 119 168 168 168 168 168 171 171 171 171 171 199 199 199 199 199 147 147 147 147 147 150 150 150 150 150 49 49 49 49 49 43 43 43 43 43 103 103 103 103 103 129 129 161 161 161 161 161 161 161 161 161 161 161 161 161 161 161 161 161 
92 92 92 92 92 95 95 95 169 169 169 169 169 138 138 138 138 138 94 94 94 94 94 104 104 104 104 104 114 114 114 114 114 140 140 140 140 140 118 118 118 118 118 45 45 45 45 45 46 46 46 46 46 35 35 35 35 35 33 33 33 33 33 119 119 119 119 119 168 168 168 168 168 171 171 171 171 171 199 199 199 199 199 147 147 147 147 147 150 150 150 150 150 49 49 49 49 49 43 43 43 43 43 103 103 103 103 103 129 161 161 161 161 161 161 161 161 161 161 161 161 161 161 161 161 161 161 
92 92 92 92 92 95 95 95 169 169 169 169 169 138 138 138 138 138 94 94 94 94 94 104 104 104 104 104 114 114 114 114 114 140 140 140 140 140 118 118 118 118 118 45 45 45 45 45 46 46 46 46 46 35 35 35 35 35 33 33 33 33 33 119 119 119 119 119 168 168 168 168 168 171 171 171 171 171 199 199 199 199 199 147 147 147 147 147 150 150 150 150 150 49 49 49 49 49 43 43 43 43 43 103 103 103 103 129 129 161 161 161 161 161 161 161 161 161 161 161 161 161 161 161 161 161 161 
92 92 92 92 92 95 95 95 169 169 169 169 169 138 138 138 138 138 94 94 94 94 94 104 104 104 104 104 114 114 114 114 114 140 140 140 140 140 118 118 118 118 118 45 45 45 45 45 46 46 46 46 46 35 35 35 35 35 33 33 33 33 33 119 119 119 119 119 168 168 168 168 168 171 171 171 171 171 199 199 199 199 199 147 147 147 147 147 150 150 150 150 150 49 49 49 49 49 43 43 43 43 43 103 103 103 103 129 129 161 161 161 161 161 161 161 161 161 161 161 161 161 161 161 161 161 161 
92 92 92 92 92 95 95 95 169 169 169 169 169 138 138 138 138 138 94 94 94 94 94 104 104 104 104 104 114 114 114 114 114 140 140 140 140 140 118 118 118 118 118 45 45 45 45 45 46 46 46 46 46 35 35 35 35 35 33 33 33 33 33 119 119 119 119 119 168 168 168 168 168 171 171 171 171 171 199 199 199 199 199 147 147 147 147 147 150 150 150 150 150 49 49 49 49 49 43 43 43 43 43 103 103 103 103 129 161 161 161 161 161 161 161 161 161 161 161 161 161 161 161 161 161 161 161 
92 92 92 92 92 101 101 101 168 168 168 168 168 137 137 137 137 137 100 100 100 100 100 101 101 101 101 101 119 119 119 119 119 138 138 138 138 138 85 85 85 85 85 39 39 39 39 39 60 60 60 60 60 117 117 117 117 117 161 161 161 161 161 184 184 184 184 184 164 164 164 164 164 174 174 174 174 174 199 199 199 199 199 205 205 205 205 205 53 53 53 53 53 60 60 60 60 60 47 47 47 47 47 129 129 129 129 129 161 161 161 161 161 161 161 161 161 161 161 161 161 161 161 161 161 161 161 
92 92 92 92 92 101 101 101 168 168 168 168 168 137 137 137 137 137 100 100 100 100 100 101 101 101 101 101 119 119 119 119 119 138 138 138 138 138 85 85 85 85 85 39 39 39 39 39 60 60 60 60 60 117 117 117 117 117 161 161 161 161 161 184 184 184 184 184 164 164 164 164 164 174 174 174 174 174 199 199 199 199 199 205 205 205 205 205 53 53 53 53 53 60 60 60 60 60 47 47 47 47 47 129 129 129 129 129 161 161 161 161 161 161 161 161 161 161 161 161 161 161 161 161 161 161 161 
92 92 92 92 92 101 101 101 168 168 168 168 168 137 137 137 137 137 100 100 100 100 100 101 101 101 101 101 119 119 119 119 119 138 138 138 138 138 85 85 85 85 85 39 39 39 39 39 60 60 60 60 60 117 117 117 117 117 161 161 161 161 161 184 184 184 184 184 164 164 164 164 164 174 174 174 174 174 199 199 199 199 199 205 205 205 205 205 53 53 53 53 53 60 60 60 60 60 47 47 47 47 47 129 129 129 129 161 161 161 161 161 161 161 161 161 161 161 161 161 161 161 161 161 161 161 161 
92 92 92 92 92 101 101 101 168 168 168 168 168 137 137 137 137 137 100 100 100 100 100 101 101 101 101 101 119 119 119 119 119 138 138 138 138 138 85 85 85 85 85 39 39 39 39 39 60 60 60 60 60 117 117 117 117 117 161 161 161 161 161 184 184 184 184 184 164 164 164 164 164 174 174 174 174 174 199 199 199 199 199 205 205 205 205 205 53 53 53 53 53 60 60 60 60 60 47 47 47 47 47 129 129 129 129 161 161 161 161 161 161 161 161 161 161 161 161 161 161 161 161 161 161 161 161 
92 92 92 92 92 101 101 101 168 168 168 168 168 137 137 137 137 137 100 100 100 100 100 101 101 101 101 101 119 119 119 119 119 138 138 138 138 138 85 85 85 85 85 39 39 39 39 39 60 60 60 60 60 117 117 117 117 117 161 161 161 161 161 184 184 184 184 184 164 164 164 164 164 174 174 174 174 174 199 199 199 199 199 205 205 205 205 205 53 53 53 53 53 60 60 60 60 60 47 47 47 47 47 129 129 129 129 161 161 161 161 161 161 161 161 161 161 161 161 161 161 161 161 161 161 161 161 
92 92 92 92 92 92 92 92 172 172 172 172 172 142 142 142 142 142 101 101 101 101 101 92 92 92 92 92 149 149 149 149 149 40 40 40 40 40 70 70 70 70 70 46 46 46 46 46 64 64 64 64 64 103 103 103 103 103 187 187 187 187 187 57 57 57 57 57 39 39 39 39 39 145 145 145 145 145 187 187 187 187 187 51 51 51 51 51 43 43 43 43 43 62 62 62 62 62 53 53 53 53 53 161 161 161 161 161 161 161 161 161 161 161 161 161 161 161 161 161 161 161 161 161 161 161 161 
92 92 92 92 92 92 92 92 172 172 172 172 172 142 142 142 142 142 101 101 101 101 101 92 92 92 92 92 149 149 149 149 149 40 40 40 40 40 70 70 70 70 70 46 46 46 46 46 64 64 64 64 64 103 103 103 103 103 187 187 187 187 187 57 57 57 57 57 39 39 39 39 39 145 145 145 145 145 187 187 187 187 187 51 51 51 51 51 43 43 43 43 43 62 62 62 62 62 53 53 53 53 53 161 161 161 161 161 161 161 161 161 161 161 161 161 161 161 161 161 161 161 161 161 161 161 161 
92 92 92 92 92 92 92 92 172 172 172 172 172 142 142 142 142 142 101 101 101 101 101 92 92 92 92 92 149 149 149 149 149 40 40 40 40 40 70 70 70 70 70 46 46 46 46 46 64 64 64 64 64 103 103 103 103 103 187 187 187 187 187 57 57 57 57 57 39 39 39 39 39 145 145 145 145 145 187 187 187 187 187 51 51 51 51 51 43 43 43 43 43 62 62 62 62 62 53 53 53 53 53 161 161 161 161 161 161 161 161 161 161 161 161 161 161 161 161 161 161 161 161 161 161 161 161 
92 92 92 92 92 92 92 92 172 172 172 172 172 142 142 142 142 142 101 101 101 101 101 92 92 92 92 92 149 149 149 149 149 40 40 40 40 40 70 70 70 70 70 46 46 46 46 46 64 64 64 64 64 103 103 103 103 103 187 187 187 187 187 57 57 57 57 57 39 39 39 39 39 145 145 145 145 145 187 187 187 187 187 51 51 51 51 51 43 43 43 43 43 62 62 62 62 62 53 53 53 53 53 161 161 161 161 161 161 161 161 161 161 161 161 161 161 161 161 161 161 161 161 161 161 161 161 
92 92 92 92 92 92 92 92 172 172 172 172 172 142 142 142 142 142 101 101 101 101 101 92 92 92 92 92 149 149 149 149 149 40 40 40 40 40 70 70 70 70 70 46 46 46 46 46 64 64 64 64 64 103 103 103 103 103 187 187 187 187 187 57 57 57 57 57 39 39 39 39 39 145 145 145 145 145 187 187 187 187 187 51 51 51 51 51 43 43 43 43 43 62 62 62 62 62 53 53 53 53 53 161 161 161 161 161 161 161 161 161 161 161 161 161 161 161 161 161 161 161 161 161 161 161 161 
92 92 92 92 92 82 82 82 175 175 175 175 175 143 143 143 143 143 109 109 109 109 109 124 124 124 124 124 40 40 40 40 40 72 72 72 72 72 97 97 97 97 97 48 48 48 48 48 28 28 28 28 28 189 189 189 189 189 146 146 146 146 146 131 131 131 131 131 150 150 150 150 150 125 125 125 125 125 151 151 151 151 151 82 82 82 82 82 79 79 79 79 79 45 45 45 45 45 122 122 122 122 122 153 153 153 153 161 161 161 161 161 161 161 161 161 161 161 161 161 161 161 161 161 161 161 161 
92 92 92 92 92 82 82 82 175 175 175 175 175 143 143 143 143 143 109 109 109 109 109 124 124 124 124 124 40 40 40 40 40 72 72 72 72 72 97 97 97 97 97 48 48 48 48 48 28 28 28 28 28 189 189 189 189 189 146 146 146 146 146 131 131 131 131 131 150 150 150 150 150 125 125 125 125 125 151 151 151 151 151 82 82 82 82 82 79 79 79 79 79 45 45 45 45 45 122 122 122 122 122 153 153 153 153 161 161 161 161 161 161 161 161 161 161 161 161 161 161 161 161 161 161 161 161 
92 92 92 92 92 82 82 82 175 175 175 175 175 143 143 143 143 143 109 109 109 109 109 124 124 124 124 124 40 40 40 40 40 72 72 72 72 72 97 97 97 97 97 48 48 48 48 48 28 28 28 28 28 189 189 189 189 189 146 146 146 146 146 131 131 131 131 131 150 150 150 150 150 125 125 125 125 125 151 151 151 151 151 82 82 82 82 82 79 79 79 79 79 45 45 45 45 45 122 122 122 122 122 153 153 153 153 161 161 161 161 161 161 161 161 161 161 161 161 161 161 161 161 161 161 161 161 
92 92 92 92 92 82 82 82 175 175 175 175 175 143 143 143 143 143 109 109 109 109 109 124 124 124 124 124 40 40 40 40 40 72 72 72 72 72 97 97 97 97 97 48 48 48 48 48 28 28 28 28 28 189 189 189 189 189 146 146 146 146 146 131 131 131 131 131 150 150 150 150 150 125 125 125 125 125 151 151 151 151 151 82 82 82 82 82 79 79 79 79 79 45 45 45 45 45 122 122 122 122 122 153 153 153 153 153 161 161 161 161 161 161 161 161 161 161 161 161 161 161 161 161 161 161 161 
92 92 92 92 92 82 82 82 175 175 175 175 175 143 143 143 143 143 109 109 109 109 109 124 124 124 124 124 40 40 40 40 40 72 72 72 72 72 97 97 97 97 97 48 48 48 48 48 28 28 28 28 28 189 189 189 189 189 146 146 146 146 146 131 131 131 131 131 150 150 150 150 150 125 125 125 125 125 151 151 151 151 151 82 82 82 82 82 79 79 79 79 79 45 45 45 45 45 122 122 122 122 122 153 153 153 153 153 161 161 161 161 161 161 161 161 161 161 161 161 161 161 161 161 161 161 161 
92 92 92 92 92 63 63 63 171 171 171 171 171 144 144 144 144 144 105 105 105 105 105 94 94 94 94 94 85 85 85 85 85 62 62 62 62 62 64 64 64 64 64 36 36 36 36 36 116 116 116 116 116 60 60 60 60 60 140 140 140 140 140 177 177 177 177 177 162 162 162 162 162 125 125 125 125 125 169 169 169 169 169 124 124 124 124 124 94 94 94 94 94 40 40 40 40 40 141 141 141 141 141 151 151 151 151 153 161 161 161 161 161 161 161 161 161 161 161 161 161 161 161 161 161 161 161 
92 92 92 92 92 63 63 63 171 171 171 171 171 144 144 144 144 144 105 105 105 105 105 94 94 94 94 94 85 85 85 85 85 62 62 62 62 62 64 64 64 64 64 36 36 36 36 36 116 116 116 116 116 60 60 60 60 60 140 140 140 140 140 177 177 177 177 177 162 162 162 162 162 125 125 125 125 125 169 169 169 169 169 124 124 124 124 124 94 94 94 94 94 40 40 40 40 40 141 141 141 141 141 151 151 151 151 153 153 161 161 161 161 161 161 161 161 161 161 161 161 161 161 161 161 161 161 
92 92 92 92 92 63 63 63 171 171 171 171 171 144 144 144 144 144 105 105 105 105 105 94 94 94 94 94 85 85 85 85 85 62 62 62 62 62 64 64 64 64 64 36 36 36 36 36 116 116 116 116 116 60 60 60 60 60 140 140 140 140 140 177 177 177 177 177 162 162 162 162 162 125 125 125 125 125 169 169 169 169 169 124 124 124 124 124 94 94 94 94 94 40 40 40 40 40 141 141 141 141 141 151 151 151 151 153 153 161 161 161 161 161 161 161 161 161 161 161 161 161 161 161 161 161 161 
92 92 92 92 92 63 63 63 171 171 171 171 171 144 144 144 144 144 105 105 105 105 105 94 94 94 94 94 85 85 85 85 85 62 62 62 62 62 64 64 64 64 64 36 36 36 36 36 116 116 116 116 116 60 60 60 60 60 140 140 140 140 140 177 177 177 177 177 162 162 162 162 162 125 125 125 125 125 169 169 169 169 169 124 124 124 124 124 94 94 94 94 94 40 40 40 40 40 141 141 141 141 141 151 151 151 151 151 153 161 161 161 161 161 161 161 161 161 161 161 161 161 161 161 161 161 161 
92 92 92 92 92 63 63 63 171 171 171 171 171 144 144 144 144 144 105 105 105 105 105 94 94 94 94 94 85 85 85 85 85 62 62 62 62 62 64 64 64 64 64 36 36 36 36 36 116 116 116 116 116 60 60 60 60 60 140 140 140 140 140 177 177 177 177 177 162 162 162 162 162 125 125 125 125 125 169 169 169 169 169 124 124 124 124 124 94 94 94 94 94 40 40 40 40 40 141 141 141 141 141 151 151 151 151 151 153 153 161 161 161 161 161 161 161 161 161 161 161 161 161 161 161 161 161 
92 92 92 92 82 62 62 62 172 172 172 172 172 143 143 143 143 143 103 103 103 103 103 108 108 108 108 108 107 107 107 107 107 55 55 55 55 55 40 40 40 40 40 27 27 27 27 27 78 78 78 78 78 58 58 58 58 58 133 133 133 133 133 150 150 150 150 150 146 146 146 146 146 132 132 132 132 132 166 166 166 166 166 89 89 89 89 89 80 80 80 80 80 80 80 80 80 80 157 157 157 157 157 150 150 150 150 151 151 153 161 161 161 161 161 161 161 161 161 161 161 161 161 161 161 161 161 
92 92 92 92 82 62 62 62 172 172 172 172 172 143 143 143 143 143 103 103 103 103 103 108 108 108 108 108 107 107 107 107 107 55 55 55 55 55 40 40 40 40 40 27 27 27 27 27 78 78 78 78 78 58 58 58 58 58 133 133 133 133 133 150 150 150 150 150 146 146 146 146 146 132 132 132 132 132 166 166 166 166 166 89 89 89 89 89 80 80 80 80 80 80 80 80 80 80 157 157 157 157 157 150 150 150 150 151 151 153 161 161 161 161 161 161 161 161 161 161 161 161 161 161 161 161 161 
92 92 92 92 82 62 62 62 172 172 172 172 172 143 143 143 143 143 103 103 103 103 103 108 108 108 108 108 107 107 107 107 107 55 55 55 55 55 40 40 40 40 40 27 27 27 27 27 78 78 78 78 78 58 58 58 58 58 133 133 133 133 133 150 150 150 150 150 146 146 146 146 146 132 132 132 132 132 166 166 166 166 166 89 89 89 89 89 80 80 80 80 80 80 80 80 80 80 157 157 157 157 157 150 150 150 150 150 151 153 153 161 161 161 161 161 161 161 161 161 161 161 161 161 161 161 161 
92 92 92 92 82 62 62 62 172 172 172 172 172 143 143 143 143 143 103 103 103 103 103 108 108 108 108 108 107 107 107 107 107 55 55 55 55 55 40 40 40 40 40 27 27 27 27 27 78 78 78 78 78 58 58 58 58 58 133 133 133 133 133 150 150 150 150 150 146 146 146 146 146 132 132 132 132 132 166 166 166 166 166 89 89 89 89 89 80 80 80 80 80 80 80 80 80 80 157 157 157 157 157 150 150 150 150 150 151 151 153 161 161 161 161 161 161 161 161 161 161 161 161 161 161 161 161 
92 92 92 92 63 62 62 62 172 172 172 172 172 143 143 143 143 143 103 103 103 103 103 108 108 108 108 108 107 107 107 107 107 55 55 55 55 55 40 40 40 40 40 27 27 27 27 27 78 78 78 78 78 58 58 58 58 58 133 133 133 133 133 150 150 150 150 150 146 146 146 146 146 132 132 132 132 132 166 166 166 166 166 89 89 89 89 89 80 80 80 80 80 80 80 80 80 80 157 157 157 157 157 150 150 150 150 150 151 151 153 153 161 161 161 161 161 161 161 161 161 161 161 161 161 161 161 
92 92 92 92 63 67 67 67 171 171 171 171 171 149 149 149 149 149 146 146 146 146 146 39 39 39 39 39 68 68 68 68 68 136 136 136 136 136 100 100 100 100 100 114 114 114 114 114 43 43 43 43 43 122 122 122 122 122 127 127 127 127 127 142 142 142 142 142 146 146 146 146 146 211 211 211 211 211 143 143 143 143 143 47 47 47 47 47 63 63 63 63 63 101 101 101 101 101 151 151 151 151 151 150 150 150 150 150 150 151 151 153 161 161 161 161 161 161 161 161 161 161 161 161 161 161 161 
92 92 92 92 63 67 67 67 171 171 171 171 171 149 149 149 149 149 146 146 146 146 146 39 39 39 39 39 68 68 68 68 68 136 136 136 136 136 100 100 100 100 100 114 114 114 114 114 43 43 43 43 43 122 122 122 122 122 127 127 127 127 127 142 142 142 142 142 146 146 146 146 146 211 211 211 211 211 143 143 143 143 143 47 47 47 47 47 63 63 63 63 63 101 101 101 101 101 151 151 151 151 151 150 150 150 150 150 150 151 151 153 161 161 161 161 161 161 161 161 161 161 161 161 161 161 161 
92 92 92 92 63 67 67 67 171 171 171 171 171 149 149 149 149 149 146 146 146 146 146 39 39 39 39 39 68 68 68 68 68 136 136 136 136 136 100 100 100 100 100 114 114 114 114 114 43 43 43 43 43 122 122 122 122 122 127 127 127 127 127 142 142 142 142 142 146 146 146 146 146 211 211 211 211 211 143 143 143 143 143 47 47 47 47 47 63 63 63 63 63 101 101 101 101 101 151 151 151 151 151 150 150 150 150 150 150 150 151 153 153 161 161 161 161 161 161 161 161 161 161 161 161 161 161 
92 92 92 92 62 67 67 67 171 171 171 171 171 149 149 149 149 149 146 146 146 146 146 39 39 39 39 39 68 68 68 68 68 136 136 136 136 136 100 100 100 100 100 114 114 114 114 114 43 43 43 43 43 122 122 122 122 122 127 127 127 127 127 142 142 142 142 142 146 146 146 146 146 211 211 211 211 211 143 143 143 143 143 47 47 47 47 47 63 63 63 63 63 101 101 101 101 101 151 151 151 151 151 150 150 150 150 150 150 150 151 151 153 161 161 161 161 161 161 161 161 161 161 161 161 161 161 
92 92 92 92 62 67 67 67 171 171 171 171 171 149 149 149 149 149 146 146 146 146 146 39 39 39 39 39 68 68 68 68 68 136 136 136 136 136 100 100 100 100 100 114 114 114 114 114 43 43 43 43 43 122 122 122 122 122 127 127 127 127 127 142 142 142 142 142 146 146 146 146 146 211 211 211 211 211 143 143 143 143 143 47 47 47 47 47 63 63 63 63 63 101 101 101 101 101 151 151 151 151 151 150 150 150 150 150 150 150 150 151 153 161 161 161 161 161 161 161 161 161 161 161 161 161 161 
92 92 92 92 62 70 70 70 171 171 171 171 171 180 180 180 180 180 105 105 105 105 105 47 47 47 47 47 131 131 131 131 131 103 103 103 103 103 94 94 94 94 94 53 53 53 53 53 50 50 50 50 50 78 78 78 78 78 117 117 117 117 117 142 142 142 142 142 121 121 121 121 121 146 146 146 146 146 105 105 105 105 105 52 52 52 52 52 67 67 67 67 67 151 151 151 151 151 154 154 154 154 154 150 150 150 150 150 150 150 150 151 153 153 161 161 161 161 161 161 161 161 161 161 161 161 161 
92 92 92 92 62 70 70 70 171 171 171 171 171 180 180 180 180 180 105 105 105 105 105 47 47 47 47 47 131 131 131 131 131 103 103 103 103 103 94 94 94 94 94 53 53 53 53 53 50 50 50 50 50 78 78 78 78 78 117 117 117 117 117 142 142 142 142 142 121 121 121 121 121 146 146 146 146 146 105 105 105 105 105 52 52 52 52 52 67 67 67 67 67 151 151 151 151 151 154 154 154 154 154 150 150 150 150 150 150 150 150 151 151 153 161 161 161 161 161 161 161 161 161 161 161 161 161 
92 92 92 82 67 70 70 70 171 171 171 171 171 180 180 180 180 180 105 105 105 105 105 47 47 47 47 47 131 131 131 131 131 103 103 103 103 103 94 94 94 94 94 53 53 53 53 53 50 50 50 50 50 78 78 78 78 78 117 117 117 117 117 142 142 142 142 142 121 121 121 121 121 146 146 146 146 146 105 105 105 105 105 52 52 52 52 52 67 67 67 67 67 151 151 151 151 151 154 154 154 154 154 150 150 150 150 150 150 150 150 150 151 153 161 161 161 161 161 161 161 161 161 161 161 161 161 
92 92 92 82 67 70 70 70 171 171 171 171 171 180 180 180 180 180 105 105 105 105 105 47 47 47 47 47 131 131 131 131 131 103 103 103 103 103 94 94 94 94 94 53 53 53 53 53 50 50 50 50 50 78 78 78 78 78 117 117 117 117 117 142 142 142 142 142 121 121 121 121 121 146 146 146 146 146 105 105 105 105 105 52 52 52 52 52 67 67 67 67 67 151 151 151 151 151 154 154 154 154 154 150 150 150 150 150 150 150 150 150 151 151 153 161 161 161 161 161 161 161 161 161 161 161 161 
92 92 92 82 67 70 70 70 171 171 171 171 171 180 180 180 180 180 105 105 105 105 105 47 47 47 47 47 131 131 131 131 131 103 103 103 103 103 94 94 94 94 94 53 53 53 53 53 50 50 50 50 50 78 78 78 78 78 117 117 117 117 117 142 142 142 142 142 121 121 121 121 121 146 146 146 146 146 105 105 105 105 105 52 52 52 52 52 67 67 67 67 67 151 151 151 151 151 154 154 154 154 154 150 150 150 150 150 150 150 150 150 150 151 153 161 161 161 161 161 161 161 161 161 161 161 161 
92 92 92 63 67 82 82 82 172 172 172 172 172 151 151 151 151 151 53 53 53 53 53 57 57 57 57 57 49 49 49 49 49 112 112 112 112 112 55 55 55 55 55 59 59 59 59 59 55 55 55 55 55 58 58 58 58 58 43 43 43 43 43 130 130 130 130 130 155 155 155 155 155 169 169 169 169 169 53 53 53 53 53 56 56 56 56 56 70 70 70 70 70 161 161 161 161 161 146 146 146 146 146 149 149 149 149 150 150 150 150 150 150 151 153 161 161 161 161 161 161 161 161 161 161 100 100 
92 92 92 63 70 82 82 82 172 172 172 172 172 151 151 151 151 151 53 53 53 53 53 57 57 57 57 57 49 49 49 49 49 112 112 112 112 112 55 55 55 55 55 59 59 59 59 59 55 55 55 55 55 58 58 58 58 58 43 43 43 43 43 130 130 130 130 130 155 155 155 155 155 169 169 169 169 169 53 53 53 53 53 56 56 56 56 56 70 70 70 70 70 161 161 161 161 161 146 146 146 146 146 149 149 149 149 149 150 150 150 150 150 150 151 153 161 161 161 161 161 161 100 100 100 100 100 
92 92 92 63 70 82 82 82 172 172 172 172 172 151 151 151 151 151 53 53 53 53 53 57 57 57 57 57 49 49 49 49 49 112 112 112 112 112 55 55 55 55 55 59 59 59 59 59 55 55 55 55 55 58 58 58 58 58 43 43 43 43 43 130 130 130 130 130 155 155 155 155 155 169 169 169 169 169 53 53 53 53 53 56 56 56 56 56 70 70 70 70 70 161 161 161 161 161 146 146 146 146 146 149 149 149 149 149 150 150 150 150 150 150 151 153 161 161 161 100 100 100 100 100 100 100 100 
46 46 46 62 70 82 82 82 172 172 172 172 172 151 151 151 151 151 53 53 53 53 53 57 57 57 57 57 49 49 49 49 49 112 112 112 112 112 55 55 55 55 55 59 59 59 59 59 55 55 55 55 55 58 58 58 58 58 43 43 43 43 43 130 130 130 130 130 155 155 155 155 155 169 169 169 169 169 53 53 53 53 53 56 56 56 56 56 70 70 70 70 70 161 161 161 161 161 146 146 146 146 146 149 149 149 149 149 149 150 150 150 150 150 151 151 153 100 100 100 100 100 100 100 100 100 100 
46 46 46 62 70 82 82 82 172 172 172 172 172 151 151 151 151 151 53 53 53 53 53 57 57 57 57 57 49 49 49 49 49 112 112 112 112 112 55 55 55 55 55 59 59 59 59 59 55 55 55 55 55 58 58 58 58 58 43 43 43 43 43 130 130 130 130 130 155 155 155 155 155 169 169 169 169 169 53 53 53 53 53 56 56 56 56 56 70 70 70 70 70 161 161 161 161 161 146 146 146 146 146 149 149 149 149 149 149 149 150 150 150 150 150 151 153 100 100 100 100 100 100 100 100 100 100 
46 46 46 62 82 63 63 63 170 170 170 170 170 154 154 154 154 154 39 39 39 39 39 49 49 49 49 49 131 131 131 131 131 96 96 96 96 96 171 171 171 171 171 91 91 91 91 91 53 53 53 53 53 53 53 53 53 53 91 91 91 91 91 129 129 129 129 129 147 147 147 147 147 176 176 176 176 176 202 202 202 202 202 36 36 36 36 36 74 74 74 74 74 146 146 146 146 146 132 132 132 132 132 99 99 99 99 99 149 149 150 150 150 150 150 151 153 100 100 100 100 100 100 100 100 100 100 
46 46 46 67 82 63 63 63 170 170 170 170 170 154 154 154 154 154 39 39 39 39 39 49 49 49 49 49 131 131 131 131 131 96 96 96 96 96 171 171 171 171 171 91 91 91 91 91 53 53 53 53 53 53 53 53 53 53 91 91 91 91 91 129 129 129 129 129 147 147 147 147 147 176 176 176 176 176 202 202 202 202 202 36 36 36 36 36 74 74 74 74 74 146 146 146 146 146 132 132 132 132 132 99 99 99 99 99 149 149 149 150 150 150 150 150 151 100 100 100 100 100 100 100 100 100 100 
46 46 46 67 82 63 63 63 170 170 170 170 170 154 154 154 154 154 39 39 39 39 39 49 49 49 49 49 131 131 131 131 131 96 96 96 96 96 171 171 171 171 171 91 91 91 91 91 53 53 53 53 53 53 53 53 53 53 91 91 91 91 91 129 129 129 129 129 147 147 147 147 147 176 176 176 176 176 202 202 202 202 202 36 36 36 36 36 74 74 74 74 74 146 146 146 146 146 132 132 132 132 132 99 99 99 99 99 99 149 149 150 150 150 150 150 151 100 100 100 100 100 100 100 100 100 100 
46 46 46 67 82 63 63 63 170 170 170 170 170 154 154 154 154 154 39 39 39 39 39 49 49 49 49 49 131 131 131 131 131 96 96 96 96 96 171 171 171 171 171 91 91 91 91 91 53 53 53 53 53 53 53 53 53 53 91 91 91 91 91 129 129 129 129 129 147 147 147 147 147 176 176 176 176 176 202 202 202 202 202 36 36 36 36 36 74 74 74 74 74 146 146 146 146 146 132 132 132 132 132 99 99 99 99 99 99 99 149 149 150 150 150 150 150 100 100 100 100 100 100 100 100 100 100 
46 46 46 70 63 63 63 63 170 170 170 170 170 154 154 154 154 154 39 39 39 39 39 49 49 49 49 49 131 131 131 131 131 96 96 96 96 96 171 171 171 171 171 91 91 91 91 91 53 53 53 53 53 53 53 53 53 53 91 91 91 91 91 129 129 129 129 129 147 147 147 147 147 176 176 176 176 176 202 202 202 202 202 36 36 36 36 36 74 74 74 74 74 146 146 146 146 146 132 132 132 132 132 99 99 99 99 99 99 99 149 149 149 150 150 150 150 100 100 100 100 100 100 100 100 100 100 
46 46 46 70 63 144 144 144 173 173 173 173 173 149 149 149 149 149 42 42 42 42 42 41 41 41 41 41 96 96 96 96 96 95 95 95 95 95 121 121 121 121 121 40 40 40 40 40 51 51 51 51 51 45 45 45 45 45 73 73 73 73 73 137 137 137 137 137 138 138 138 138 138 161 161 161 161 161 187 187 187 187 187 207 207 207 207 207 46 46 46 46 46 144 144 144 144 144 141 141 141 141 141 134 134 134 134 134 99 99 99 149 149 150 150 150 150 100 100 100 100 100 100 100 100 100 100 
46 46 46 70 63 144 144 144 173 173 173 173 173 149 149 149 149 149 42 42 42 42 42 41 41 41 41 41 96 96 96 96 96 95 95 95 95 95 121 121 121 121 121 40 40 40 40 40 51 51 51 51 51 45 45 45 45 45 73 73 73 73 73 137 137 137 137 137 138 138 138 138 138 161 161 161 161 161 187 187 187 187 187 207 207 207 207 207 46 46 46 46 46 144 144 144 144 144 141 141 141 141 141 134 134 134 134 134 134 99 99 99 149 149 150 150 150 100 100 100 100 100 100 100 100 100 100 
46 46 46 82 63 144 144 144 173 173 173 173 173 149 149 149 149 149 42 42 42 42 42 41 41 41 41 41 96 96 96 96 96 95 95 95 95 95 121 121 121 121 121 40 40 40 40 40 51 51 51 51 51 45 45 45 45 45 73 73 73 73 73 137 137 137 137 137 138 138 138 138 138 161 161 161 161 161 187 187 187 187 187 207 207 207 207 207 46 46 46 46 46 144 144 144 144 144 141 141 141 141 141 134 134 134 134 134 134 134 99 99 149 149 150 150 150 100 100 100 100 100 100 100 100 100 100 
46 46 46 82 144 144 144 144 173 173 173 173 173 149 149 149 149 149 42 42 42 42 42 41 41 41 41 41 96 96 96 96 96 95 95 95 95 95 121 121 121 121 121 40 40 40 40 40 51 51 51 51 51 45 45 45 45 45 73 73 73 73 73 137 137 137 137 137 138 138 138 138 138 161 161 161 161 161 187 187 187 187 187 207 207 207 207 207 46 46 46 46 46 144 144 144 144 144 141 141 141 141 141 134 134 134 134 134 134 134 99 99 99 149 149 150 150 100 100 100 100 100 100 100 100 100 100 
46 46 46 82 144 144 144 144 173 173 173 173 173 149 149 149 149 149 42 42 42 42 42 41 41 41 41 41 96 96 96 96 95 95 95 95 95 121 121 121 121 40 40 40 40 40 51 51 51 51 45 45 45 45 45 73 73 73 73 73 137 137 137 137 137 137 137 137 137 137 137 138 138 138 138 138 161 161 161 161 187 187 187 187 187 207 207 207 207 46 46 46 46 46 144 144 144 144 141 141 141 141 141 134 134 134 134 134 134 134 134 99 99 99 149 149 150 100 100 100 100 100 100 100 100 100 100 
46 46 46 63 144 144 144 144 173 173 173 173 173 149 149 149 149 149 42 42 42 42 41 41 41 41 96 96 96 96 96 95 95 95 95 121 121 121 121 40 40 40 40 40 51 51 51 51 45 45 45 45 73 73 73 73 73 137 137 137 137 137 137 137 137 137 137 137 137 137 137 137 137 137 138 138 138 138 161 161 161 161 161 187 187 187 187 207 207 207 207 46 46 46 46 46 144 144 144 144 141 141 141 141 134 134 134 134 134 134 134 134 99 99 149 149 150 100 100 100 100 100 100 100 100 100 100 
46 46 46 63 144 144 144 144 173 173 173 173 173 149 149 149 149 42 42 42 42 41 41 41 41 96 96 96 96 95 95 95 95 121 121 121 121 40 40 40 40 51 51 51 51 45 45 45 45 45 73 73 73 73 137 137 137 137 137 137 137 137 137 137 137 137 137 137 137 137 137 137 137 137 137 137 137 138 138 138 138 161 161 161 161 187 187 187 187 207 207 207 207 46 46 46 46 144 144 144 144 141 141 141 141 134 134 134 134 134 134 134 134 99 99 149 149 100 100 100 100 100 100 100 100 100 100 
46 46 46 63 144 144 144 144 173 173 173 173 149 149 149 149 42 42 42 42 41 41 41 41 96 96 96 96 95 95 95 121 121 121 121 40 40 40 40 51 51 51 51 45 45 45 45 73 73 73 73 137 137 137 137 137 137 137 137 137 137 137 137 137 137 137 137 137 137 137 137 137 137 137 137 137 137 137 137 137 138 138 138 161 161 161 161 187 187 187 187 207 207 207 207 46 46 46 46 144 144 144 144 141 141 141 141 134 134 134 134 134 134 134 99 99 149 100 100 100 100 100 100 100 100 100 100 
46 46 46 144 144 144 144 144 173 173 173 149 149 149 149 42 42 42 42 41 41 41 96 96 96 96 95 95 95 95 121 121 121 40 40 40 40 51 51 51 45 45 45 45 73 73 73 73 137 137 137 137 137 137 137 137 137 137 137 137 137 137 137 137 137 137 137 137 137 137 137 137 137 137 137 137 137 137 137 137 137 137 138 138 138 138 161 161 161 161 187 187 187 207 207 207 207 46 46 46 46 144 144 144 141 141 141 141 134 134 134 134 134 134 99 99 99 100 100 100 100 100 100 100 100 100 100 
46 46 46 144 144 144 144 173 173 173 173 149 149 149 42 42 42 42 41 41 41 96 96 96 95 95 95 95 121 121 121 40 40 40 40 51 51 51 45 45 45 73 73 73 73 137 137 137 137 137 137 137 137 137 137 137 137 137 137 137 137 137 137 137 137 137 137 137 137 137 137 137 137 137 137 137 137 137 137 137 137 137 137 137 137 138 138 138 138 161 161 161 187 187 187 207 207 207 207 46 46 46 144 144 144 144 141 141 141 134 134 134 134 134 134 99 99 100 100 100 100 100 100 100 100 100 100 
46 46 46 144 144 144 144 173 173 173 149 149 149 42 42 42 41 41 41 41 96 96 96 95 95 95 121 121 121 40 40 40 51 51 51 45 45 45 45 73 73 73 137 137 137 137 137 137 137 137 137 137 137 137 137 137 137 137 137 137 137 137 137 137 137 137 137 137 137 137 137 137 137 137 137 137 137 137 137 137 137 137 137 137 137 137 137 137 138 138 138 161 161 161 187 187 187 187 207 207 207 46 46 46 144 144 144 141 141 141 134 134 134 134 134 134 99 100 100 100 100 100 100 100 100 100 100 
46 46 46 144 144 144 173 173 173 149 149 149 42 42 42 41 41 41 96 96 96 95 95 95 121 121 121 40 40 40 51 51 51 45 45 45 73 73 73 137 137 137 137 137 137 137 137 137 137 137 137 137 137 137 137 137 137 137 137 137 137 137 137 137 137 137 137 137 137 137 137 137 137 137 137 137 137 137 137 137 137 137 137 137 137 137 137 137 137 137 137 138 138 138 161 161 161 187 187 187 207 207 207 46 46 46 144 144 144 141 141 141 134 134 134 134 134 100 100 100 100 100 100 100 100 100 100 
46 46 46 144 144 144 173 173 173 149 149 42 42 42 41 41 41 96 96 96 95 95 121 121 121 40 40 40 51 51 45 45 45 73 73 73 137 137 137 137 137 137 137 137 137 137 137 137 137 137 137 137 137 137 137 137 137 137 137 137 137 137 137 137 137 137 137 137 137 137 137 137 137 137 137 137 137 137 137 137 137 137 137 137 137 137 137 137 137 137 137 137 137 137 138 138 161 161 161 187 187 187 207 207 207 46 46 144 144 144 141 141 141 134 134 134 134 134 100 100 100 100 100 100 100 100 100 
46 46 46 144 144 144 173 173 149 149 149 42 42 41 41 41 96 96 95 95 95 121 121 40 40 40 51 51 45 45 45 73 73 137 137 137 137 137 137 137 137 137 137 137 137 137 137 137 137 137 137 137 137 137 137 137 137 137 137 137 137 137 137 137 137 137 137 137 137 137 137 137 137 137 137 137 137 137 137 137 137 137 137 137 137 137 137 137 137 137 137 137 137 137 137 137 100 138 138 161 161 100 187 187 207 207 100 46 46 144 144 100 141 141 134 134 134 100 100 100 100 100 100 100 100 100 100 
46 46 46 46 46 46 46 46 46 149 46 46 46 46 46 46 46 46 46 46 46 46 46 46 46 46 46 46 46 46 46 46 46 137 137 137 137 137 137 137 137 137 137 137 137 137 137 137 137 137 137 137 137 137 137 137 137 137 137 137 137 137 137 137 137 137 137 137 137 137 137 137 137 137 137 137 137 137 137 137 137 137 137 137 137 137 137 137 137 137 137 137 137 137 137 137 100 100 100 100 100 100 100 100 100 100 100 100 100 100 100 100 100 100 100 134 100 100 100 100 100 100 100 100 100 100 100 
46 46 46 46 46 46 46 46 46 46 46 46 46 46 46 46 46 46 46 46 46 46 46 46 46 46 46 46 46 46 46 46 46 46 137 137 137 137 137 137 137 137 137 137 137 137 137 137 137 137 137 137 137 137 137 137 137 137 137 137 137 137 137 137 137 137 137 137 137 137 137 137 137 137 137 137 137 137 137 137 137 137 137 137 137 137 137 137 137 137 137 137 137 137 137 137 100 100 100 100 100 100 100 100 100 100 100 100 100 100 100 100 100 100 100 100 100 100 100 100 100 100 100 100 100 100 100 
46 46 46 46 46 46 46 46 46 46 46 46 46 46 46 46 46 46 46 46 46 46 46 46 46 46 46 46 46 46 46 46 46 46 137 137 137 137 137 137 137 137 137 137 137 137 137 137 137 137 137 137 137 137 137 137 137 137 137 137 137 137 137 137 137 137 137 137 137 137 137 137 137 137 137 137 137 137 137 137 137 137 137 137 137 137 137 137 137 137 137 137 137 137 137 100 100 100 100 100 100 100 100 100 100 100 100 100 100 100 100 100 100 100 100 100 100 100 100 100 100 100 100 100 100 100 100 
46 46 46 46 46 46 46 46 46 46 46 46 46 46 46 46 46 46 46 46 46 46 46 46 46 46 46 46 46 46 46 46 46 46 137 137 137 137 137 137 137 137 137 137 137 137 137 137 137 137 137 137 137 137 137 137 137 137 137 137 137 137 137 137 137 137 137 137 137 137 137 137 137 137 137 137 137 137 137 137 137 137 137 137 137 137 137 137 137 137 137 137 137 137 137 100 100 100 100 100 100 100 100 100 100 100 100 100 100 100 100 100 100 100 100 100 100 100 100 100 100 100 100 100 100 100 100 
46 46 46 46 46 46 46 46 46 46 46 46 46 46 46 46 46 46 46 46 46 46 46 46 46 46 46 46 46 46 46 46 46 46 46 137 137 137 137 137 137 137 137 137 137 137 137 137 137 137 137 137 137 137 137 137 137 137 137 137 137 137 137 137 137 137 137 137 137 137 137 137 137 137 137 137 137 137 137 137 137 137 137 137 137 137 137 137 137 137 137 137 137 137 137 100 100 100 100 100 100 100 100 100 100 100 100 100 100 100 100 100 100 100 100 100 100 100 100 100 100 100 100 100 100 100 100 
46 46 46 46 46 46 46 46 46 46 46 46 46 46 46 46 46 46 46 46 46 46 46 46 46 46 46 46 46 46 46 46 46 46 46 137 137 137 137 137 137 137 137 137 137 137 137 137 137 137 137 137 137 137 137 137 137 137 137 137 137 137 137 137 137 137 137 137 137 137 137 137 137 137 137 137 137 137 137 137 137 137 137 137 137 137 137 137 137 137 137 137 137 137 100 100 100 100 100 100 100 100 100 100 100 100 100 100 100 100 100 100 100 100 100 100 100 100 100 100 100 100 100 100 100 100 100 
46 46 46 46 46 46 46 46 46 46 46 46 46 46 46 46 46 46 46 46 46 46 46 46 46 46 46 46 46 46 46 46 46 46 46 137 137 137 137 137 137 137 137 137 137 137 137 137 137 137 137 137 137 137 137 137 137 137 137 137 137 137 137 137 137 137 137 137 137 137 137 137 137 137 137 137 137 137 137 137 137 137 137 137 137 137 137 137 137 137 137 137 137 137 100 100 100 100 100 100 100 100 100 100 100 100 100 100 100 100 100 100 100 100 100 100 100 100 100 100 100 100 100 100 100 100 100 
46 46 46 46 46 46 46 46 46 46 46 46 46 46 46 46 46 46 46 46 46 46 46 46 46 46 46 46 46 46 46 46 46 46 46 46 137 137 137 137 137 137 137 137 137 137 137 137 137 137 137 137 137 137 137 137 137 137 137 137 137 137 137 137 137 137 137 137 137 137 137 137 137 137 137 137 137 137 137 137 137 137 137 137 137 137 137 137 137 137 137 137 137 137 100 100 100 100 100 100 100 100 100 100 100 100 100 100 100 100 100 100 100 100 100 100 100 100 100 100 100 100 100 100 100 100 100 
46 46 46 46 46 46 46 46 46 46 46 46 46 46 46 46 46 46 46 46 46 46 46 46 46 46 46 46 46 46 46 46 46 46 46 46 137 137 137 137 137 137 137 137 137 137 137 137 137 137 137 137 137 137 137 137 137 137 137 137 137 137 137 137 137 137 137 137 137 137 137 137 137 137 137 137 137 137 137 137 137 137 137 137 137 137 137 137 137 137 137 137 137 100 100 100 100 100 100 100 100 100 100 100 100 100 100 100 100 100 100 100 100 100 100 100 100 100 100 100 100 100 100 100 100 100 100 
46 46 46 46 46 46 46 46 46 46 46 46 46 46 46 46 46 46 46 46 46 46 46 46 46 46 46 46 46 46 46 46 46 46 46 46 137 137 137 137 137 137 137 137 137 137 137 137 137 137 137 137 137 137 137 137 137 137 137 137 137 137 137 137 137 137 137 137 137 137 137 137 137 137 137 137 137 137 137 137 137 137 137 137 137 137 137 137 137 137 137 137 137 100 100 100 100 100 100 100 100 100 100 100 100 100 100 100 100 100 100 100 100 100 100 100 100 100 100 100 100 100 100 100 100 100 100 
