P2
#CREATOR : MyProgram
128 128
255
162 162 163 163 164 164 165 165 166 166 167 167 168 168 148 128 107 87 103 104 106 107 108 109 111 112 113 114 116 117 118 120 121 122 123 125 126 127 128 130 131 132 133 135 136 136 136 135 135 135 135 135 135 134 134 134 134 134 134 133 133 133 133 133 133 132 132 132 132 132 132 131 131 131 127 123 119 116 112 108 104 120 137 153 153 153 153 153 154 154 154 154 154 154 154 154 155 155 155 155 155 171 188 204 220 164 107 108 108 109 109 110 110 111 112 112 113 113 114 115 115 116 116 117 117 118 145 171 
161 162 162 163 163 164 164 164 165 165 166 166 168 167 148 127 107 87 101 105 106 107 108 110 111 112 113 115 116 117 119 120 121 122 124 125 126 127 129 130 131 133 134 135 135 135 135 134 134 134 134 134 134 133 133 133 133 133 133 132 132 132 132 132 131 131 131 131 131 131 130 130 130 130 126 122 118 114 110 107 105 118 134 151 153 153 153 153 154 154 154 154 154 154 154 154 155 155 155 155 154 179 195 211 219 195 138 108 111 111 112 112 113 113 114 115 115 116 116 117 118 118 119 119 120 123 147 171 
161 161 161 162 162 163 163 164 164 165 166 168 166 167 147 127 107 87 100 103 106 107 109 110 111 113 114 115 116 118 119 120 121 123 124 125 127 128 129 130 132 133 134 134 134 134 134 133 133 133 133 133 132 132 132 132 132 132 131 131 131 131 131 131 130 130 130 130 130 130 129 129 130 128 125 121 117 113 109 107 105 116 132 149 153 153 153 153 154 154 154 154 154 154 154 154 155 155 155 155 153 151 202 210 217 210 170 115 109 112 114 115 115 116 116 117 118 118 119 119 120 121 121 122 124 127 88 49 
160 160 161 161 162 162 163 163 163 165 167 168 163 166 147 127 107 86 98 102 105 108 109 110 112 113 114 115 117 118 119 121 122 123 124 126 127 128 129 131 132 133 133 134 134 133 133 132 132 132 132 132 131 131 131 131 131 131 130 130 130 130 130 129 129 129 129 129 129 128 127 128 131 127 123 119 116 112 110 108 106 114 130 146 153 153 153 153 154 154 154 154 154 154 154 154 155 155 155 153 152 150 175 208 216 208 201 146 107 110 113 115 118 118 119 119 120 121 121 122 122 123 124 125 128 86 47 50 
159 159 160 160 161 161 162 163 165 167 169 164 163 166 146 127 106 86 97 100 103 107 109 111 112 113 115 116 117 118 120 121 122 123 125 126 127 128 130 131 132 132 133 133 133 132 132 132 131 131 131 130 130 130 130 130 130 129 129 129 129 129 129 128 128 128 128 128 127 126 126 129 130 126 122 118 114 112 110 109 107 111 128 144 152 153 153 153 154 154 154 154 154 154 154 154 155 155 154 152 151 149 147 181 214 210 207 177 122 108 111 113 116 119 121 122 122 123 124 124 125 125 126 129 85 46 48 50 
158 159 159 160 160 161 163 165 167 169 166 160 162 165 146 126 106 86 95 98 102 105 109 111 112 114 115 116 117 119 120 121 122 124 125 126 128 129 130 130 131 131 132 132 132 132 131 131 130 130 130 129 129 129 129 129 129 128 128 128 128 128 128 127 127 127 126 126 125 124 127 130 128 125 121 117 114 113 111 109 108 109 126 142 152 153 153 153 154 154 154 154 154 154 154 154 155 155 153 151 149 148 147 161 194 216 212 200 154 107 109 112 114 117 120 122 125 125 126 127 127 128 130 85 44 46 49 51 
158 158 158 159 161 163 165 167 169 167 162 159 162 165 145 126 106 86 93 97 100 103 107 110 113 114 115 116 118 119 120 122 123 124 125 127 128 129 129 130 130 131 131 132 131 131 130 130 130 129 129 129 128 128 128 128 127 127 127 127 127 127 126 126 126 125 125 124 123 125 128 131 127 123 119 117 115 113 112 110 108 107 123 140 151 152 153 153 154 154 154 154 154 154 154 154 155 154 152 150 148 148 148 147 174 211 218 214 176 130 108 110 113 115 118 121 123 126 128 129 130 131 86 43 45 47 49 51 
157 157 158 160 162 165 167 169 169 163 158 158 161 164 144 125 106 85 92 95 98 102 105 109 112 114 116 117 118 119 121 122 123 124 126 127 128 128 129 129 130 130 131 131 130 130 130 129 129 128 128 128 127 127 127 127 126 126 126 126 126 126 125 125 124 123 123 122 122 126 129 130 126 122 119 117 116 114 112 111 109 107 121 137 151 152 153 153 154 154 154 154 154 154 154 154 154 152 151 149 149 148 148 148 154 197 213 220 199 153 106 109 111 114 116 119 122 124 127 129 132 87 41 43 45 48 50 52 
156 158 160 162 164 166 169 171 165 160 155 158 160 163 144 124 105 85 90 93 97 100 104 107 110 114 116 117 118 120 121 122 123 125 126 127 127 128 128 129 129 130 130 130 130 129 129 128 128 128 127 127 127 126 126 125 125 125 125 125 125 124 123 123 122 122 121 120 124 127 130 128 125 121 120 118 116 115 113 111 110 108 119 135 151 152 152 153 154 154 154 154 154 154 154 154 153 151 150 149 149 149 148 148 148 172 209 215 222 180 138 109 112 114 117 120 122 125 127 130 88 42 43 44 46 48 50 53 
157 160 162 164 166 168 170 167 161 156 154 157 160 163 143 124 104 85 88 92 95 99 102 105 109 112 116 117 119 120 121 123 124 125 125 126 126 127 127 128 129 129 130 129 129 128 128 128 127 127 127 126 126 125 125 125 124 124 124 124 123 122 122 121 120 120 119 121 125 128 131 127 124 122 121 119 117 116 114 112 111 109 116 133 149 151 152 153 154 154 154 154 154 154 154 154 152 150 150 150 149 149 149 149 148 148 204 212 220 212 170 102 112 115 118 120 123 125 128 89 43 44 44 45 47 49 51 53 
159 161 164 166 168 170 169 163 157 152 154 156 159 162 143 123 104 84 88 91 94 97 100 104 107 111 114 117 119 120 122 123 124 124 125 125 126 126 127 127 128 128 129 128 128 128 127 127 126 126 126 125 125 125 124 124 123 123 122 122 121 120 120 119 119 118 119 122 126 129 130 126 125 123 121 120 118 116 115 113 111 110 114 131 147 151 152 153 153 154 154 154 154 154 154 153 151 151 150 150 150 149 149 149 147 146 179 210 218 215 203 148 105 116 118 121 123 126 88 44 45 45 46 46 47 49 52 54 
160 163 165 168 170 170 165 159 154 150 153 156 159 162 142 123 103 83 89 92 95 98 100 103 106 109 112 116 119 121 122 123 123 124 124 125 125 126 126 127 127 128 128 128 127 127 126 126 126 125 125 125 124 124 129 134 140 144 145 146 128 119 118 117 117 117 120 124 127 130 129 127 125 124 122 120 119 117 115 114 112 110 112 129 145 150 151 152 153 154 154 154 154 154 153 151 151 151 151 150 150 149 148 147 146 145 155 192 215 218 206 193 98 108 119 121 124 86 45 46 46 47 47 48 49 50 52 55 
162 164 167 169 172 166 161 155 150 149 152 155 158 161 141 122 102 82 90 92 95 98 101 104 107 110 112 115 118 121 122 122 123 123 124 124 125 125 126 126 127 127 127 127 126 126 126 125 125 125 130 135 141 146 151 157 162 165 166 167 168 170 151 133 115 118 121 125 128 131 129 128 126 124 123 121 119 118 116 114 113 111 109 126 143 150 151 152 153 153 154 154 154 154 152 152 152 151 151 150 149 147 146 145 144 143 142 173 197 221 212 203 151 126 124 122 84 46 47 47 48 48 49 50 50 51 53 55 
163 166 168 171 159 156 153 149 146 150 153 157 160 161 140 121 101 81 89 93 96 99 102 104 107 110 113 116 119 120 121 122 122 123 123 124 124 125 125 126 126 127 126 126 126 125 131 136 141 147 152 157 163 168 173 179 184 185 187 188 189 190 192 193 161 129 115 118 121 126 128 128 127 125 123 122 120 118 117 115 113 112 110 124 141 150 150 151 152 153 154 154 154 153 152 152 152 150 149 148 147 146 145 143 142 141 140 155 179 209 219 213 204 155 153 80 42 45 47 48 49 50 51 51 52 53 54 56 
165 167 170 171 146 143 140 136 146 153 156 160 162 162 139 120 100 80 88 93 96 99 102 105 108 111 114 116 118 120 121 121 122 123 123 124 124 124 125 125 126 126 129 132 136 139 142 145 149 152 155 158 162 165 168 171 174 175 177 178 179 181 187 193 193 194 152 111 117 121 125 125 125 125 124 122 121 119 117 116 114 112 111 121 138 149 150 151 152 153 154 154 153 153 152 151 150 149 148 146 145 144 143 142 141 139 138 137 167 196 219 218 213 185 124 39 41 44 46 47 49 50 51 52 54 54 55 56 
166 169 171 165 133 130 127 130 147 156 159 163 162 162 139 119 99 80 87 94 97 100 103 105 108 111 114 116 117 119 120 121 122 123 123 124 124 124 125 125 126 123 125 127 129 130 133 136 139 142 146 149 152 155 159 162 164 165 167 168 175 182 189 193 193 193 194 194 112 116 120 122 122 122 122 122 122 120 118 117 115 113 112 119 136 149 150 151 151 152 153 154 153 152 151 150 149 148 146 145 144 143 142 141 140 139 138 139 152 184 213 218 216 214 35 38 40 43 46 47 48 49 51 52 53 54 56 57 
168 170 169 156 120 117 114 130 147 159 162 163 163 162 140 118 98 79 86 93 97 100 103 106 109 112 114 115 117 118 119 120 121 122 123 124 124 124 125 125 123 120 122 123 125 127 129 131 133 135 137 139 143 146 149 152 154 156 162 169 176 183 190 193 193 193 194 195 197 142 115 120 119 119 119 119 119 119 118 117 116 114 112 117 134 148 149 150 151 152 152 148 153 152 151 150 148 147 146 145 144 143 142 141 140 139 140 142 146 167 201 218 216 126 36 37 39 42 45 46 48 49 50 51 53 54 54 48 
169 172 163 143 107 104 114 131 148 162 164 164 163 162 140 118 97 78 85 92 98 101 104 107 109 112 113 114 116 117 119 120 120 121 122 123 124 125 125 124 118 116 118 120 122 124 126 128 130 132 134 135 137 139 141 143 150 157 164 171 178 185 192 193 193 193 195 196 198 199 173 115 117 117 116 116 116 116 116 115 115 115 113 114 131 148 149 149 150 151 151 142 139 151 150 149 148 147 146 145 144 143 142 141 140 142 143 144 147 153 182 218 128 37 37 38 38 41 44 46 47 48 50 51 52 51 45 38 
171 168 158 130 94 97 114 131 148 165 164 164 163 163 140 118 96 77 84 91 99 101 104 107 109 111 112 114 115 117 118 119 120 121 122 122 123 124 125 119 114 113 115 117 119 121 123 125 127 128 130 133 136 139 142 146 152 158 165 172 179 186 192 193 193 194 196 197 199 200 202 203 114 114 114 113 113 113 113 113 113 112 112 112 130 149 148 148 149 150 150 136 118 144 150 149 148 147 146 145 144 143 142 142 143 144 145 146 149 155 160 104 47 39 39 39 40 40 43 45 47 48 49 50 48 42 35 29 
172 162 152 117 81 98 114 131 148 164 164 164 163 163 140 118 96 76 83 90 98 102 105 107 109 110 112 113 114 116 117 118 119 120 121 122 123 123 120 115 109 110 112 114 116 118 120 123 126 129 132 134 137 140 143 149 155 160 167 174 181 188 192 193 194 195 197 198 200 191 205 209 213 171 98 98 98 98 98 98 101 104 107 113 131 150 148 147 148 149 149 130 97 124 150 149 148 147 146 145 144 142 143 144 145 146 147 148 151 156 114 57 39 40 41 41 41 41 42 44 46 47 49 45 39 38 51 90 
158 148 129 94 83 96 114 130 147 164 164 163 163 163 141 118 96 75 82 89 97 102 105 107 108 109 111 112 114 115 116 118 118 119 120 121 122 127 115 110 105 108 111 113 116 119 122 125 127 130 133 136 139 141 145 151 158 164 169 175 182 189 192 193 195 196 198 179 203 207 211 215 219 223 227 83 86 90 93 97 100 101 98 113 132 150 149 148 147 147 148 124 91 103 129 149 148 147 146 144 143 144 145 146 147 148 149 151 152 129 68 40 41 42 43 43 43 43 43 43 46 47 42 48 60 72 85 151 
144 134 107 83 84 92 112 130 147 163 163 163 163 163 140 118 96 74 81 89 96 103 104 106 107 109 110 111 113 114 116 117 118 119 120 120 121 114 110 105 106 109 112 115 118 120 123 126 129 131 134 137 140 143 148 154 161 167 172 178 184 191 193 194 186 167 202 205 209 213 217 221 222 223 224 176 86 89 93 96 96 93 96 114 133 151 150 149 148 146 147 119 85 82 108 135 147 146 145 144 145 146 147 148 149 151 152 153 154 78 41 42 43 44 44 44 45 45 45 45 45 57 69 82 94 106 146 151 
130 120 84 85 86 87 107 127 146 163 162 162 162 162 140 118 96 75 83 90 97 102 104 105 106 108 109 111 112 114 115 116 117 118 119 120 129 109 104 105 107 110 113 116 119 122 124 127 130 133 136 138 141 144 150 157 163 170 176 181 187 192 174 155 190 204 208 212 214 215 216 217 218 219 220 221 130 89 92 90 87 84 97 115 133 152 151 149 148 147 146 113 79 61 87 114 140 146 145 146 147 148 149 150 151 152 153 154 98 41 42 43 44 45 46 46 46 47 47 47 51 69 86 104 122 140 152 151 
115 97 86 87 88 89 102 122 142 162 162 162 162 162 140 118 95 77 84 91 98 100 103 104 106 107 109 110 111 113 114 116 117 117 118 138 109 104 103 106 108 111 114 117 120 123 126 129 131 134 137 140 143 147 153 160 166 173 179 184 169 143 178 202 206 208 209 210 211 212 213 214 215 216 217 218 219 88 85 82 79 79 97 116 134 153 151 150 149 148 144 109 75 40 67 93 120 146 147 148 149 149 150 151 152 153 154 127 42 43 44 45 46 47 48 48 48 48 48 46 56 74 92 110 132 148 152 150 
101 86 87 88 89 90 98 118 139 162 162 162 161 161 139 117 93 78 85 92 96 99 102 104 105 106 108 109 111 112 113 115 116 117 118 131 104 102 104 107 109 111 115 118 121 124 127 130 133 135 138 141 144 150 156 163 169 176 182 145 173 200 201 202 203 204 206 207 208 209 210 211 212 213 214 216 217 215 141 73 70 80 98 116 135 153 152 151 150 150 141 107 72 43 49 88 127 138 144 148 149 150 151 152 153 154 155 72 44 45 46 47 48 49 50 50 50 50 50 44 62 80 98 123 143 153 152 150 
87 88 89 90 91 92 93 116 139 162 161 161 161 161 139 117 91 79 86 92 95 98 101 103 104 106 107 108 110 111 113 114 115 116 154 103 101 103 105 108 110 112 115 118 122 125 128 131 134 137 140 142 146 152 159 165 168 172 154 181 196 198 199 200 201 202 203 204 205 207 208 209 210 211 212 213 216 218 211 136 62 80 99 117 136 154 153 153 152 151 139 105 70 45 41 58 97 130 138 143 148 151 152 153 154 154 100 44 45 46 47 48 49 50 51 52 52 52 47 50 68 86 115 144 151 153 152 150 
87 89 90 91 92 93 94 116 139 162 161 161 161 161 138 115 88 80 88 91 94 97 99 102 103 105 106 108 109 111 112 113 115 134 133 99 102 104 106 108 111 113 116 119 122 126 129 132 135 138 141 144 149 155 153 147 163 163 190 193 195 196 196 198 199 200 201 202 203 204 205 207 208 209 210 211 214 217 220 206 132 85 103 122 127 150 155 154 153 153 137 102 73 48 40 42 66 109 131 136 141 146 151 153 154 127 45 46 47 48 49 50 51 52 53 54 54 52 41 56 73 107 146 145 153 153 152 150 
88 90 92 93 94 95 96 117 139 162 161 161 160 160 138 113 86 82 87 90 93 95 98 101 103 104 105 107 108 110 111 113 114 170 98 100 103 105 107 109 112 114 117 120 123 126 129 133 136 139 142 145 139 133 127 153 171 186 189 191 194 195 195 195 196 198 199 200 201 202 203 204 205 206 208 209 212 215 218 221 202 89 95 101 120 146 153 156 155 154 135 100 75 51 40 42 44 77 124 129 134 140 145 150 155 81 46 47 48 50 51 52 53 54 55 55 55 47 43 61 98 143 147 153 153 153 152 150 
88 91 93 94 95 96 97 118 139 162 161 161 160 160 137 110 83 83 86 89 91 94 97 100 102 103 105 106 108 109 110 111 166 158 99 101 104 106 108 110 113 115 118 121 124 127 130 133 137 140 139 131 118 106 143 180 183 185 188 190 193 193 193 193 194 195 196 197 199 200 201 202 203 204 205 208 210 213 216 219 222 198 74 87 120 142 149 157 156 156 132 103 78 54 39 41 43 45 120 195 193 191 189 187 118 59 46 48 49 50 52 53 54 55 56 57 53 42 49 90 134 149 148 154 153 153 152 149 
88 91 94 96 97 98 99 120 141 162 161 161 160 159 135 108 81 82 85 87 90 93 96 98 101 102 103 104 106 107 108 109 217 147 100 102 105 107 109 111 114 116 119 122 125 128 131 134 137 134 129 116 116 153 176 179 181 184 186 189 191 191 191 191 192 193 194 195 196 197 198 200 201 202 203 206 209 212 214 217 220 223 53 86 119 138 145 153 158 157 130 105 81 56 38 40 42 142 193 197 201 207 212 218 80 53 47 48 49 51 52 54 55 56 58 59 48 37 82 126 150 149 155 154 154 153 151 149 
89 91 94 97 98 99 100 121 142 163 163 162 160 159 132 105 78 81 84 87 90 93 96 99 101 101 101 102 104 105 106 107 206 136 102 104 106 108 110 112 115 117 120 123 126 129 132 132 128 125 114 125 162 172 175 177 180 183 185 188 189 189 189 189 189 191 192 193 194 195 196 197 198 199 201 204 207 210 213 216 218 217 157 86 119 134 141 149 156 159 133 108 84 59 38 40 165 192 195 199 202 207 213 219 211 46 47 48 50 51 52 53 54 56 57 57 50 64 118 152 151 150 155 154 154 153 151 149 
89 92 94 97 99 100 101 123 144 163 164 164 162 161 134 107 79 82 85 88 91 93 96 99 100 102 101 101 102 103 104 160 195 125 103 105 107 109 111 113 116 118 120 123 127 130 126 123 119 112 135 165 168 171 173 176 179 181 184 186 188 187 187 187 187 188 189 191 192 193 194 195 196 197 200 203 205 208 211 214 215 210 206 122 118 130 137 145 152 160 135 111 86 62 37 187 190 194 197 200 204 208 213 219 209 46 46 47 49 50 51 52 54 55 56 56 51 90 154 153 152 156 155 154 154 153 151 149 
90 92 94 97 100 102 103 124 144 164 165 166 164 163 136 109 79 82 85 88 91 94 97 98 100 102 102 101 101 101 102 213 170 114 104 106 108 110 112 114 117 119 121 124 124 121 117 114 110 144 161 164 167 169 172 175 178 180 183 185 186 186 186 185 185 186 187 188 189 190 192 193 194 195 198 201 204 207 209 211 209 204 200 195 118 127 137 146 155 158 132 92 52 101 200 192 189 196 199 202 206 209 214 220 206 47 47 47 48 49 50 51 53 54 55 54 53 128 155 154 153 156 155 154 154 153 151 148 
90 92 95 97 101 103 104 125 145 165 166 167 166 165 138 110 80 83 86 89 92 95 96 98 100 101 103 102 101 101 100 218 161 103 105 107 109 111 114 116 118 120 122 127 133 138 143 149 154 157 160 162 165 168 171 174 176 179 181 184 184 184 184 184 184 184 185 186 187 188 189 190 191 193 196 199 202 205 207 207 202 198 193 193 180 132 141 150 156 157 144 104 159 213 205 198 190 192 198 204 207 211 214 220 204 47 47 47 47 48 49 50 52 53 53 52 102 152 156 155 156 156 155 154 154 153 151 148 
90 93 95 98 101 104 106 126 146 165 166 167 168 167 140 110 81 84 87 90 93 94 96 98 99 101 103 103 102 101 122 208 151 111 104 106 108 111 113 115 117 119 123 128 133 139 144 149 152 156 158 161 164 167 170 172 175 178 180 182 182 182 182 182 182 182 182 184 185 186 187 188 189 192 195 197 200 202 203 200 196 191 191 192 181 165 146 153 154 155 156 171 187 202 210 203 196 188 194 200 206 213 216 221 201 47 47 47 47 47 48 50 51 52 51 88 150 153 156 155 157 156 155 154 154 153 150 148 
91 93 95 98 101 104 107 127 146 166 167 168 169 169 141 111 81 84 87 90 92 94 96 97 99 101 103 103 103 102 144 198 141 120 103 106 108 110 112 114 116 118 124 129 134 140 144 147 150 152 157 160 163 166 168 171 174 177 179 180 180 180 180 180 180 180 180 181 182 183 185 186 187 190 193 196 198 199 199 194 190 188 189 190 182 166 150 161 172 183 176 169 175 191 206 207 201 193 190 197 203 209 215 221 199 48 48 48 48 47 47 49 50 51 75 131 149 154 157 157 157 156 155 154 154 153 150 148 
91 93 96 98 101 104 107 128 147 166 168 169 170 171 141 112 82 85 88 90 92 94 95 97 99 100 102 104 104 100 163 188 149 128 107 105 107 109 111 113 115 119 124 130 135 139 142 145 147 150 153 159 161 164 167 170 173 175 178 179 179 178 178 178 178 178 178 179 180 181 182 183 185 188 191 194 195 195 192 188 185 186 187 189 183 167 169 189 209 202 195 189 182 179 195 210 204 198 191 193 199 205 212 219 119 48 48 48 48 48 48 48 49 61 111 142 148 153 158 157 157 156 155 155 154 152 150 148 
91 94 96 99 101 104 107 129 148 167 168 169 170 171 142 112 83 86 88 90 92 93 95 97 98 100 102 104 104 96 181 178 157 136 116 104 106 108 110 112 114 120 125 130 135 137 140 143 145 148 151 155 160 163 166 169 171 174 177 177 177 177 177 176 176 176 176 177 178 179 180 181 184 187 189 190 191 190 186 182 183 185 186 187 183 168 188 202 206 208 208 208 202 195 188 199 207 201 195 189 196 203 211 218 38 44 50 49 49 49 49 48 48 92 136 143 150 157 158 157 157 156 155 155 154 152 150 147 
92 94 97 99 101 104 107 130 150 164 168 169 170 171 142 113 83 86 88 89 91 93 95 96 98 100 102 103 105 91 198 187 166 145 124 103 105 107 109 111 115 121 126 130 132 135 138 140 143 146 148 151 156 162 165 167 170 173 175 175 175 175 175 175 175 174 174 174 175 177 178 179 182 185 186 187 187 184 180 181 182 183 184 185 184 186 195 199 202 206 208 208 208 208 208 201 203 204 198 180 198 204 210 216 38 41 47 51 51 51 50 50 73 117 142 149 157 159 158 157 157 156 155 155 154 152 150 147 
92 95 97 99 102 104 108 130 151 161 165 169 170 171 142 113 84 86 88 90 91 93 95 97 99 101 103 103 98 89 216 195 174 153 132 111 104 106 108 111 116 121 125 128 130 133 136 138 141 144 146 149 153 158 163 166 169 172 173 173 173 173 173 173 173 173 173 172 173 174 175 178 180 182 183 183 182 178 178 179 180 181 183 184 185 189 192 196 199 203 206 207 207 207 207 207 207 207 189 171 186 207 213 126 39 42 45 50 53 53 52 52 98 142 149 156 159 159 158 157 157 156 155 155 154 152 149 147 
93 95 97 100 102 105 108 130 153 157 162 166 170 171 142 114 86 87 89 91 93 95 96 98 100 102 100 96 91 87 217 200 183 162 141 120 103 106 108 111 117 120 123 125 128 131 133 136 139 141 144 147 149 154 160 165 168 170 172 171 171 171 171 171 171 171 171 171 171 172 173 176 178 178 179 180 176 175 176 177 179 180 182 186 186 187 189 192 196 199 203 207 206 206 206 206 206 188 180 162 166 202 216 36 39 42 45 48 53 54 54 67 123 148 155 158 160 159 158 158 157 156 155 155 154 151 149 147 
93 95 98 100 102 105 108 130 152 158 161 165 168 171 143 116 88 88 90 92 94 96 98 99 101 98 93 89 87 85 217 201 184 168 149 128 107 105 107 112 115 118 121 123 126 129 131 134 136 139 142 144 147 150 156 161 166 169 170 170 170 169 169 169 169 169 169 169 169 170 171 173 174 175 175 174 172 174 175 176 179 186 188 188 188 189 190 191 193 196 200 203 206 206 206 206 200 169 161 153 146 182 219 37 37 41 45 49 52 55 56 96 147 154 157 160 160 159 158 158 157 156 155 155 154 151 149 147 
93 96 98 100 103 105 108 130 151 160 163 167 170 171 146 118 90 84 91 93 95 97 99 100 95 91 89 87 85 83 218 201 185 168 152 135 116 104 108 110 113 116 118 121 124 126 129 132 134 137 140 142 145 148 152 157 163 168 168 168 168 168 168 167 167 167 167 167 167 167 169 170 171 171 172 170 171 172 176 183 190 189 189 189 189 190 191 192 194 195 196 200 203 205 205 205 181 151 142 134 126 189 129 37 38 39 43 47 50 54 58 124 154 156 159 161 160 159 158 158 157 156 156 155 153 151 149 146 
94 96 98 101 103 106 108 129 150 162 165 169 171 172 146 120 92 79 93 95 96 98 97 93 91 89 87 85 83 81 218 202 185 169 152 136 119 103 106 108 111 114 116 119 122 124 127 129 132 135 137 140 143 145 148 142 135 129 123 160 161 161 162 162 163 163 164 164 165 165 166 166 167 168 167 168 173 180 187 191 191 191 191 191 191 191 192 194 195 196 198 199 200 204 205 192 162 132 124 115 159 221 38 38 38 38 40 44 48 52 87 153 156 159 161 161 160 159 159 158 157 156 156 155 153 151 148 146 
94 96 99 101 104 106 107 128 149 164 167 170 171 172 146 120 95 74 88 96 98 95 93 91 89 87 85 83 81 79 219 202 186 169 153 138 122 103 107 110 112 115 117 120 123 125 128 131 133 136 139 141 144 147 139 127 114 102 89 77 152 146 140 134 129 123 117 111 116 122 114 82 50 164 171 177 184 190 192 192 192 192 192 192 192 192 193 195 196 197 199 200 201 203 204 174 143 113 105 142 192 133 41 40 39 39 39 42 46 50 116 154 158 161 162 161 160 159 159 158 157 156 156 155 153 151 148 146 
94 97 99 102 104 106 106 128 148 166 169 170 171 173 147 121 95 69 83 97 96 94 93 92 90 89 88 86 85 82 219 204 188 173 157 142 130 104 107 110 113 116 119 121 124 127 129 132 135 137 140 142 145 139 130 118 105 93 79 85 138 128 110 93 75 57 62 68 73 78 83 64 35 173 180 187 194 194 194 194 194 194 194 193 193 194 195 196 197 199 200 201 203 147 92 93 93 94 131 168 164 44 43 42 42 41 40 40 43 78 149 155 160 163 162 161 160 160 159 158 157 156 156 155 153 150 148 146 
95 97 100 102 104 107 105 128 148 168 169 171 172 173 147 121 95 69 82 96 98 99 98 96 95 94 92 91 90 84 172 207 192 176 161 150 138 104 107 111 114 117 120 123 125 128 130 133 136 138 141 144 138 132 121 109 95 81 66 93 123 107 105 87 69 79 53 51 50 48 47 45 193 181 188 192 192 193 195 195 195 195 195 195 195 195 196 197 198 200 201 146 109 98 110 129 152 152 167 195 40 40 40 40 41 41 41 41 41 111 150 156 162 163 162 161 160 160 159 158 157 156 156 155 153 150 148 145 
95 98 100 102 105 107 104 128 148 167 170 171 172 173 147 121 95 69 82 96 97 99 100 101 100 98 97 96 94 87 124 211 196 180 169 158 146 104 108 111 114 117 121 124 126 129 132 134 137 140 142 137 131 125 111 97 82 68 64 100 109 86 83 81 63 100 50 48 47 45 101 185 110 190 190 191 191 191 192 194 197 196 196 196 196 196 197 198 200 154 126 99 104 117 129 145 167 189 211 36 37 37 38 39 40 40 41 42 72 144 151 157 164 163 162 161 161 160 159 158 157 156 156 155 152 150 148 145 
96 98 100 103 105 107 103 128 148 165 170 171 172 174 147 121 95 69 81 95 97 98 100 101 103 103 101 100 99 90 77 215 200 188 177 166 145 105 108 111 115 118 121 124 128 130 133 136 138 141 135 129 109 99 88 84 70 56 72 108 94 64 62 59 57 122 47 45 72 132 166 164 193 188 188 189 189 190 190 190 192 195 198 198 198 198 198 171 143 116 96 110 123 136 147 160 182 204 38 38 38 39 40 41 41 42 43 43 102 145 152 158 162 163 162 161 161 160 159 158 157 157 156 154 152 150 147 145 
96 98 101 103 105 106 102 128 148 164 168 171 173 174 147 121 95 69 81 95 96 98 99 101 102 104 105 105 103 93 86 219 208 196 185 174 135 105 108 112 115 118 121 125 128 131 134 137 139 134 114 94 83 72 62 51 47 43 80 116 80 43 58 74 89 67 44 79 113 148 182 195 190 186 185 186 187 188 189 189 189 190 193 196 199 123 46 133 105 102 116 129 142 156 165 176 198 39 39 40 40 41 41 42 43 44 44 60 133 146 153 160 161 162 162 162 161 160 159 158 157 157 156 154 152 150 147 145 
96 99 101 103 106 105 101 128 148 163 167 172 173 174 148 121 95 69 81 94 96 97 99 100 102 103 105 106 108 102 95 156 213 204 193 182 124 106 109 112 115 119 122 125 128 132 135 138 118 98 78 72 65 59 52 70 43 53 89 98 89 52 80 95 62 125 80 109 139 168 198 193 188 183 182 183 184 185 186 186 187 188 189 192 144 46 71 95 108 122 135 148 161 175 183 191 41 41 41 41 42 42 43 44 44 45 46 91 141 147 154 158 159 160 162 162 161 160 159 158 157 157 156 154 152 149 147 145 
97 99 101 104 106 104 100 128 148 162 166 170 173 174 148 121 95 69 81 94 95 97 98 100 101 103 104 105 106 105 100 94 172 207 201 190 114 106 109 112 116 119 122 126 129 133 137 121 101 81 76 67 60 54 48 89 39 62 71 80 89 62 73 116 34 123 115 145 170 190 192 191 186 181 179 180 181 182 183 184 184 185 186 187 128 69 60 85 106 125 142 160 177 194 118 42 42 43 43 43 44 44 45 45 46 47 48 121 142 148 155 156 157 159 160 161 161 160 159 158 157 157 156 154 151 149 147 144 
97 99 102 104 107 103 99 126 148 160 165 169 173 175 148 122 95 69 81 93 95 96 98 99 100 101 102 103 104 105 102 97 92 205 202 198 103 107 110 114 117 121 124 128 132 135 122 104 85 65 74 71 55 49 67 108 35 44 53 62 71 71 66 99 110 121 142 162 183 184 185 187 184 179 176 177 178 179 180 181 182 182 188 191 151 92 50 74 96 118 138 155 173 59 49 44 44 44 45 45 45 46 46 47 48 48 79 137 143 149 153 155 156 157 158 159 161 160 159 158 157 157 156 154 151 149 147 144 
97 100 102 105 106 102 98 125 147 159 163 168 172 175 148 122 95 69 81 93 94 96 97 98 99 99 100 101 102 103 104 99 94 211 206 172 105 109 112 116 119 123 127 130 134 123 105 87 68 63 72 76 60 44 60 76 81 34 39 44 53 62 60 81 101 130 154 175 176 177 179 180 182 177 174 174 175 176 177 178 182 189 192 194 162 115 56 64 86 107 129 151 104 57 47 45 46 46 47 47 47 48 48 48 49 50 110 138 144 151 152 153 154 155 157 158 159 160 159 158 158 157 156 153 151 149 146 144 
98 100 103 105 105 101 96 124 147 158 162 166 171 175 149 122 96 69 81 92 93 94 95 96 97 97 98 99 100 101 102 101 96 217 210 151 107 111 114 118 122 125 129 132 125 106 88 69 51 61 70 80 71 62 53 44 127 80 33 38 43 48 53 82 110 139 167 168 170 171 172 174 175 174 171 172 172 173 177 183 190 193 195 198 172 126 79 53 75 97 129 160 101 54 46 47 47 48 48 49 49 49 50 50 51 66 133 139 145 149 150 151 153 154 155 156 157 159 159 158 158 157 156 153 151 148 146 144 
98 100 103 105 104 100 95 123 147 156 161 165 169 174 151 121 95 68 80 91 94 94 95 95 95 96 96 97 98 99 100 101 98 223 214 137 109 113 117 120 124 127 131 126 108 89 71 53 54 57 66 73 73 67 58 49 109 94 79 31 36 42 122 151 166 168 170 167 167 166 166 167 169 170 168 169 171 178 184 191 194 196 199 201 183 136 90 43 75 106 138 169 105 52 48 48 49 49 50 50 51 51 52 52 52 98 134 140 146 147 148 150 151 152 153 155 156 157 158 159 158 157 155 153 151 148 146 144 
98 101 103 106 103 99 94 122 147 155 159 164 171 172 156 126 97 67 81 90 94 96 96 97 97 98 98 98 99 99 99 100 100 182 219 123 111 115 118 122 126 129 127 109 91 56 55 64 57 53 62 66 66 67 63 54 91 114 62 46 30 163 165 167 169 171 173 167 167 167 166 166 166 165 165 172 179 185 192 195 197 200 202 205 193 147 100 56 44 72 125 178 114 49 49 50 50 51 51 52 52 53 53 54 54 129 136 143 148 148 149 149 150 150 152 153 154 155 157 158 158 157 155 153 150 148 146 143 
99 101 104 106 102 98 93 121 147 154 158 166 173 171 158 132 102 69 83 90 93 96 98 98 99 99 100 100 100 101 101 101 112 138 223 109 113 117 120 124 128 129 110 75 49 58 66 75 59 49 59 59 59 60 60 58 72 134 82 29 145 155 166 170 172 174 176 170 167 167 167 166 166 166 169 180 186 193 196 198 201 203 206 208 204 157 113 69 44 45 49 172 108 49 49 50 50 51 51 52 52 52 53 53 83 133 140 147 149 150 150 151 151 152 152 153 153 154 155 156 157 157 155 153 150 148 145 143 
99 102 104 105 101 96 92 120 147 153 160 168 175 169 156 137 105 70 85 89 92 95 98 100 101 101 101 102 102 102 103 103 124 120 176 116 118 121 124 127 130 95 60 51 60 68 77 85 62 45 51 52 52 53 53 54 54 154 37 111 153 155 158 168 174 176 178 173 168 167 167 167 167 168 172 183 194 197 199 202 204 207 209 212 214 170 126 82 48 42 84 167 105 49 49 50 50 50 51 51 52 52 53 53 113 137 144 151 151 152 152 152 153 153 154 154 155 155 156 156 157 157 155 152 150 148 145 143 
100 102 104 104 100 95 91 119 147 155 162 170 177 168 155 142 107 72 85 88 91 94 97 100 102 103 103 103 104 104 104 115 137 132 128 124 123 126 129 129 105 45 54 62 71 79 88 96 65 41 44 45 45 47 49 51 52 44 77 147 162 163 165 168 171 179 181 176 171 168 167 168 169 170 176 187 190 190 193 195 198 200 203 205 208 181 137 94 51 49 85 161 105 49 49 50 50 50 51 51 52 52 52 68 129 141 148 152 153 153 154 154 155 155 156 156 156 157 157 157 156 155 154 152 150 147 145 143 
100 102 105 103 99 94 90 118 143 157 164 172 179 167 156 139 109 74 84 87 90 94 97 100 103 104 105 105 105 106 106 127 149 144 95 131 129 132 128 121 79 56 43 52 60 69 77 72 55 37 39 42 44 46 48 51 49 43 113 169 170 171 173 176 178 181 184 179 173 168 169 170 171 172 180 185 185 186 187 189 192 194 197 199 202 190 147 95 54 54 53 136 105 49 49 50 50 50 51 51 51 52 52 97 133 145 151 154 155 155 155 156 156 157 157 158 158 157 156 155 154 154 153 152 150 147 145 142 
100 103 105 102 98 93 89 117 140 160 167 174 178 170 158 136 111 76 84 87 90 93 96 99 102 105 106 107 107 107 118 140 161 134 62 98 134 127 120 113 90 66 43 41 50 58 67 49 41 43 39 41 43 46 48 50 47 157 149 178 178 179 180 183 186 189 128 82 96 110 136 172 173 174 181 181 181 181 181 183 185 188 190 193 197 200 139 79 58 56 53 112 127 49 49 50 50 50 51 51 51 52 52 126 137 148 155 156 156 157 157 158 158 159 158 157 156 155 154 153 153 152 152 152 149 147 145 142 
101 103 105 101 97 92 88 113 136 159 170 177 177 172 157 132 107 77 83 86 89 92 95 98 101 104 107 108 109 109 130 152 173 95 67 99 116 104 97 91 84 77 54 41 39 48 43 46 59 50 40 42 43 45 47 50 103 91 185 186 187 188 189 191 193 119 103 116 111 89 67 103 140 176 176 176 177 177 177 177 179 182 184 187 180 152 133 62 59 56 53 50 170 49 49 49 49 49 50 50 50 50 75 132 141 152 157 157 158 158 159 158 158 157 156 155 154 153 153 152 151 150 150 150 149 147 144 142 
101 103 104 100 95 91 87 110 133 156 172 176 177 174 154 129 104 79 82 85 88 91 94 97 100 104 107 110 110 121 143 157 171 49 73 101 98 82 75 68 61 55 48 41 39 37 50 63 76 56 41 43 44 46 47 49 149 164 180 189 191 193 196 198 110 123 137 150 163 127 91 93 94 96 155 183 178 173 173 173 173 175 178 161 132 104 137 97 57 54 51 48 173 55 52 49 47 47 48 48 48 48 98 139 146 156 159 159 159 158 158 157 156 155 154 153 152 152 151 150 149 148 148 148 148 147 144 142 
101 104 103 99 94 90 84 107 130 152 175 175 176 176 152 128 104 80 83 82 81 85 89 93 97 100 104 108 112 126 140 154 168 182 142 102 81 59 60 60 61 62 62 43 60 58 44 54 94 63 42 44 45 47 45 118 156 163 175 190 192 195 197 85 80 83 87 100 113 77 74 114 115 107 116 135 194 189 184 179 174 169 141 113 84 56 75 93 92 52 49 46 177 61 58 55 52 49 47 46 46 46 121 145 153 160 159 158 157 157 156 155 154 153 152 152 151 150 149 148 147 147 146 146 146 146 144 142 
102 104 102 98 93 88 82 105 127 150 175 176 176 177 153 129 105 81 84 87 86 85 84 83 87 91 95 99 200 132 146 160 157 138 104 69 35 58 82 82 83 84 67 45 53 80 69 51 32 69 43 45 44 41 79 155 163 170 176 185 194 196 83 66 49 53 56 60 63 60 57 54 136 118 118 137 155 173 201 196 191 116 97 77 57 75 58 54 49 68 47 44 180 66 64 61 58 55 52 50 47 44 144 150 156 159 158 157 156 155 154 153 152 152 151 150 149 148 147 146 146 145 145 145 145 145 144 141 
102 105 101 97 92 86 79 102 125 149 175 177 177 177 153 129 105 81 85 88 92 91 89 88 87 86 85 198 168 137 134 131 129 94 60 47 38 60 81 104 105 97 63 47 43 87 95 76 36 40 44 40 37 33 155 162 170 177 185 190 195 80 76 72 69 64 62 66 174 144 115 85 137 129 120 138 157 175 194 212 80 62 44 104 163 95 65 60 56 51 47 42 183 72 69 67 64 61 55 50 45 75 145 151 157 158 157 156 155 154 152 151 151 150 149 148 147 146 146 145 144 143 143 143 143 143 143 141 
103 104 100 96 89 83 77 99 122 149 175 177 178 178 154 130 106 82 85 89 92 96 95 94 93 82 71 183 153 159 106 103 85 61 60 59 41 63 84 106 127 93 58 49 45 65 120 58 39 41 41 38 35 71 163 168 176 183 191 199 93 94 92 91 88 84 79 72 188 170 146 116 138 130 122 141 160 179 198 191 99 83 65 109 152 114 71 67 62 58 51 43 176 78 72 67 61 55 49 46 45 105 145 153 157 157 156 155 154 153 152 151 149 148 147 146 145 145 144 143 142 141 141 141 141 141 141 141 
103 103 99 93 87 80 74 97 122 149 175 178 178 179 155 131 107 83 86 90 93 97 100 89 79 68 57 168 156 182 207 75 74 72 71 54 45 66 87 109 118 111 54 51 47 44 42 39 39 38 38 36 52 109 172 176 180 188 196 106 108 108 106 105 103 102 100 151 201 183 165 147 140 133 126 145 164 183 202 171 117 103 85 114 140 118 78 73 67 60 52 44 168 104 77 61 55 49 47 46 76 136 146 154 156 156 155 154 154 152 151 150 149 147 146 145 144 143 142 141 140 140 139 139 139 139 152 165 
103 102 97 90 84 78 72 96 122 149 176 178 179 180 156 132 108 84 87 90 94 102 111 37 82 127 140 153 116 78 41 68 85 84 82 50 48 69 91 100 109 125 95 91 49 43 42 40 38 37 35 34 90 146 180 184 189 193 93 114 122 122 120 119 117 115 113 123 174 179 161 150 144 137 130 138 169 188 207 150 136 121 106 119 129 107 84 76 68 61 53 45 156 129 103 76 49 48 47 46 74 101 129 156 155 155 154 153 153 152 151 149 148 147 145 144 143 142 140 139 139 138 138 138 150 163 175 188 
104 100 94 88 82 75 69 96 122 149 176 178 180 180 156 132 108 84 88 93 103 113 123 91 136 111 106 117 96 58 54 67 87 95 78 45 51 72 82 91 100 114 135 54 48 42 41 40 38 37 35 76 130 184 189 193 198 80 101 122 137 136 134 132 130 129 127 137 147 174 160 154 148 141 134 128 166 192 211 169 154 140 125 124 118 101 89 76 70 62 54 46 156 129 103 76 48 49 48 61 89 116 144 156 155 154 153 152 152 151 150 149 147 146 145 144 142 141 140 139 137 136 151 167 182 189 189 189 
104 98 91 85 79 73 66 96 122 149 176 178 180 181 157 133 109 85 95 105 115 124 134 144 120 95 71 81 76 55 68 81 93 106 73 41 54 64 73 82 92 103 59 53 47 41 40 40 38 37 36 118 172 184 194 203 78 96 115 133 151 149 147 146 144 142 140 150 160 170 164 157 151 145 139 132 155 193 216 187 173 158 144 129 118 106 95 72 69 63 55 48 156 129 103 69 47 49 48 76 104 131 153 156 154 153 152 151 150 150 149 148 147 145 144 143 142 140 139 138 141 166 191 191 191 191 191 191 
101 95 89 83 76 70 64 97 123 149 176 178 180 182 158 134 109 82 91 101 111 121 131 137 102 125 147 102 56 68 81 93 105 100 68 36 45 55 64 73 83 92 171 52 46 39 39 39 38 37 91 159 171 183 195 76 91 106 122 137 149 155 161 159 157 155 153 163 173 168 163 158 154 148 142 136 144 182 220 201 182 163 144 132 123 111 100 68 65 61 57 49 156 129 95 61 46 50 49 91 119 146 157 155 154 153 152 150 149 149 148 147 146 145 144 142 141 140 139 146 171 187 192 192 192 192 192 192 
98 95 86 80 74 67 61 98 124 149 176 178 181 182 158 132 105 78 88 98 108 119 132 129 95 60 64 69 61 80 92 105 117 94 62 40 39 45 55 64 73 65 130 126 44 38 38 38 37 37 147 163 178 194 143 77 92 107 123 138 147 153 159 165 170 169 167 177 171 166 161 156 152 147 142 138 133 176 218 197 178 159 145 136 127 117 105 64 61 57 54 50 156 122 88 54 45 49 49 106 134 150 156 155 154 153 152 150 149 148 147 146 145 144 143 142 140 139 151 173 183 192 193 193 193 193 193 193 
96 97 84 77 71 65 59 99 125 150 176 178 181 183 156 129 102 75 85 94 106 120 133 122 87 77 81 74 66 59 104 117 120 88 51 44 43 42 45 54 55 38 88 138 81 37 37 37 36 95 158 162 185 209 64 78 93 108 123 139 145 151 157 163 168 174 180 175 169 164 159 154 149 145 140 135 133 174 217 194 173 157 148 139 130 121 111 60 57 53 56 48 134 130 81 47 44 48 50 121 143 154 156 155 154 153 151 150 149 148 146 145 145 144 142 141 140 156 169 179 189 193 194 195 195 195 194 194 
93 94 86 75 69 62 56 98 126 151 175 178 180 182 156 126 98 71 81 94 107 120 134 115 96 94 87 79 72 64 100 128 114 77 48 47 47 46 46 45 58 71 84 116 147 36 35 34 33 152 168 167 176 50 65 79 94 109 124 138 144 149 155 161 167 172 177 173 167 162 157 152 147 142 138 133 133 167 215 192 169 160 151 143 134 125 116 56 59 63 66 45 111 137 104 40 43 47 50 136 147 157 156 155 154 152 151 150 149 147 146 145 144 143 142 140 155 165 175 185 192 193 195 196 196 196 196 196 
90 91 88 75 66 60 53 96 127 152 175 177 179 180 160 129 99 68 81 95 108 121 134 116 68 99 92 84 77 69 62 140 103 67 52 51 51 48 46 50 69 89 110 130 141 151 33 32 95 163 179 186 167 50 66 80 95 110 125 136 142 147 153 159 165 170 175 170 165 160 155 150 145 140 136 132 133 160 205 209 174 157 149 140 131 122 101 55 66 73 76 43 89 115 141 34 37 53 80 140 150 157 156 155 153 152 151 150 148 147 146 145 143 142 141 151 161 171 181 191 193 194 196 197 197 197 197 197 
87 89 90 77 63 57 51 93 128 153 174 176 178 179 164 133 102 80 81 94 108 121 135 42 93 104 97 90 78 66 70 85 117 56 54 52 50 48 46 55 72 93 113 146 40 135 82 29 157 173 190 206 33 50 66 81 96 111 126 134 140 146 151 157 163 168 172 167 163 158 153 148 143 138 133 131 132 154 195 226 178 154 146 137 128 119 85 54 65 75 86 40 86 132 113 28 55 82 109 144 154 157 156 154 153 152 151 150 148 146 145 143 142 140 144 157 167 177 187 193 194 195 196 198 198 198 198 198 
84 86 87 79 65 54 48 90 129 152 173 176 176 177 167 137 106 91 92 94 107 121 119 56 117 105 93 82 70 63 79 94 109 94 53 51 49 47 45 60 76 96 129 162 80 87 34 63 125 179 195 85 44 52 66 83 97 112 126 132 138 144 149 155 161 166 169 165 160 155 151 146 140 136 131 131 132 147 185 219 183 151 143 134 126 117 70 53 64 71 71 55 91 169 106 43 61 100 139 149 158 156 155 153 152 150 149 147 146 144 143 141 140 138 147 163 173 184 193 194 195 196 197 198 200 200 199 199 
82 83 84 81 68 54 46 88 130 151 173 174 175 176 171 141 110 103 104 105 106 120 103 70 106 97 86 74 62 72 87 102 117 132 51 51 48 46 50 64 79 96 112 111 74 38 67 97 126 184 137 46 54 62 70 82 98 113 125 130 136 142 147 153 159 165 167 162 157 153 148 144 138 133 130 131 132 140 176 212 182 148 140 131 123 114 56 52 56 55 55 55 65 143 121 58 56 95 142 152 157 156 154 152 150 148 147 145 144 142 141 139 138 136 151 169 180 190 194 195 196 197 198 199 200 201 201 201 
79 80 82 83 70 56 43 75 108 140 172 173 174 174 175 144 113 114 115 117 118 119 92 65 95 108 78 66 65 80 95 109 123 94 49 48 48 46 55 55 40 62 79 60 42 43 109 129 159 189 49 57 65 73 81 89 99 114 123 128 134 140 145 151 157 163 164 159 155 150 145 141 136 131 130 131 132 133 169 204 175 145 138 130 123 89 41 41 40 40 40 39 39 117 130 72 50 89 146 155 155 155 155 152 150 148 145 143 142 140 139 137 136 134 154 176 186 194 195 196 197 198 199 200 201 202 202 202 
76 77 79 80 72 58 53 85 117 149 171 174 174 175 173 143 112 105 106 108 109 119 87 60 90 119 89 58 72 86 101 115 100 71 75 44 44 45 46 47 105 164 45 46 46 47 169 180 190 52 60 68 76 84 91 99 107 115 121 126 132 138 144 149 155 161 161 157 152 147 143 138 134 129 116 102 89 125 161 197 178 159 140 132 111 62 46 46 46 46 45 45 41 91 136 84 45 116 149 153 154 154 154 153 151 148 146 144 141 139 137 135 134 132 157 182 192 194 196 197 198 199 200 201 202 203 203 203 
73 75 76 77 74 61 62 95 127 154 170 175 175 176 170 141 111 96 97 99 109 119 85 55 85 64 43 116 95 92 106 106 94 97 101 70 38 167 53 74 95 46 88 94 101 109 147 157 100 52 58 66 74 81 89 97 105 114 119 124 130 136 142 147 153 159 159 154 149 145 140 136 131 135 143 130 129 165 201 190 178 163 149 134 84 45 51 52 52 52 51 48 42 101 142 91 39 143 151 152 152 152 153 153 152 149 147 144 142 140 137 135 132 130 160 188 194 195 196 198 199 200 201 202 203 204 205 204 
70 72 73 75 76 63 72 104 133 157 169 176 176 177 168 139 110 87 88 99 109 119 85 50 81 111 142 44 67 89 112 116 120 123 127 96 78 130 53 52 47 109 130 134 142 105 124 147 54 53 56 64 71 79 87 95 104 113 118 123 128 134 140 145 151 157 156 151 147 142 137 133 127 141 170 157 168 204 193 183 172 159 144 105 55 49 56 58 58 57 56 50 44 86 153 88 78 146 150 150 151 151 151 152 152 150 148 145 143 141 138 136 133 133 164 194 195 196 197 198 200 201 202 203 204 205 206 206 
67 69 70 72 73 65 82 111 136 160 169 175 177 178 166 136 107 78 88 99 109 119 85 53 53 63 94 82 64 87 91 85 108 130 153 135 117 92 54 52 51 171 173 175 83 139 195 55 54 53 54 61 69 77 85 94 102 111 118 122 127 132 138 143 149 155 153 149 144 139 134 129 123 147 176 184 208 197 186 175 165 154 140 76 48 54 60 64 63 63 58 51 45 72 163 86 117 148 148 149 149 150 150 150 151 151 149 146 144 141 139 137 134 136 167 196 197 197 198 199 201 202 203 204 205 206 207 207 
65 66 68 69 70 67 90 115 139 162 168 174 178 179 163 134 105 75 94 102 111 119 81 56 56 56 56 76 62 75 69 64 58 90 122 140 157 55 67 79 91 124 185 163 95 76 57 56 55 54 53 59 67 75 83 92 101 110 117 121 126 131 136 141 147 153 150 146 141 136 131 125 125 153 182 211 200 190 179 168 157 147 136 47 53 59 65 69 69 65 59 53 47 57 168 106 137 150 148 147 148 148 148 149 149 150 149 147 145 142 140 137 134 140 170 198 199 199 200 201 201 203 204 205 206 207 208 208 
62 63 65 66 68 69 93 118 142 161 167 173 179 180 161 132 115 73 102 110 118 113 78 59 59 59 59 59 59 72 85 85 72 59 91 109 89 72 107 119 131 164 196 151 106 123 55 55 55 54 53 57 65 73 82 91 100 109 116 121 125 130 135 139 145 151 148 143 138 132 127 121 131 159 180 183 177 166 156 145 134 135 91 50 57 64 70 75 73 67 61 54 48 42 173 125 142 151 149 148 147 147 147 147 148 148 148 148 145 143 141 138 132 143 175 200 201 201 202 203 203 204 205 206 207 208 209 209 
59 60 62 63 65 71 97 121 146 160 166 172 178 181 159 138 129 70 110 118 126 107 75 62 62 62 62 57 68 126 113 100 86 73 60 82 63 89 119 159 171 204 95 142 188 52 53 53 54 54 54 55 63 72 81 90 99 108 115 120 125 129 134 138 143 149 145 140 134 129 123 118 137 149 152 155 154 143 133 134 135 136 46 53 60 67 74 81 75 69 63 57 51 44 164 131 148 153 150 148 148 147 147 146 146 147 147 147 146 144 141 139 130 146 181 202 203 204 204 205 205 206 207 207 208 209 210 211 
56 58 59 61 62 73 98 124 149 159 165 171 178 182 160 152 126 67 107 126 127 101 71 65 65 60 55 66 78 140 104 91 78 65 80 55 80 106 131 171 211 124 117 83 50 50 51 51 52 52 53 53 62 71 80 89 97 106 115 119 124 129 133 138 142 147 142 136 131 125 120 114 117 121 124 128 131 132 133 134 135 91 49 56 63 67 71 75 78 72 66 60 54 47 156 137 154 154 152 150 148 148 147 147 146 146 145 146 146 145 142 138 129 150 187 204 205 206 206 207 208 208 209 209 210 211 211 212 
53 55 56 57 58 74 100 126 152 158 164 171 177 183 174 166 124 65 104 133 121 94 68 63 58 53 64 76 87 155 107 83 69 85 100 115 119 123 126 121 153 119 138 105 51 52 52 52 53 53 53 53 56 63 73 83 93 104 114 118 122 126 130 135 139 143 146 140 135 129 124 120 121 124 127 131 134 130 132 134 136 45 49 53 57 61 66 70 81 75 69 63 56 49 147 143 158 156 153 151 149 148 148 147 147 146 146 145 145 145 143 136 127 156 194 206 207 208 208 209 210 210 211 212 212 212 211 207 
51 52 53 54 55 76 102 125 149 159 166 172 178 182 181 180 121 62 102 141 114 87 61 149 51 62 74 85 96 169 122 74 86 97 109 118 117 118 122 214 94 167 160 52 52 53 53 53 53 53 53 53 54 58 62 72 83 93 104 114 118 122 126 130 134 140 146 144 139 133 128 126 127 127 131 134 138 135 130 132 87 45 45 48 52 56 60 64 85 79 72 65 59 52 138 148 159 157 155 153 150 149 148 148 147 147 146 146 145 145 144 135 125 162 200 208 209 210 210 211 212 212 212 211 211 211 209 202 
48 49 50 51 52 75 99 122 146 161 167 173 179 180 180 172 120 61 98 137 103 78 53 108 54 52 63 74 88 122 115 84 91 102 114 121 120 118 117 172 140 215 52 53 53 53 53 53 53 53 53 53 53 57 61 65 72 82 93 105 114 118 122 126 130 136 142 149 143 138 132 133 133 134 134 137 141 140 134 129 45 45 46 46 46 50 54 58 88 82 75 68 61 54 130 154 161 159 156 154 152 150 149 148 148 147 147 146 146 145 140 132 123 169 206 211 211 212 212 212 211 211 211 210 210 210 204 197 
45 46 47 49 50 72 96 119 143 162 168 174 180 179 178 164 118 59 94 133 91 66 57 66 57 48 53 65 80 94 108 94 97 107 119 124 123 121 109 174 186 53 53 53 53 53 53 53 53 53 53 53 54 55 59 63 67 71 83 94 106 114 118 122 126 132 139 145 147 142 138 139 139 140 140 141 144 145 139 45 45 45 46 46 46 46 49 53 91 84 77 70 63 57 121 160 162 160 158 156 153 151 149 149 148 148 147 147 146 143 136 130 120 166 212 212 211 211 211 211 210 210 210 209 209 206 199 193 
47 44 45 46 48 70 93 116 140 163 169 175 178 178 177 157 117 58 91 129 78 53 62 64 59 51 42 57 72 86 101 104 107 112 124 127 126 114 102 218 95 52 53 53 53 53 53 53 53 53 53 53 54 54 58 62 66 69 64 84 95 107 113 118 123 129 135 141 147 146 144 145 145 146 146 147 147 149 100 48 46 46 46 46 47 47 47 47 94 87 80 73 66 59 113 166 164 162 159 157 155 153 151 149 149 148 148 147 146 139 132 126 118 164 211 211 211 210 210 210 209 209 209 209 207 201 194 188 
48 45 43 44 46 68 91 113 136 160 170 177 177 176 176 149 109 56 89 125 66 57 60 62 61 52 45 62 89 104 75 96 118 121 129 130 118 106 94 137 53 51 53 53 53 53 53 53 53 53 53 54 54 54 56 60 64 67 69 57 77 96 108 113 119 125 131 138 144 150 151 151 152 152 153 153 154 154 91 51 47 47 47 47 48 48 48 53 97 90 83 76 68 60 121 161 157 159 161 159 156 154 152 150 149 149 148 148 142 135 128 122 115 175 210 210 210 209 209 209 208 208 208 208 203 196 189 183 
50 46 43 42 43 66 88 111 133 157 172 176 176 175 174 141 101 55 88 121 53 55 58 60 63 54 47 43 83 122 49 70 92 113 134 122 110 98 86 55 52 49 53 53 53 53 53 53 53 53 54 54 54 54 55 59 63 66 68 66 50 70 89 109 116 122 129 136 142 149 154 157 158 158 159 159 160 145 82 53 48 48 48 48 49 48 48 60 99 92 85 77 69 62 130 155 151 147 145 152 158 156 154 151 150 149 149 144 138 131 125 119 126 186 209 209 209 208 208 208 208 207 207 204 198 191 185 178 
52 48 45 41 41 64 86 109 131 154 173 175 174 174 173 133 93 53 111 106 49 53 56 58 61 56 50 46 63 128 72 66 105 126 100 121 142 163 78 102 51 48 51 53 53 53 53 53 53 53 54 54 54 54 54 57 61 64 66 68 59 43 87 116 115 122 128 135 142 148 153 157 162 164 165 165 166 135 73 56 51 49 49 49 49 49 49 66 102 94 86 78 71 63 139 150 146 142 138 134 138 144 151 153 151 150 147 141 134 128 122 116 137 197 209 208 208 208 207 207 207 206 206 174 143 111 80 48 
53 50 46 43 39 62 84 107 129 152 174 174 175 175 176 142 92 126 159 102 45 48 52 56 59 57 52 48 44 133 95 57 82 139 66 113 139 144 70 148 98 47 50 53 53 53 53 53 53 54 54 54 54 54 54 56 60 62 64 66 68 80 108 122 122 121 127 134 141 147 152 156 161 165 170 171 172 126 64 59 54 50 50 50 50 49 49 73 107 89 83 77 70 64 148 144 140 136 132 128 124 125 131 137 144 150 144 138 132 126 119 113 147 208 207 207 206 206 205 205 204 204 168 123 91 59 49 54 
55 53 51 49 46 48 70 93 115 138 168 172 176 178 178 162 142 153 107 98 40 44 48 52 55 59 53 48 42 99 110 76 42 76 109 115 120 126 131 58 171 110 49 52 53 53 53 53 53 54 54 54 54 54 54 55 58 60 62 64 72 101 130 129 128 127 127 133 140 147 151 156 160 165 169 174 178 184 190 196 124 51 51 50 50 50 50 79 113 83 76 70 67 64 147 146 141 136 131 126 121 116 111 116 122 127 132 131 129 123 117 111 158 208 205 204 204 203 202 202 201 174 129 84 39 50 62 60 
92 75 58 56 54 55 56 79 101 144 161 165 169 173 177 181 119 56 55 164 36 40 44 49 53 51 69 46 40 66 120 87 120 100 102 106 109 113 118 85 142 129 112 51 53 53 53 53 54 54 54 54 54 54 55 55 57 59 60 61 76 105 127 130 134 134 133 132 139 146 150 155 159 164 168 172 177 182 188 194 198 202 130 69 63 56 50 84 118 76 73 70 67 64 145 147 143 138 133 128 123 119 116 112 108 104 109 114 113 111 110 108 158 208 205 202 201 200 200 199 181 136 91 45 53 63 75 67 
128 111 95 78 61 62 64 65 108 151 156 162 167 173 178 166 115 117 183 45 40 38 42 46 47 43 104 80 56 32 131 111 92 88 95 101 104 106 109 111 112 104 87 70 53 53 53 54 54 54 54 54 54 55 55 55 55 56 57 58 80 106 125 128 131 134 137 139 138 145 149 154 158 163 167 171 176 181 187 193 197 201 204 208 93 70 48 82 102 71 73 70 67 64 144 146 146 141 136 131 127 123 120 117 113 109 104 100 96 90 84 78 158 208 205 202 200 197 197 187 142 79 52 59 66 76 81 73 
128 141 124 107 83 60 61 62 105 148 159 164 170 175 180 150 111 123 134 42 42 39 40 42 39 35 138 82 49 40 103 83 74 81 87 94 99 101 104 116 83 80 63 66 66 49 49 49 49 50 50 50 50 50 51 53 59 64 59 55 81 107 122 125 128 131 135 138 141 144 148 153 157 161 166 170 174 179 185 191 195 199 203 207 210 128 45 66 87 67 70 70 67 64 143 144 146 143 138 135 131 128 125 121 118 114 110 105 101 95 89 97 149 208 205 202 200 197 194 131 68 58 65 73 80 88 87 79 
129 141 153 129 104 74 58 60 103 145 162 167 172 177 174 135 165 74 85 39 39 38 38 67 97 126 75 66 57 47 74 60 67 73 80 87 94 96 99 120 115 55 79 103 80 45 45 45 45 45 45 46 48 50 51 53 63 77 73 51 82 109 119 123 126 129 132 136 142 143 147 152 156 160 165 169 173 178 183 189 194 198 201 205 209 213 130 50 71 62 65 68 67 64 142 143 145 146 143 139 136 133 129 126 122 119 115 111 106 100 94 116 162 208 205 203 200 197 149 57 64 72 79 86 94 101 93 85 
129 118 145 150 126 97 64 57 99 142 165 170 174 180 158 189 219 128 36 37 38 39 38 44 59 88 77 69 62 54 46 53 59 66 73 80 86 91 103 125 147 53 116 139 93 40 40 41 41 43 44 46 48 49 51 53 68 86 86 47 81 110 117 120 124 129 134 139 142 143 146 150 155 159 163 168 172 176 181 187 193 196 200 204 208 211 215 133 55 58 60 63 66 64 140 142 144 145 144 142 140 137 134 130 127 124 120 116 112 106 113 134 174 208 205 203 200 197 105 64 68 71 75 82 90 97 99 92 
83 91 137 156 147 121 87 54 96 139 169 173 178 182 177 171 166 102 37 38 39 39 39 38 50 65 79 68 56 45 45 58 62 67 72 77 81 86 105 124 143 106 91 176 106 36 38 39 41 42 44 46 47 49 51 54 72 90 99 42 77 111 116 121 126 132 137 141 142 142 145 149 154 158 162 167 171 175 180 186 191 195 199 202 206 210 214 218 138 53 56 59 61 64 139 142 143 144 144 142 139 138 137 135 131 128 125 121 117 111 132 153 187 209 206 203 200 152 80 72 75 78 81 84 87 93 101 98 
37 83 129 161 153 144 96 49 93 136 172 176 178 177 165 167 214 103 39 40 39 39 39 39 42 56 98 55 44 44 45 52 69 74 79 83 88 82 111 127 143 159 43 61 79 39 38 39 41 42 44 45 47 49 50 58 76 94 112 38 76 114 119 124 129 134 140 140 141 141 144 148 153 157 161 165 170 174 178 184 190 193 197 201 205 209 212 216 220 49 49 49 49 101 139 141 142 143 144 142 139 137 135 134 133 132 129 126 122 129 151 172 199 209 206 203 200 127 76 79 82 86 89 92 95 98 101 104 
37 74 121 167 158 148 91 43 87 131 175 174 173 172 171 149 106 73 40 40 40 39 39 39 39 48 116 43 43 44 44 47 64 81 86 90 95 77 120 136 152 158 63 115 133 43 44 40 40 42 44 45 47 48 50 62 80 98 111 43 79 117 122 127 132 137 139 140 140 141 143 148 152 156 160 164 169 173 177 182 188 192 196 200 203 207 211 215 218 134 43 39 35 137 138 140 141 142 144 142 140 137 135 132 130 130 129 128 127 148 170 191 212 210 207 205 175 102 84 87 90 93 96 99 102 103 103 101 
37 64 111 158 162 152 95 38 86 135 176 173 170 167 165 164 132 177 43 44 43 42 41 41 40 39 127 40 42 43 44 44 59 76 92 97 91 73 85 144 156 158 82 81 186 46 49 46 42 42 43 45 47 48 50 66 84 110 109 49 81 119 124 130 135 138 139 139 140 140 142 147 151 155 159 163 167 172 176 180 186 191 194 198 202 206 210 213 215 218 77 38 33 138 137 139 140 142 143 143 140 138 135 133 130 128 126 125 161 182 203 208 213 212 210 194 150 88 91 94 97 100 102 102 102 102 102 99 
37 54 101 148 166 156 97 37 94 143 176 173 170 167 164 161 158 113 46 46 47 47 46 45 45 82 138 37 39 42 43 44 53 70 87 104 86 69 51 153 155 157 102 47 135 109 52 51 48 44 43 45 46 48 52 70 94 117 108 54 84 122 127 132 137 137 138 138 139 139 142 146 150 154 158 162 166 171 175 179 185 189 193 197 201 204 207 210 213 216 147 36 31 140 139 138 139 141 142 143 140 138 135 133 130 128 125 123 194 199 205 210 213 213 212 169 125 96 99 101 101 101 101 101 101 101 101 96 
37 43 91 139 171 144 96 36 98 151 177 174 171 168 165 162 159 48 49 49 50 51 51 50 68 102 112 52 42 41 41 43 48 65 77 85 85 67 82 150 152 126 171 116 144 172 86 57 53 50 46 44 46 48 57 78 108 120 107 59 88 125 130 135 136 137 137 138 138 139 141 145 149 153 157 161 165 169 174 178 183 188 191 195 199 202 205 208 211 213 216 32 32 141 140 139 138 140 141 143 141 138 136 133 131 128 126 134 198 201 206 211 214 213 196 148 100 100 100 100 100 100 100 100 100 100 100 93 
37 38 81 128 176 133 89 35 97 159 177 174 171 168 165 162 159 50 51 52 52 53 54 55 65 76 86 68 49 48 46 45 43 51 59 67 75 66 112 148 121 95 104 184 112 39 51 62 59 55 52 48 46 47 63 92 118 123 105 64 93 128 133 135 136 136 137 137 137 138 140 144 148 152 156 160 164 168 173 177 181 186 190 194 197 200 203 205 209 213 213 27 32 142 141 140 139 139 140 142 141 138 136 134 131 129 126 145 201 204 208 213 214 209 180 132 99 98 99 99 99 99 99 99 99 99 99 91 
36 38 70 118 173 139 87 34 101 143 176 174 172 169 166 163 160 52 53 53 54 55 55 55 59 69 79 72 54 49 48 47 45 61 62 63 63 64 143 117 91 64 38 86 120 140 128 115 104 92 81 70 58 47 76 105 121 127 104 70 99 130 134 135 135 135 136 136 137 137 139 143 147 151 155 159 163 167 172 176 180 185 189 192 195 198 201 205 209 212 209 115 42 144 143 141 140 139 139 141 141 139 136 134 131 129 127 156 205 207 210 214 213 203 164 116 98 96 97 98 98 98 98 98 98 98 97 88 
36 38 60 108 170 155 102 42 109 136 174 173 171 170 167 164 161 54 54 55 56 56 53 54 55 62 72 77 58 50 49 49 47 46 79 80 81 96 123 131 128 126 96 67 37 50 63 80 98 86 75 64 52 61 90 119 125 130 103 75 104 133 133 134 134 135 135 136 136 137 138 142 146 150 154 158 162 167 171 175 179 183 187 190 194 198 202 206 210 209 206 203 51 145 144 143 142 141 139 140 141 139 137 134 132 129 127 168 208 211 213 216 206 196 148 108 96 93 94 95 96 97 97 96 96 96 96 85 
36 38 49 105 167 152 118 50 97 135 173 171 170 168 167 164 161 55 56 57 56 53 53 54 55 56 66 76 63 52 51 50 49 48 64 97 49 76 103 120 118 102 132 115 51 116 57 57 63 81 69 58 47 75 101 119 117 123 85 77 106 133 136 135 134 134 135 135 135 136 137 141 145 149 153 157 161 166 170 174 178 182 186 190 194 198 202 206 208 205 202 199 97 141 128 137 143 142 141 140 140 139 137 134 132 133 134 129 169 172 188 217 207 177 133 107 95 91 92 93 94 95 95 95 95 95 95 82 
36 38 39 102 164 149 134 58 96 134 171 170 168 167 165 164 162 57 58 56 54 51 52 53 55 56 59 69 68 53 52 51 50 49 48 63 77 54 65 110 94 77 108 138 169 51 51 51 51 52 63 52 61 83 101 119 114 115 68 78 130 134 137 138 137 136 135 134 135 135 136 140 144 148 152 156 160 164 168 172 175 179 185 191 195 199 203 207 205 202 199 196 143 137 103 112 121 130 139 141 140 140 137 137 140 143 141 136 130 160 189 219 198 158 117 106 94 88 89 90 91 92 93 94 94 94 94 80 
36 38 49 102 165 156 141 62 94 132 170 168 167 165 164 162 144 59 56 54 51 51 52 53 54 55 56 62 73 54 53 52 51 50 43 91 105 82 58 35 150 53 86 119 104 44 45 45 45 45 46 46 64 83 101 119 114 108 51 103 130 134 138 141 141 140 139 138 137 136 135 139 143 146 150 154 158 161 165 169 173 176 182 188 195 199 203 204 201 198 195 192 189 133 77 86 95 104 113 122 131 140 143 146 149 152 148 137 141 167 194 220 177 135 107 104 93 86 87 88 89 90 91 92 93 93 93 77 
36 48 60 102 165 163 148 67 99 131 168 167 165 164 162 161 126 64 54 52 49 50 51 53 54 55 56 57 66 59 54 53 52 48 37 85 133 114 96 77 58 52 67 101 38 39 40 42 43 44 45 57 70 83 101 119 114 73 72 127 131 134 138 141 145 144 142 141 140 138 137 137 140 143 147 151 155 158 162 166 170 173 179 185 191 198 204 204 204 204 204 204 204 105 81 79 71 75 84 93 102 111 123 136 148 161 143 125 150 175 201 196 152 110 96 97 92 83 84 85 86 87 88 89 90 91 92 74 
48 58 70 102 166 163 154 71 103 135 167 166 164 163 161 160 108 69 52 49 49 50 51 52 53 54 56 57 59 63 55 54 54 43 32 66 100 133 115 96 78 62 46 44 42 40 41 42 43 45 50 69 81 94 106 119 78 37 101 128 132 135 139 141 143 145 144 143 142 140 139 137 139 141 144 148 152 156 159 163 167 171 176 182 188 195 200 206 205 207 211 214 218 77 84 88 81 73 65 63 72 81 94 107 114 143 169 152 156 181 207 172 127 85 86 87 88 81 82 83 84 85 86 89 92 95 89 72 
60 70 80 102 166 164 161 75 105 134 167 165 163 161 160 158 113 74 50 47 48 49 51 52 53 54 55 56 58 62 57 56 48 41 42 47 71 100 134 115 98 76 48 47 46 44 42 43 44 45 63 80 93 105 111 94 53 74 126 129 133 136 138 139 141 143 144 145 143 142 141 139 138 140 143 145 149 153 156 160 164 168 173 179 185 191 196 202 207 206 205 206 210 141 88 95 90 82 75 67 60 52 60 67 75 124 195 179 162 187 198 149 102 74 75 76 77 78 81 83 86 89 92 94 97 96 85 69 
72 82 92 102 167 167 168 106 101 133 167 165 163 161 159 157 118 79 47 47 48 49 50 51 52 54 55 56 57 58 58 54 51 51 52 53 63 86 110 134 106 77 49 48 47 46 45 43 44 54 76 92 104 102 86 69 57 111 127 130 133 134 136 138 139 141 143 144 145 144 143 141 140 140 142 145 147 150 154 157 161 165 169 176 182 187 193 198 203 209 208 207 206 205 80 98 100 92 84 77 71 65 59 47 35 116 197 197 189 193 174 125 77 64 65 70 79 78 86 89 92 94 97 100 103 93 82 66 
84 99 113 128 168 171 174 136 98 133 167 165 163 162 161 160 121 83 45 46 47 49 50 51 52 53 54 56 57 58 59 60 61 61 62 63 64 78 102 136 107 79 51 50 49 48 47 46 45 67 89 103 94 77 61 44 89 124 127 129 131 132 134 136 137 139 141 142 144 146 145 143 142 140 142 144 147 149 151 154 158 162 166 173 178 184 189 194 200 205 210 209 208 208 73 91 109 103 97 91 85 79 73 67 55 117 198 198 199 199 150 101 52 61 71 80 89 78 86 94 97 100 102 105 101 90 78 64 
79 91 117 142 168 174 172 137 99 133 167 166 165 164 163 162 124 78 44 48 49 50 52 53 54 55 56 57 59 60 69 58 63 67 72 73 74 74 93 137 109 80 52 51 50 49 48 45 51 76 102 82 61 41 68 95 122 124 125 127 129 130 132 134 135 137 139 140 142 144 145 145 144 142 141 143 146 148 151 153 156 159 163 169 174 180 185 190 196 201 207 212 211 210 104 88 102 111 105 100 95 90 84 79 74 128 200 200 184 139 90 66 69 72 81 90 94 78 80 100 102 105 108 109 97 86 75 61 
73 77 98 123 159 179 170 138 100 134 166 169 168 167 166 165 111 57 43 47 51 52 54 55 56 57 58 59 61 64 78 53 58 62 67 71 76 80 85 139 110 82 54 53 52 48 44 40 56 63 50 38 62 85 109 122 123 124 125 126 127 128 130 132 133 135 137 138 140 142 143 145 146 144 143 143 145 148 150 153 155 158 160 165 171 176 181 187 192 197 203 208 213 213 134 84 95 106 112 107 102 97 91 86 83 113 201 168 127 78 81 83 86 89 91 101 94 78 73 93 108 110 113 105 94 83 72 58 
68 71 79 105 150 184 168 138 101 135 165 170 171 170 169 152 90 47 42 46 50 53 56 57 58 59 60 61 63 73 88 103 52 57 61 66 71 75 80 104 110 82 55 51 47 44 40 36 44 52 59 73 96 120 122 123 124 124 125 126 127 128 129 130 131 133 135 136 138 140 141 143 145 146 145 143 145 147 150 152 154 157 161 164 168 173 178 183 189 194 199 204 210 215 208 103 89 99 110 114 109 104 98 93 92 94 153 116 92 95 98 100 103 106 108 111 94 78 67 87 107 116 113 102 91 79 68 55 
62 66 69 86 140 190 166 136 102 134 165 169 174 173 172 140 70 46 41 45 49 52 56 59 60 61 62 63 68 83 98 112 47 52 56 61 65 70 75 80 108 80 59 55 51 47 48 53 64 81 89 107 120 122 122 123 124 125 126 127 128 129 130 131 132 133 134 135 136 138 139 141 143 144 146 145 144 146 149 151 154 157 161 165 169 173 177 180 185 191 196 201 207 212 211 122 86 94 103 114 116 110 105 100 101 103 104 104 104 104 103 103 103 103 103 103 91 76 61 81 101 121 110 98 87 76 65 53 
57 60 64 67 131 195 164 134 103 133 164 168 173 175 174 127 49 45 40 44 48 51 55 59 62 63 64 65 78 93 107 122 97 46 51 56 60 65 70 75 89 78 63 59 55 60 65 71 76 92 118 120 121 122 123 124 125 126 127 128 129 130 131 132 132 133 134 135 136 137 138 139 141 143 144 146 146 146 148 151 154 158 162 165 169 173 177 181 185 189 193 198 203 209 214 142 82 91 99 108 118 117 112 109 110 110 107 103 100 96 95 95 95 94 94 94 86 71 83 103 123 113 103 92 82 71 61 50 
51 55 58 61 132 196 190 159 102 133 163 167 172 176 177 115 79 44 39 43 47 50 54 58 62 65 66 73 88 102 117 131 146 41 46 51 55 60 65 70 74 76 66 67 72 78 83 88 93 98 120 121 122 123 124 125 126 127 128 129 130 130 131 132 133 134 135 136 137 138 139 140 141 142 143 144 146 146 148 150 154 158 162 166 170 174 178 181 185 189 193 197 201 206 211 177 79 87 96 104 113 122 119 118 116 113 109 106 102 99 95 92 88 86 86 86 82 80 104 124 114 104 94 84 74 64 53 75 
46 49 52 55 126 197 191 185 100 131 162 167 171 176 180 145 109 74 38 42 46 49 53 57 61 64 68 68 69 69 70 70 70 71 71 72 72 72 73 73 74 74 79 84 90 95 100 105 111 116 121 122 123 124 125 126 127 128 128 129 130 131 132 133 134 135 136 137 138 139 140 141 141 142 143 144 145 146 147 151 155 159 163 166 170 174 178 182 186 190 194 197 201 205 209 213 75 84 92 101 109 118 126 123 119 116 112 109 105 102 98 95 91 88 84 81 77 102 126 116 106 96 86 76 66 56 78 100 
