P2
#CREATOR : MyProgram
128 128
255
157 158 158 159 160 160 161 162 163 163 164 165 165 166 145 125 104 83 100 101 103 104 106 107 108 110 111 112 114 115 117 118 119 121 122 124 125 126 128 129 130 132 133 135 136 136 136 135 135 135 135 135 134 134 134 134 134 133 133 133 133 132 132 132 132 132 131 131 131 131 131 130 130 130 127 123 120 116 113 109 106 122 138 154 154 154 154 154 154 154 154 154 154 154 154 154 154 154 154 154 154 173 193 212 231 173 114 115 115 116 116 117 117 118 118 119 119 120 120 121 121 122 122 123 123 124 145 166 
157 156 156 157 157 158 159 159 160 161 161 162 167 165 144 124 103 84 99 102 103 104 106 107 109 110 111 113 114 116 117 118 120 121 122 124 125 127 128 129 131 132 134 135 135 135 135 135 134 134 134 134 134 133 133 133 133 132 132 132 132 132 131 131 131 131 131 130 130 130 130 130 129 130 128 124 121 118 114 111 107 119 135 149 155 155 155 155 155 155 155 155 155 155 155 155 155 155 155 155 154 181 200 219 228 191 101 114 116 117 117 118 118 119 119 120 120 121 122 122 123 123 124 124 125 125 146 166 
157 156 155 155 155 156 156 157 158 158 159 168 166 164 144 123 102 85 98 101 103 105 106 108 109 110 112 113 114 116 117 119 120 121 123 124 126 127 128 130 131 132 134 134 135 134 134 134 134 133 133 133 133 132 132 132 132 132 131 131 131 131 131 130 130 130 130 130 129 129 129 129 129 129 128 126 122 119 115 112 107 117 133 145 154 156 156 156 156 156 156 156 156 156 156 156 156 156 155 155 154 154 207 216 225 215 152 109 114 116 119 119 120 120 121 121 122 122 123 123 124 124 125 125 126 126 87 47 
156 156 155 155 154 153 154 154 155 160 168 167 165 163 143 122 103 85 98 100 103 105 106 108 109 111 112 113 115 116 118 119 120 122 123 124 126 127 129 130 131 132 133 134 134 134 133 133 133 132 132 132 132 132 131 131 131 131 131 130 130 130 130 130 129 129 129 129 129 128 128 128 130 129 128 127 124 120 117 113 108 114 130 140 149 157 157 157 157 157 157 157 157 157 157 157 156 156 155 155 154 154 180 213 222 212 202 127 111 113 116 118 121 121 122 122 123 123 124 125 125 126 126 127 127 86 47 47 
156 155 155 154 154 153 153 152 161 169 167 166 164 163 142 122 104 86 97 99 102 105 107 108 110 111 112 114 115 116 118 119 121 122 123 125 126 128 129 130 131 132 133 133 133 133 133 132 132 132 131 131 131 131 131 130 130 130 130 130 129 129 129 129 129 128 128 128 128 128 127 129 129 128 128 127 125 121 118 115 108 112 127 135 144 153 158 158 158 158 158 158 158 158 158 157 156 156 155 155 154 154 153 186 219 214 210 178 103 111 113 116 118 121 123 124 124 125 125 126 126 127 127 128 86 47 47 48 
156 155 155 154 153 153 154 157 166 167 166 165 163 162 141 123 105 87 96 99 101 104 106 108 110 111 113 114 115 117 118 120 121 122 124 125 126 128 129 130 131 131 132 133 133 132 132 132 131 131 131 130 130 130 130 130 129 129 129 129 129 128 128 128 128 128 127 127 127 127 128 129 129 128 127 126 126 123 119 115 109 109 122 131 140 148 157 158 158 158 158 158 158 158 158 157 156 156 155 155 154 153 152 165 198 222 217 204 154 108 110 113 115 118 120 123 125 126 126 127 128 128 128 86 46 47 47 48 
156 155 154 154 154 156 158 163 167 166 165 164 162 161 141 123 106 88 95 98 100 103 106 108 110 112 113 114 116 117 119 120 121 123 124 125 127 128 129 129 130 131 132 132 132 132 131 131 131 130 130 130 129 129 129 129 129 128 128 128 128 127 127 127 127 127 126 126 126 127 128 129 128 128 127 126 125 124 120 116 110 107 117 126 135 144 153 159 159 159 159 159 159 158 158 157 156 155 154 153 152 152 151 151 177 215 225 220 179 129 108 110 113 115 118 120 123 125 128 128 129 129 87 46 47 47 48 48 
155 155 155 156 158 160 161 166 165 164 163 162 161 160 142 124 106 88 94 97 100 102 105 107 110 112 113 115 116 117 119 120 122 123 124 126 127 127 128 129 130 130 131 131 131 131 131 130 130 130 129 129 129 128 128 128 128 127 127 127 127 127 126 126 126 126 126 125 126 127 128 129 128 127 126 126 125 124 122 116 110 104 113 122 130 139 148 157 160 160 160 159 159 158 157 156 155 154 153 152 152 151 151 150 157 199 218 228 205 155 105 108 110 113 115 118 120 123 125 128 130 88 46 47 47 48 48 49 
155 157 158 160 162 163 165 164 163 162 161 160 159 161 143 125 107 89 93 96 99 101 104 107 109 112 114 115 116 118 119 121 122 123 125 125 126 127 128 128 129 130 131 131 131 130 130 130 129 129 129 128 128 128 127 127 127 127 126 126 126 126 126 125 125 125 125 125 126 127 128 128 127 127 126 125 124 124 123 117 111 105 113 121 129 137 145 153 161 160 159 158 157 156 155 154 153 152 152 151 151 150 150 150 149 173 211 221 231 185 139 108 111 113 116 118 121 123 126 128 88 46 46 47 47 48 48 49 
156 159 160 162 164 165 164 161 160 159 158 157 159 162 144 126 108 90 93 95 98 100 103 106 108 111 114 115 117 118 119 121 122 123 124 125 126 126 127 128 129 129 130 130 130 130 129 129 129 128 128 128 127 127 127 126 126 126 126 125 125 125 125 125 124 124 124 125 126 127 129 128 127 126 126 125 124 123 122 119 113 107 114 122 130 138 146 154 159 159 158 157 156 155 154 153 152 151 151 150 150 150 149 149 148 148 204 216 228 219 173 98 112 114 117 119 122 124 127 88 46 46 47 47 48 48 49 49 
158 160 162 164 165 167 163 159 158 157 156 157 160 163 145 127 108 88 92 94 97 100 102 105 108 110 113 115 117 118 120 121 122 123 124 124 125 126 127 127 128 129 130 129 129 129 129 128 128 128 127 127 127 126 126 126 125 125 125 125 124 124 124 124 124 123 124 125 126 128 128 127 127 126 125 124 123 122 121 120 114 108 113 122 130 138 147 155 157 157 156 156 155 154 153 152 151 150 150 150 149 149 148 148 147 146 179 212 224 223 208 147 101 115 118 120 123 125 87 46 46 47 47 48 48 48 49 49 
159 161 163 166 167 166 161 157 155 154 154 158 161 164 146 127 107 87 92 93 96 99 101 104 107 109 112 115 117 119 120 121 122 122 123 124 125 125 126 127 128 128 129 129 129 128 128 128 127 127 127 126 126 126 125 130 138 144 145 147 131 123 123 123 123 123 124 125 127 128 128 127 126 125 124 123 122 120 120 119 116 110 110 123 131 139 147 155 156 156 155 154 153 152 151 150 150 150 149 149 148 148 147 146 145 144 154 193 221 226 211 196 90 104 119 121 124 86 46 46 47 47 48 48 48 49 49 50 
161 163 165 167 169 165 160 156 153 152 155 159 162 165 145 125 105 85 93 93 95 97 100 103 105 108 111 114 116 119 120 120 121 122 123 123 124 125 126 126 127 128 128 128 128 128 127 127 127 126 126 126 127 135 143 151 158 162 164 165 167 168 153 137 122 123 124 126 127 128 127 126 125 124 123 121 120 119 118 118 117 111 107 124 132 140 148 154 154 154 154 153 152 151 150 150 149 149 149 148 147 146 145 144 143 142 141 174 202 229 220 211 154 110 116 122 84 46 46 47 47 48 48 48 49 49 50 50 
162 164 166 168 158 151 151 150 150 154 157 161 164 165 143 123 103 83 91 94 94 96 99 102 104 107 110 112 115 118 120 121 121 122 122 123 124 124 125 126 127 127 128 127 127 127 127 126 126 126 132 140 148 155 163 171 179 181 182 184 185 187 188 190 161 132 119 120 121 125 125 125 123 122 121 120 119 118 117 117 116 113 107 121 133 141 149 152 152 152 152 152 151 150 149 149 148 147 146 146 145 144 143 142 141 140 139 155 183 215 225 221 217 124 107 83 45 46 47 47 48 48 48 49 49 49 50 50 
164 166 168 169 148 134 134 133 149 156 160 163 165 165 142 122 102 82 90 95 95 95 98 100 103 106 109 111 114 118 120 121 122 122 123 123 124 125 125 126 126 127 127 127 127 126 126 129 137 145 153 156 159 163 166 169 172 174 175 177 178 180 186 190 191 193 153 114 121 123 123 121 122 121 120 119 118 117 116 115 115 114 108 119 134 142 150 150 150 150 151 150 149 149 148 147 146 145 144 144 143 142 141 140 139 138 137 136 169 201 226 222 219 172 74 43 45 46 47 47 48 48 49 49 49 50 50 51 
165 167 169 166 137 117 116 127 148 159 162 166 165 164 141 120 100 80 88 96 96 96 97 99 102 105 107 110 113 117 120 121 122 123 123 124 124 125 126 126 127 167 153 140 126 129 133 136 139 143 146 149 153 156 159 163 165 167 168 170 176 181 187 190 191 193 194 195 120 120 121 114 118 120 119 118 117 116 115 114 114 113 110 116 133 142 148 148 148 149 149 149 148 147 147 146 145 144 143 143 142 141 140 139 139 138 137 138 152 187 220 223 220 219 42 43 44 46 47 47 48 48 49 49 50 50 51 51 
167 169 169 160 126 99 104 126 147 161 165 165 165 164 141 118 98 78 86 94 97 97 97 98 101 104 106 109 113 116 120 121 122 122 123 124 125 126 126 127 154 129 115 121 125 127 129 132 134 137 140 143 146 150 153 156 158 160 166 171 177 182 188 190 191 193 194 195 197 147 118 119 110 115 118 117 115 115 114 113 112 112 111 113 130 143 146 146 147 147 148 144 148 147 147 146 145 144 143 143 142 141 140 139 139 138 139 140 144 167 206 223 222 132 43 43 44 45 47 47 48 48 49 49 50 50 51 45 
168 170 166 149 115 82 103 125 146 164 166 165 164 164 141 117 97 77 85 93 98 98 98 98 100 102 105 108 112 115 119 121 121 122 123 124 125 126 127 140 104 110 117 121 123 125 128 130 133 135 138 140 143 145 148 150 156 161 167 172 178 183 189 190 191 193 194 196 197 199 175 116 109 107 112 115 114 113 113 112 111 111 110 111 127 144 145 146 147 148 149 140 135 148 147 146 145 144 144 143 142 141 140 140 139 140 141 142 145 150 183 224 134 44 44 44 44 45 46 47 48 48 49 49 50 50 52 39 
170 169 164 138 99 86 106 126 146 166 165 165 164 164 140 117 95 75 83 91 99 99 99 99 99 101 104 108 111 115 118 120 121 122 123 124 125 126 127 116 106 112 117 119 122 124 126 129 131 134 136 139 141 143 146 150 156 162 168 173 179 184 189 190 191 193 194 196 197 199 200 202 114 99 104 108 113 112 112 111 110 109 109 108 127 145 145 146 147 148 149 135 116 141 147 146 145 144 144 143 142 141 140 140 141 142 143 144 147 152 157 105 53 45 45 45 45 45 46 47 48 48 49 49 50 52 50 33 
171 166 161 116 71 90 109 128 147 166 165 165 164 163 140 117 94 73 81 89 97 100 100 100 100 100 104 107 111 114 118 120 121 122 123 124 125 126 123 118 107 113 115 118 120 122 125 127 130 132 134 137 139 142 144 151 157 163 169 174 180 185 189 190 192 193 195 196 198 193 204 207 210 168 98 103 107 107 106 105 104 104 103 109 128 147 146 146 147 148 149 130 96 122 147 146 145 145 144 143 142 141 142 142 143 144 145 146 148 153 114 61 45 46 46 46 46 46 46 47 48 48 49 50 51 53 44 91 
158 153 135 90 75 89 109 128 147 166 165 164 164 163 140 117 93 72 80 88 96 101 101 101 101 100 103 106 110 113 117 120 121 122 123 124 125 122 118 114 109 111 114 116 119 121 123 126 128 130 133 135 138 140 145 151 158 164 169 175 181 186 189 190 192 193 195 183 202 205 209 212 215 218 221 97 100 101 100 100 99 98 96 111 129 148 148 148 148 149 149 125 91 102 127 146 145 145 144 143 142 143 144 144 145 146 147 148 150 127 70 45 46 47 47 47 47 47 47 47 48 48 50 51 53 54 101 148 
145 140 108 78 78 85 107 127 146 165 165 164 164 163 140 117 93 70 78 86 94 102 102 101 101 101 103 106 109 113 116 120 121 122 123 124 121 118 114 109 110 113 115 116 117 119 122 124 127 129 131 134 136 139 145 152 158 164 170 176 182 187 189 191 186 174 201 204 207 210 213 216 217 218 219 178 94 95 95 94 93 91 95 112 130 149 149 149 149 149 150 121 87 82 108 133 146 145 144 143 144 145 146 146 147 148 149 150 151 79 44 45 46 47 48 48 48 48 48 48 48 56 65 73 82 90 137 150 
132 127 82 82 82 82 103 125 146 165 165 164 164 163 140 117 94 72 80 88 96 101 102 101 101 101 104 107 109 112 115 119 121 122 123 120 118 114 109 110 111 113 116 119 120 121 123 124 125 127 130 132 135 139 145 152 158 165 171 176 182 188 176 164 192 203 206 209 211 212 213 214 215 216 217 218 133 90 89 87 86 84 96 114 132 150 150 150 150 150 150 116 82 63 88 114 139 145 144 145 146 147 148 148 149 149 150 150 98 44 45 46 47 48 49 49 49 49 49 49 50 61 77 93 110 126 139 153 
119 101 86 85 85 85 100 121 143 165 165 164 164 164 140 117 94 74 82 90 97 100 102 101 101 101 104 107 110 112 115 118 121 122 119 117 114 109 110 111 112 114 117 120 122 125 126 127 128 129 131 132 133 139 146 152 159 165 171 177 162 155 182 201 204 206 207 208 209 210 211 212 213 214 215 216 217 84 82 81 79 80 98 115 133 152 151 151 151 151 149 114 79 43 69 94 120 145 146 146 147 147 148 148 149 149 150 125 44 45 46 47 48 49 50 50 50 50 50 50 51 57 74 90 124 135 142 155 
106 89 89 89 89 89 96 118 141 165 165 165 164 164 141 117 92 76 84 92 96 99 101 101 101 102 105 107 110 113 116 118 121 118 116 113 109 110 111 112 113 115 118 120 123 126 129 130 132 133 134 135 135 132 140 148 156 164 172 135 168 200 201 202 203 204 205 206 207 208 209 210 211 212 213 214 216 219 114 74 72 81 99 117 135 153 153 153 152 152 147 115 79 45 51 91 131 140 144 146 147 147 148 148 149 149 150 72 45 46 47 48 49 50 51 51 51 51 51 52 53 54 88 122 141 144 148 158 
93 93 93 93 92 92 92 116 140 164 165 165 164 164 141 117 90 78 86 93 95 98 100 101 101 102 105 108 110 113 116 118 119 128 118 109 110 111 112 113 114 115 118 121 124 127 129 132 135 136 137 138 136 131 132 140 148 156 148 180 197 198 199 200 201 202 203 204 205 206 207 208 209 210 211 212 214 218 221 143 65 83 101 118 136 154 154 153 153 153 146 115 79 46 42 60 100 135 140 143 146 147 148 148 149 149 98 46 46 47 48 49 50 51 52 52 52 52 53 54 52 82 120 146 150 153 157 160 
93 93 93 93 93 93 93 116 140 164 165 165 165 164 141 116 88 80 88 92 94 97 99 101 101 103 105 108 111 113 115 116 118 144 135 106 111 112 113 114 115 116 119 122 125 127 130 133 136 139 141 142 138 132 127 131 139 160 193 193 194 195 196 197 198 199 200 201 202 203 204 205 206 207 208 209 213 216 218 216 107 77 95 113 125 151 155 154 154 154 144 115 79 48 39 43 68 115 137 139 142 145 147 148 149 124 46 47 47 48 49 50 51 52 53 53 53 53 54 50 70 111 152 151 149 148 158 160 
93 94 94 94 93 93 93 116 140 164 164 165 165 164 141 114 86 82 88 91 93 96 98 101 101 103 106 108 110 112 113 115 116 160 98 103 109 113 114 115 116 117 120 122 125 128 131 134 137 139 142 145 140 134 129 123 173 189 190 191 192 193 194 195 196 197 198 199 200 201 202 203 204 205 206 208 211 215 214 220 212 71 83 95 120 149 154 155 155 155 143 115 80 50 37 40 44 80 133 136 138 141 144 146 149 78 46 47 48 49 50 51 52 52 53 54 54 55 48 57 98 143 145 136 146 156 160 159 
94 95 94 94 94 94 94 117 140 163 164 165 165 165 141 112 84 84 87 90 92 95 97 100 101 103 106 107 109 110 111 112 160 151 98 101 106 111 115 116 117 118 120 123 126 129 132 134 137 140 140 131 118 106 146 185 186 187 188 188 189 190 191 193 194 195 196 197 198 199 200 201 202 203 204 207 210 211 211 216 224 207 66 85 123 146 151 156 156 155 141 115 81 52 34 38 41 45 120 194 191 188 185 182 111 57 47 48 49 50 51 52 53 53 54 55 55 46 44 87 133 147 139 144 154 159 159 159 
94 95 95 95 94 94 94 117 140 163 164 164 165 165 139 110 82 84 86 89 91 94 96 99 101 102 104 105 106 108 109 110 204 141 99 102 105 108 114 117 118 119 121 124 127 130 132 135 138 134 129 117 115 155 179 183 183 184 185 186 187 188 189 191 192 193 194 195 196 197 198 199 200 201 202 205 209 208 207 212 220 227 49 87 125 144 149 153 157 156 140 116 83 53 32 35 39 71 213 207 205 208 210 213 72 52 47 48 49 50 51 52 53 54 55 56 44 31 78 124 148 143 142 151 159 159 159 158 
94 95 96 95 95 95 95 118 141 163 165 165 165 165 137 108 80 83 85 88 91 93 96 99 101 102 104 105 105 106 107 108 194 130 99 102 105 108 111 116 119 120 122 125 127 130 133 133 129 125 115 124 164 174 177 180 181 182 183 184 184 185 186 188 189 190 191 192 193 194 195 196 197 198 200 204 205 204 204 208 216 222 156 89 127 141 146 151 156 157 138 116 85 55 29 33 133 225 181 198 214 217 220 222 225 47 48 49 49 50 51 52 53 53 54 53 44 58 115 150 146 144 149 158 159 159 159 158 
94 95 96 96 95 95 95 118 141 164 166 166 166 167 138 110 81 83 86 89 91 94 97 99 100 102 104 106 106 107 108 160 184 119 99 102 105 108 111 114 119 121 123 125 128 131 127 124 120 113 133 165 168 172 175 178 179 179 180 181 182 183 184 186 187 188 189 190 191 192 193 194 195 196 199 202 202 201 200 204 212 217 208 124 129 138 143 148 153 158 137 116 86 57 27 195 196 174 203 213 211 216 219 222 222 48 47 48 48 49 50 51 51 52 53 50 44 85 152 149 147 147 157 158 159 159 159 157 
94 95 97 97 96 96 96 119 141 164 166 168 168 168 140 111 81 84 87 89 92 95 97 99 100 102 103 105 107 108 109 211 164 108 100 103 106 109 112 115 118 121 123 126 126 122 118 115 111 142 160 163 166 169 173 176 177 177 178 179 179 180 181 183 185 186 187 188 189 190 191 192 193 194 198 199 198 198 197 200 208 211 206 191 131 137 142 148 154 160 148 111 43 62 214 191 167 209 212 209 208 215 218 221 219 48 47 46 47 48 49 50 50 51 51 48 44 124 153 150 148 155 158 158 158 159 159 157 
95 96 97 97 97 96 96 119 142 165 167 169 169 170 141 115 82 84 87 90 92 95 97 98 100 102 103 105 107 108 110 219 158 97 100 103 106 109 112 115 118 121 124 122 121 119 118 116 151 154 157 161 164 167 170 173 176 175 175 176 177 178 179 180 182 184 185 186 187 188 189 190 191 193 196 195 195 194 193 196 204 206 204 204 218 138 144 149 155 161 158 106 160 214 185 200 214 211 208 204 205 212 218 220 217 49 48 47 46 47 48 49 49 50 49 45 96 150 154 151 153 157 158 158 158 159 158 156 
95 96 97 98 97 97 97 119 142 165 167 169 171 171 143 119 82 85 88 90 93 95 96 98 100 101 103 105 106 108 101 211 150 108 99 102 105 108 111 114 117 120 125 125 125 123 122 143 150 152 155 158 162 165 168 171 174 173 173 174 175 175 176 178 180 181 182 183 184 185 186 187 188 191 193 192 191 191 190 192 200 201 202 206 210 182 145 151 157 163 169 181 193 204 203 195 210 206 203 200 202 209 215 220 214 49 48 47 47 46 47 47 48 49 46 83 148 151 154 152 157 157 158 158 158 159 158 156 
95 96 97 98 98 98 97 120 143 165 167 169 172 173 146 122 83 85 88 91 93 94 96 98 99 101 103 104 106 108 92 203 161 119 100 100 103 106 109 112 115 120 127 127 127 127 136 144 148 150 153 156 159 162 166 169 172 172 171 171 172 173 174 175 177 179 180 181 182 183 184 185 186 190 189 189 188 187 186 188 194 196 192 195 200 205 146 158 170 183 180 177 183 195 207 191 206 205 199 196 199 206 212 219 211 50 49 48 47 46 46 46 47 47 71 123 149 152 155 156 157 157 158 158 158 159 157 155 
95 96 97 98 99 98 98 121 143 166 168 170 172 174 150 126 83 86 89 91 92 94 96 97 99 101 102 104 106 103 132 200 172 131 103 99 102 105 108 111 115 121 128 128 128 128 136 145 147 148 150 154 157 160 163 166 170 170 169 169 170 170 171 173 174 176 178 179 180 181 182 183 185 186 186 185 184 184 183 184 189 189 183 182 187 187 165 181 196 193 191 188 185 185 197 209 202 205 196 191 196 203 212 221 126 50 49 48 48 47 46 45 46 58 97 147 150 153 156 156 157 157 158 158 158 159 157 155 
95 96 98 99 100 99 99 124 145 166 168 170 172 175 154 129 84 87 89 91 92 94 95 97 99 100 102 104 105 99 165 197 169 142 107 102 100 103 106 110 116 123 129 129 129 129 137 144 145 147 148 151 155 158 161 164 167 168 168 167 167 168 169 170 172 174 175 177 178 179 180 181 184 183 182 182 181 180 180 180 184 179 173 170 183 170 185 195 196 198 198 199 196 193 191 199 198 204 196 187 196 205 214 223 40 46 51 50 49 48 47 46 45 72 145 148 151 155 156 156 157 157 157 158 158 158 156 154 
96 97 98 99 100 100 99 126 148 164 169 171 173 175 154 133 84 87 89 90 92 94 95 97 98 100 102 103 105 101 192 194 166 139 111 106 101 102 105 111 117 123 128 130 130 130 138 142 144 145 147 148 152 155 159 162 165 166 166 165 165 166 166 168 169 171 173 174 175 176 177 179 180 180 179 178 177 177 176 176 176 169 163 157 188 189 195 196 197 198 199 200 200 201 201 199 202 204 196 177 193 203 214 225 41 43 48 51 50 49 49 48 58 109 147 150 153 158 156 156 157 157 157 158 158 158 156 154 
96 97 98 99 100 101 100 127 152 162 167 172 174 176 155 123 85 87 88 90 92 94 95 97 99 100 102 104 102 94 218 201 184 167 150 133 117 100 106 112 117 123 126 130 131 130 139 141 142 144 145 147 149 153 156 160 163 164 164 164 163 163 164 165 167 169 170 172 173 174 175 177 177 176 175 175 174 173 173 172 176 180 185 189 193 194 195 196 197 199 200 201 201 202 202 203 203 204 186 168 178 198 209 134 43 44 45 50 52 51 50 49 77 145 149 152 157 158 156 156 157 157 157 158 158 157 155 153 
96 97 98 99 100 101 101 128 155 160 165 169 174 176 150 117 88 87 89 91 92 94 96 97 99 101 102 103 99 86 215 198 181 165 151 136 119 103 94 100 106 127 126 129 131 131 138 139 141 142 144 145 147 150 154 157 160 163 162 162 162 161 162 163 164 166 168 169 171 172 173 174 173 173 172 171 171 170 170 177 181 185 190 193 193 195 196 197 198 199 200 202 202 203 203 204 204 185 176 158 159 189 204 43 44 46 47 48 51 53 52 56 109 147 150 155 159 158 157 156 157 157 157 158 158 157 155 153 
96 97 98 99 100 102 102 129 153 161 165 169 173 177 148 119 91 88 89 91 93 94 96 98 100 101 102 103 96 85 213 196 180 166 152 137 122 105 97 88 130 130 130 130 131 132 136 138 139 141 142 144 145 147 151 154 158 161 160 160 160 159 159 160 162 163 165 167 168 170 171 171 170 169 169 167 166 168 178 182 186 190 192 193 194 194 196 197 198 200 201 202 203 204 204 205 195 166 173 148 139 169 199 42 45 47 48 50 51 53 53 82 146 149 154 159 159 158 157 156 157 157 157 158 158 156 154 152 
96 97 98 100 101 102 102 128 152 162 166 171 175 177 151 122 93 84 90 92 93 95 97 98 99 100 101 102 94 83 210 196 181 167 152 138 124 108 99 134 134 134 134 133 133 133 135 136 138 139 141 142 144 145 148 152 155 159 159 158 158 158 157 158 159 161 163 164 166 167 168 167 166 165 163 162 167 176 183 187 191 192 192 193 194 193 196 198 199 200 201 202 204 205 205 206 165 148 154 160 120 186 117 41 46 47 49 50 52 53 55 114 147 152 157 161 159 158 157 156 156 157 157 158 158 156 154 152 
97 98 99 100 101 102 103 127 150 164 168 172 175 177 151 125 96 80 90 92 94 95 97 98 99 100 101 102 92 81 214 193 179 165 152 138 124 110 117 124 126 126 126 125 133 132 132 132 134 136 138 139 141 143 145 124 103 82 119 157 157 156 156 155 157 158 160 162 163 165 164 162 161 159 158 165 174 183 188 191 191 192 193 193 194 193 195 198 199 200 202 203 204 205 206 186 134 129 116 84 162 239 35 40 45 48 49 51 52 54 83 146 151 156 161 161 160 158 157 156 156 157 157 158 157 155 153 151 
97 98 99 100 101 102 102 125 149 166 170 173 175 176 151 125 99 77 87 93 94 95 96 97 98 99 100 101 90 78 219 196 176 162 148 135 121 117 112 113 118 118 122 134 128 131 131 130 130 131 133 135 136 138 139 134 130 125 102 78 156 150 145 130 110 122 124 125 127 117 102 85 67 154 163 172 182 188 190 191 192 192 193 194 195 193 195 197 199 201 202 203 205 206 207 156 104 97 89 134 195 143 40 40 44 48 50 51 53 49 112 149 154 159 162 161 160 159 157 156 156 157 157 157 157 155 153 151 
97 98 99 100 101 102 101 125 147 167 171 173 174 176 150 125 99 73 83 93 94 95 96 97 98 99 100 101 91 80 223 200 177 159 145 131 125 125 120 115 110 122 134 135 127 129 131 130 129 128 128 130 132 134 132 128 120 108 103 89 116 135 124 105 85 65 77 89 79 69 57 39 35 153 165 177 189 190 190 191 192 193 193 194 195 193 194 196 199 201 203 204 205 130 88 90 92 94 139 183 228 46 46 46 46 47 50 52 48 77 146 152 158 163 162 161 160 159 157 156 156 157 157 157 156 154 152 150 
97 98 99 100 101 103 101 126 147 169 171 173 174 176 150 124 98 73 83 93 94 95 96 97 98 99 100 101 93 81 181 200 181 158 142 132 132 132 127 113 118 135 141 124 126 128 131 130 129 128 127 126 127 129 126 114 99 91 86 81 76 119 103 87 71 82 69 70 50 31 11 45 193 151 176 188 188 189 191 191 192 193 194 194 195 193 193 196 198 201 203 94 93 92 92 94 119 143 171 202 45 46 48 49 50 50 51 47 43 112 149 156 161 164 162 161 160 159 158 156 156 157 157 157 156 154 152 150 
97 98 99 101 102 103 100 126 148 168 171 173 175 176 150 124 98 72 83 93 94 95 96 97 98 99 100 101 96 83 139 195 176 158 139 139 139 139 115 106 127 147 130 122 125 127 129 129 128 127 127 126 125 124 109 93 80 73 69 64 86 106 92 77 61 99 60 51 32 43 85 184 113 188 188 188 187 187 188 190 193 193 194 195 195 194 193 195 198 148 99 97 96 94 119 143 168 192 217 43 45 46 48 50 52 52 53 50 72 146 152 159 165 164 163 161 160 159 158 157 156 157 157 157 155 153 151 150 
98 99 100 101 102 103 99 126 148 167 171 173 175 177 149 123 98 72 82 92 94 95 96 97 99 100 101 102 98 87 78 204 185 169 157 145 145 128 94 116 138 129 119 121 124 126 128 129 128 127 126 125 111 99 88 73 63 56 51 88 97 92 78 65 51 116 52 64 76 88 158 127 191 186 186 187 186 186 186 188 190 192 194 195 196 194 192 161 130 99 113 126 139 152 137 161 186 211 44 44 45 47 48 50 52 53 55 54 102 143 149 157 164 164 163 162 160 159 158 157 156 157 157 157 155 153 151 149 
98 99 100 101 102 102 98 126 148 166 170 173 175 177 153 123 97 71 82 92 93 95 96 97 98 100 101 102 101 91 83 212 200 188 175 163 151 112 105 129 126 124 121 121 123 125 127 128 128 127 112 97 86 75 63 52 46 39 76 112 81 49 63 78 92 63 34 144 138 132 141 193 188 184 183 184 185 185 185 186 188 190 192 194 196 128 59 131 100 113 127 141 154 167 175 180 204 46 45 45 45 47 48 50 52 54 55 57 116 140 150 162 163 163 163 162 161 159 158 157 156 156 157 156 154 152 151 149 
98 99 100 101 102 101 97 127 148 165 169 174 175 177 157 123 97 71 82 92 93 94 96 97 98 99 101 102 103 95 87 150 208 196 184 171 147 92 125 127 128 126 123 123 124 125 127 128 113 99 84 77 69 62 54 70 46 45 72 86 55 53 83 97 60 120 34 133 127 162 196 191 186 181 180 181 182 183 184 184 185 187 190 191 88 50 111 100 114 127 141 155 168 181 190 198 47 47 46 46 46 47 48 50 52 54 55 81 130 142 154 161 161 162 162 162 161 159 158 157 156 156 157 156 154 152 150 148 
98 99 100 101 102 100 97 127 149 164 168 172 176 177 157 126 96 70 81 92 93 94 95 97 98 99 100 102 104 102 97 89 171 204 192 182 142 122 123 125 126 128 125 124 125 126 124 114 100 85 76 72 64 57 50 87 46 50 69 60 59 57 71 116 27 117 90 122 156 190 190 189 184 179 177 178 179 180 181 182 183 184 186 187 129 72 85 88 112 131 147 163 180 196 122 48 48 48 48 47 47 47 48 50 52 54 55 105 135 147 159 160 160 161 161 162 161 160 158 157 156 156 157 155 153 152 150 148 
98 99 100 102 103 99 96 126 149 163 167 171 176 178 157 130 96 70 81 91 93 94 95 96 98 100 102 104 105 106 101 95 90 212 202 192 118 119 121 122 124 125 127 125 126 120 109 99 87 72 67 76 59 52 67 105 46 56 66 64 63 61 59 77 96 114 129 150 184 184 185 185 182 177 175 175 176 177 178 181 187 189 191 192 151 93 59 77 100 124 145 161 178 49 49 49 49 49 49 48 48 48 48 50 52 54 76 129 139 151 158 158 159 159 160 160 161 160 159 157 156 156 157 155 153 151 149 147 
98 100 101 102 102 99 95 125 149 162 166 170 175 178 157 133 99 69 80 91 92 94 95 97 99 101 103 105 107 108 105 100 92 215 209 178 117 120 121 122 123 124 125 126 116 105 95 85 73 64 59 81 64 47 61 75 87 50 56 55 52 50 48 69 74 80 150 178 178 179 179 179 180 175 172 173 174 174 179 187 190 194 196 197 163 115 57 65 89 112 136 159 104 50 50 50 50 50 50 50 49 49 49 50 52 54 104 134 144 156 157 157 158 158 159 159 160 160 159 158 156 156 156 154 153 151 149 147 
99 100 101 102 101 98 94 125 150 161 165 169 174 178 158 137 103 69 80 91 93 95 97 98 100 102 104 106 108 110 109 104 93 219 217 162 115 119 121 122 123 124 125 114 99 90 80 70 60 55 50 85 70 55 48 44 127 43 46 48 44 41 37 137 78 125 172 172 173 173 173 174 174 172 169 170 171 176 185 190 194 198 201 202 175 127 78 54 77 101 129 158 105 51 50 50 50 50 50 50 50 50 50 50 52 64 128 138 148 155 155 156 156 157 157 158 158 159 159 158 157 156 156 154 152 150 148 146 
99 100 101 102 101 97 93 124 150 160 164 168 173 176 158 137 106 72 83 91 93 95 97 100 102 103 105 107 109 111 113 108 95 222 224 144 114 118 122 123 124 125 122 102 83 73 63 53 52 47 51 70 78 63 53 47 83 104 59 38 37 34 154 83 179 137 162 174 172 170 168 168 168 168 166 167 174 183 190 194 198 201 205 207 187 139 90 42 71 100 129 158 105 51 51 51 51 51 51 51 51 51 51 51 52 96 133 143 153 154 154 155 155 156 156 157 157 158 158 158 157 156 155 154 152 150 148 146 
99 100 101 102 100 96 93 123 150 159 163 167 174 174 158 138 106 74 82 90 94 95 97 100 102 104 106 108 110 112 114 113 96 165 226 125 112 116 120 123 124 125 110 90 71 56 46 66 45 48 52 55 72 70 58 49 38 93 55 43 30 163 102 182 156 147 152 178 175 173 171 169 167 165 163 172 181 190 194 198 201 205 208 212 199 151 102 55 44 69 113 157 105 52 52 52 52 52 52 52 52 52 52 52 52 127 137 147 154 154 154 154 154 154 155 155 156 156 157 157 157 156 155 153 151 149 147 145 
99 100 101 103 99 95 92 122 150 157 162 169 176 172 157 138 106 74 82 90 95 96 97 100 102 104 106 108 110 113 115 117 112 107 227 107 111 115 119 123 125 117 98 78 59 39 97 42 45 49 52 56 66 64 63 119 41 123 65 6 138 129 185 176 166 157 159 168 179 177 175 173 167 163 167 179 187 194 198 201 205 208 212 216 211 163 116 69 42 45 53 160 108 54 53 52 52 52 52 52 52 52 52 52 82 131 141 151 155 155 155 155 155 155 155 155 155 155 156 156 157 156 155 153 151 149 147 145 
99 101 102 102 98 95 91 121 151 156 163 170 177 170 155 139 106 74 81 89 95 97 98 99 102 104 106 108 110 113 115 118 117 116 180 116 115 118 120 123 125 98 70 43 48 44 69 69 45 48 52 56 60 28 100 72 44 153 25 109 141 138 176 183 176 167 165 174 183 177 170 164 162 165 170 182 194 198 201 205 209 212 216 219 223 176 129 82 45 39 86 164 110 56 54 53 52 52 52 52 52 52 52 52 112 135 145 155 155 155 155 156 156 156 156 156 156 156 156 156 156 156 154 152 150 148 146 144 
100 101 102 101 97 94 90 121 151 158 165 172 179 168 153 139 106 74 81 89 96 97 99 100 102 104 106 108 110 113 115 120 121 125 133 124 121 124 126 125 102 46 52 58 59 49 40 96 58 47 51 53 52 54 65 87 40 44 79 139 145 147 167 184 181 177 171 180 174 168 162 162 164 167 174 186 191 194 196 200 203 207 211 214 218 189 142 95 48 42 82 167 112 58 56 55 54 53 52 51 51 51 51 67 129 139 149 156 156 156 156 156 156 156 156 157 157 157 157 156 155 155 154 152 150 148 146 144 
100 101 102 100 97 93 89 120 147 161 167 174 180 168 155 136 106 73 81 88 96 98 99 101 102 104 106 108 110 112 116 121 126 140 96 133 127 130 126 119 80 84 38 73 58 42 55 75 61 46 45 44 43 80 54 101 35 50 109 155 154 156 158 185 182 180 177 171 165 159 161 164 166 169 178 185 189 192 194 196 198 202 206 209 214 201 154 96 48 44 39 134 114 59 57 56 55 54 53 52 51 51 51 97 133 144 154 157 157 157 157 157 157 157 157 157 157 156 156 155 154 153 153 151 149 147 145 143 
100 101 102 99 96 92 89 119 143 164 170 177 180 171 159 134 106 73 81 88 96 99 100 101 103 104 106 108 110 112 117 122 145 160 58 96 133 126 120 113 50 122 40 95 45 37 69 54 48 46 50 47 35 106 43 46 49 157 139 162 164 165 167 185 183 180 157 96 104 112 133 166 168 171 179 183 186 190 192 194 195 197 200 204 209 214 145 75 49 45 42 101 131 61 59 58 57 56 55 54 53 52 51 127 137 148 158 158 158 158 158 158 158 158 157 156 156 155 154 153 153 152 151 151 149 147 145 143 
100 101 102 99 95 91 88 115 139 164 174 180 181 175 159 131 103 73 80 88 95 100 101 102 103 105 106 108 110 113 118 141 164 44 57 70 185 122 59 76 93 37 41 117 32 40 48 49 58 46 50 55 59 52 46 44 103 91 169 171 173 174 176 186 184 133 136 139 114 94 74 107 140 173 177 180 184 187 190 192 194 195 197 199 173 146 100 54 51 49 46 43 162 63 61 59 58 57 56 55 54 52 71 131 141 152 158 159 159 159 159 158 157 157 156 155 154 153 153 152 151 150 150 149 148 146 144 142 
100 102 101 98 94 91 87 111 135 160 177 180 181 178 157 129 101 73 80 88 95 100 102 103 104 105 107 108 110 114 137 148 159 46 66 86 134 93 61 60 77 69 111 39 41 42 51 60 69 46 50 55 56 42 42 42 156 156 170 178 181 183 185 187 110 121 131 142 152 117 82 85 89 92 160 167 174 181 188 187 185 184 183 96 99 102 142 98 54 51 48 43 167 102 57 61 60 59 58 55 53 51 92 135 145 156 159 159 159 158 158 157 156 155 154 154 153 152 151 150 150 149 148 148 147 146 144 142 
101 102 100 97 93 90 85 109 133 156 180 181 181 182 155 128 101 75 81 88 95 101 102 104 105 106 107 109 110 121 132 144 155 166 134 101 83 64 63 61 60 77 93 37 109 44 56 67 79 46 51 55 53 43 25 162 143 157 171 186 188 190 192 77 79 79 79 89 100 65 67 105 108 117 132 147 162 177 192 189 178 166 139 111 84 57 56 55 54 53 48 43 171 107 42 52 61 59 56 54 52 49 112 139 149 160 159 158 158 157 156 155 155 154 153 152 151 151 150 149 148 148 147 146 146 145 143 141 
101 102 100 96 93 88 83 107 131 154 180 181 182 182 157 130 103 76 83 89 96 102 101 100 99 98 97 97 200 131 142 154 163 129 95 64 36 120 97 74 82 78 75 35 41 46 40 35 29 120 51 52 50 44 84 103 179 176 173 187 195 197 77 62 47 47 47 47 47 50 52 55 128 132 136 144 163 181 195 202 190 100 56 60 64 57 53 52 51 50 48 43 176 111 58 67 58 57 54 52 50 48 132 142 153 159 158 157 156 155 155 154 153 152 152 151 150 149 148 148 147 146 146 145 144 144 143 141 
101 102 99 95 91 86 81 105 129 153 180 181 182 182 158 132 105 78 84 91 97 104 103 98 93 88 83 193 167 141 151 160 126 91 57 28 128 58 88 64 103 100 68 41 41 46 78 72 36 44 51 49 47 45 143 161 179 187 192 197 202 76 65 54 55 63 60 60 176 181 69 65 109 124 128 142 160 178 196 214 77 54 31 147 167 56 51 50 48 46 45 43 180 95 73 64 54 54 52 50 48 77 136 146 156 157 157 156 155 154 153 152 152 151 150 149 149 148 147 146 145 145 144 144 143 143 142 140 
101 102 98 95 89 84 79 103 127 153 180 181 182 183 158 133 106 80 86 92 99 106 109 104 99 84 69 177 151 166 157 123 88 54 19 116 68 61 61 55 125 93 61 46 44 47 115 58 44 47 47 46 44 79 154 161 179 190 196 201 97 98 86 49 64 79 79 73 189 190 187 75 90 105 120 139 158 183 208 177 101 84 61 102 170 109 48 47 47 46 46 45 174 79 70 60 51 50 50 48 46 105 139 149 157 156 155 154 154 153 152 151 150 150 149 148 147 146 146 145 144 143 143 142 142 141 141 140 
101 101 97 93 87 82 77 101 127 154 180 181 182 183 158 134 108 81 88 94 101 108 115 100 85 70 55 162 156 192 227 72 54 35 100 77 50 64 69 88 115 112 54 52 49 47 46 44 44 44 44 43 59 113 165 172 178 193 199 118 119 119 120 96 98 100 102 152 202 181 161 140 134 129 123 134 153 192 227 140 126 111 91 131 172 94 61 56 51 48 48 47 168 106 76 57 47 47 47 45 74 134 143 152 156 155 154 153 152 152 151 150 149 148 147 147 146 145 144 143 143 142 141 141 140 140 152 165 
102 100 96 91 85 80 75 100 127 154 181 182 182 183 159 134 110 83 89 96 103 109 114 27 77 126 136 146 113 80 47 56 113 122 80 38 53 67 77 100 106 126 99 96 45 47 46 45 42 42 41 40 93 146 176 183 189 196 99 121 131 135 138 142 133 124 115 124 174 177 156 144 137 131 126 128 147 190 225 157 145 133 121 161 112 62 73 68 63 59 54 49 163 133 104 74 44 44 43 43 100 133 144 155 154 153 153 152 151 150 149 149 148 147 146 145 144 144 143 142 141 140 140 139 152 165 177 190 
102 99 94 89 83 78 73 100 127 154 181 182 183 183 159 135 110 84 91 97 102 107 112 93 143 118 111 115 92 59 44 39 145 78 108 40 46 61 85 91 96 109 144 43 45 48 46 45 44 41 40 93 91 180 186 192 198 79 102 125 141 145 147 149 146 137 128 137 146 172 156 149 141 134 128 123 142 186 224 174 162 149 133 145 95 94 82 68 64 59 54 49 161 119 89 60 45 46 46 46 122 134 147 155 153 152 151 150 150 149 148 147 146 146 145 144 143 142 141 141 140 139 154 169 184 192 192 191 
102 97 91 86 81 75 70 100 127 154 181 182 183 183 159 135 110 86 91 96 101 106 111 159 135 110 86 83 70 47 53 72 90 109 87 43 49 55 61 107 100 92 59 50 46 48 47 46 45 42 39 146 135 183 190 199 77 95 114 132 151 153 154 156 157 150 142 150 159 168 161 153 146 138 131 125 136 181 222 191 176 160 144 128 115 103 90 64 62 59 54 50 158 105 75 46 46 47 47 48 126 139 151 154 153 152 150 149 148 148 147 146 145 144 143 143 142 141 140 139 143 168 194 194 193 193 193 193 
100 94 88 83 78 73 67 100 127 154 181 182 183 184 159 135 110 83 94 105 110 110 109 136 111 129 147 98 49 63 77 92 105 102 73 45 57 68 80 100 129 89 171 56 49 49 48 47 46 44 96 127 179 186 192 74 90 105 121 137 149 155 161 163 164 164 155 164 172 166 160 155 149 143 135 128 131 175 220 201 181 162 143 133 124 112 99 61 59 57 55 50 156 137 61 47 47 48 48 69 131 143 156 154 153 151 150 148 147 146 145 145 144 143 142 141 141 140 139 147 172 189 195 195 195 194 194 194 
97 93 86 80 75 70 64 101 127 154 181 182 183 184 159 134 107 81 92 102 113 124 135 138 141 62 62 62 60 74 88 101 114 94 66 46 47 63 87 111 114 63 49 136 93 49 48 48 47 46 153 108 185 201 145 73 91 107 122 138 148 154 159 165 171 173 168 177 171 164 158 153 147 142 136 131 125 172 219 196 177 158 144 137 130 120 108 57 55 54 52 50 153 169 47 48 48 49 49 90 135 147 155 154 152 151 150 148 147 145 144 143 143 142 141 140 139 138 151 173 185 195 196 196 196 196 195 195 
95 94 83 77 72 67 61 101 128 154 181 182 183 184 158 131 105 78 89 100 111 123 135 104 114 84 84 77 71 84 97 110 115 87 54 48 48 49 57 81 98 37 79 120 119 44 43 42 41 125 95 201 191 216 59 71 92 108 124 139 146 152 158 164 169 175 181 175 169 163 156 151 145 140 134 128 126 171 217 193 172 156 149 142 135 128 116 54 52 50 62 45 145 127 73 47 49 50 50 110 139 152 155 154 152 151 149 148 146 145 143 142 141 140 140 139 138 155 169 180 192 196 197 197 197 197 197 196 
92 92 84 74 69 64 59 100 128 155 179 180 181 183 158 129 102 76 86 98 110 123 136 69 87 105 105 106 106 61 106 119 107 75 49 49 50 50 51 51 49 48 83 115 146 38 37 37 36 117 142 193 185 35 68 70 94 109 125 139 144 150 156 162 168 173 178 173 167 161 155 149 143 137 132 126 126 164 216 192 168 161 154 147 139 132 125 50 62 73 85 39 136 139 106 46 48 49 51 131 144 156 155 153 152 150 149 148 146 145 143 142 140 139 138 137 153 164 176 187 195 196 197 199 198 198 198 198 
90 89 85 74 66 61 56 97 129 155 177 178 179 181 162 132 103 73 86 98 111 123 136 140 46 121 88 88 80 65 50 128 95 63 50 51 51 51 50 55 60 58 94 129 139 149 37 36 96 111 189 184 179 36 77 68 95 111 126 137 143 149 154 160 165 170 175 171 165 159 153 147 141 135 130 125 127 157 206 212 174 158 151 144 137 130 106 48 57 67 79 33 105 151 146 40 47 48 89 135 148 156 155 153 152 150 149 147 146 144 143 141 140 138 137 148 160 171 183 194 196 197 198 199 200 199 199 199 
87 87 86 75 63 58 53 94 129 155 175 176 178 180 166 136 106 80 85 98 111 123 136 42 90 137 104 70 72 74 76 102 77 51 51 50 50 49 49 59 68 69 125 180 40 125 28 35 156 109 200 206 34 36 86 67 95 112 127 135 141 147 153 158 162 167 172 168 163 157 151 145 139 133 128 126 127 150 196 232 179 155 148 141 134 127 86 47 55 64 73 27 96 164 119 34 41 47 110 140 153 156 154 153 151 150 148 147 145 144 142 141 139 138 141 155 167 178 190 196 197 198 199 200 201 201 200 200 
85 84 84 76 65 55 50 91 130 153 173 174 176 178 169 140 106 87 85 98 110 123 118 56 117 89 81 72 75 88 102 98 94 90 49 49 48 48 48 63 75 115 85 159 51 77 32 71 110 159 207 39 36 35 95 65 93 113 128 134 139 145 150 154 159 164 168 166 160 155 149 143 137 131 126 126 128 144 186 221 185 151 145 138 132 125 68 45 54 63 74 41 86 177 118 59 32 67 131 144 157 155 154 152 151 149 148 146 145 143 142 140 139 137 146 162 174 185 196 197 198 199 200 201 202 202 202 201 
82 82 81 77 66 54 47 88 130 151 171 173 175 177 173 142 104 94 92 97 110 117 99 69 83 97 73 70 66 73 93 117 122 128 47 48 47 47 52 67 83 160 97 97 38 29 75 121 135 174 149 49 42 34 104 64 92 114 126 132 137 142 147 151 156 161 165 164 158 152 147 141 135 129 125 127 128 137 176 211 183 148 141 135 128 122 51 43 54 64 75 49 55 174 124 74 24 86 136 149 156 155 154 152 150 149 147 146 144 143 141 140 138 137 150 169 181 192 197 198 199 200 201 202 203 203 203 203 
80 79 79 79 67 56 44 90 137 153 169 171 173 175 177 140 102 100 99 97 104 111 87 64 92 106 71 57 143 51 84 116 131 85 45 45 46 45 56 53 33 71 108 35 35 35 131 161 159 190 52 48 44 37 98 62 90 116 124 129 134 139 143 148 153 157 162 162 156 150 144 139 133 127 126 127 129 130 165 200 172 144 139 133 128 89 33 44 55 65 76 50 23 171 125 79 33 104 142 155 155 155 154 152 150 149 147 145 144 142 141 139 138 136 155 176 188 197 198 199 200 201 202 203 204 204 204 204 
77 77 76 76 68 57 54 97 143 159 167 172 174 176 173 144 104 92 90 97 107 114 82 58 86 114 80 45 78 110 72 106 140 42 83 45 44 44 40 36 97 157 37 38 40 41 188 186 184 54 50 47 43 39 92 100 109 117 122 126 131 136 140 145 150 154 159 159 154 148 142 136 131 125 110 94 79 116 152 189 172 156 139 134 111 58 38 44 56 66 77 51 31 155 133 88 42 121 147 153 153 153 153 152 151 149 147 145 144 142 140 139 137 136 159 183 195 197 198 199 201 202 203 204 205 206 205 205 
75 74 74 74 70 58 64 105 150 162 166 170 174 176 169 148 106 84 82 97 110 117 81 53 81 86 43 114 96 78 60 89 117 86 121 32 44 167 39 64 88 41 82 95 109 123 138 152 114 50 53 52 48 44 108 94 103 116 121 123 128 133 137 142 147 151 156 157 151 146 140 134 130 133 139 124 117 139 175 182 168 157 145 134 84 49 43 44 55 67 78 58 38 139 142 97 51 139 152 152 152 152 152 152 151 149 147 146 144 142 140 139 137 135 164 190 197 198 199 200 201 202 204 205 206 207 207 206 
72 72 72 71 71 59 74 115 156 160 164 169 173 177 165 152 108 75 82 97 112 121 84 47 53 58 142 48 67 87 106 100 94 117 140 55 43 139 68 56 44 99 126 140 154 111 124 211 43 46 49 53 53 50 123 88 102 116 123 125 127 129 134 139 143 148 153 155 149 143 138 135 138 141 168 153 156 177 198 175 158 147 135 119 59 54 48 43 58 72 73 63 43 101 153 87 82 145 151 151 151 151 151 151 151 149 148 146 144 142 140 139 137 137 167 197 198 199 200 201 202 203 204 205 207 208 208 208 
70 69 69 69 68 61 84 125 154 162 166 171 175 179 167 149 112 67 82 97 112 124 87 65 91 118 49 53 68 87 89 82 113 136 158 78 100 94 59 61 62 158 171 184 80 98 195 49 47 46 48 51 53 55 97 101 101 115 124 127 129 131 133 136 140 145 150 153 147 141 140 143 146 148 164 182 194 200 192 168 148 137 142 104 54 51 46 52 66 76 69 61 48 80 164 77 114 150 150 150 150 150 150 150 150 150 148 146 144 142 141 139 137 139 169 199 200 200 201 202 203 204 205 206 207 208 209 209 
67 67 67 66 66 62 94 123 153 161 168 173 177 181 169 146 116 71 86 100 114 127 55 82 109 49 54 58 68 78 72 65 58 94 129 143 157 49 67 85 103 126 180 164 90 84 55 53 50 48 49 51 54 67 90 114 98 115 126 128 131 133 135 137 140 142 146 150 145 146 148 151 154 156 159 211 203 194 186 170 138 143 148 44 49 48 43 60 75 71 64 57 49 58 170 101 138 151 150 149 149 149 148 148 148 148 148 146 144 143 141 139 136 140 170 201 202 202 203 203 204 205 206 207 208 209 210 210 
65 64 64 64 63 63 92 122 151 160 168 175 179 183 171 144 117 76 91 106 120 134 48 75 90 55 59 64 68 76 84 82 70 65 100 114 87 68 108 126 145 167 189 144 99 127 53 54 54 52 50 52 55 78 94 94 94 111 128 130 132 135 137 139 141 144 146 148 147 147 146 145 145 144 145 164 179 176 174 171 153 146 102 48 44 46 52 69 74 67 59 52 44 37 176 125 143 152 150 149 149 148 147 147 147 147 147 146 145 143 141 139 133 142 175 203 204 204 205 205 206 207 207 208 209 210 211 211 
62 62 62 61 61 66 91 120 149 158 167 175 181 185 168 141 114 80 95 110 125 140 40 55 70 60 65 65 60 118 106 94 81 121 71 85 62 88 121 168 186 208 82 97 199 49 51 52 53 54 53 53 66 74 78 86 94 105 122 126 131 135 138 140 143 145 147 106 119 131 130 130 129 130 132 133 150 147 131 101 125 149 55 51 47 43 60 77 72 66 61 56 48 40 167 130 148 153 151 150 149 148 147 146 146 146 146 146 145 143 141 140 129 144 182 205 206 206 207 207 208 209 209 210 210 211 212 213 
60 60 59 59 59 70 94 118 148 156 165 173 182 187 165 138 111 84 92 100 123 121 60 62 64 66 61 56 51 139 100 96 93 112 130 56 82 107 133 180 227 139 108 128 46 47 48 49 51 52 53 54 62 70 78 86 94 102 116 120 125 129 133 137 142 146 131 117 113 113 114 114 115 117 118 120 121 120 118 119 135 101 52 48 46 45 50 67 80 75 70 58 48 43 157 135 153 154 152 151 150 149 148 147 146 145 145 145 145 143 142 137 126 147 189 207 208 208 209 210 210 211 211 212 212 213 213 214 
57 57 57 57 58 73 98 122 146 155 163 172 180 189 167 145 124 129 69 106 124 101 79 71 62 64 75 68 43 160 103 81 93 90 56 120 124 127 131 121 185 107 133 159 49 48 49 50 51 52 54 55 56 61 71 81 90 100 110 115 119 124 129 134 138 143 142 127 119 119 120 119 129 146 163 181 198 135 134 138 145 52 51 50 48 47 46 57 89 83 69 56 51 46 148 140 156 155 153 152 150 150 149 148 147 146 145 144 143 143 142 134 122 154 195 209 210 210 211 212 212 213 213 214 214 214 214 212 
55 55 55 56 57 77 101 123 145 156 164 173 182 187 176 163 113 63 95 127 108 88 69 158 50 62 73 85 96 181 124 66 93 120 116 115 121 125 129 219 99 166 112 58 52 48 50 51 52 53 54 55 56 57 59 68 78 88 99 112 116 121 126 130 135 140 146 138 125 125 126 123 126 143 161 161 159 154 149 143 93 51 52 52 51 49 48 47 97 79 64 59 54 49 138 146 157 156 154 153 151 150 149 148 147 147 146 145 144 143 142 131 119 160 202 211 212 213 213 214 214 214 214 214 213 213 212 210 
52 52 54 55 56 78 101 123 144 157 166 174 183 184 175 158 113 63 91 123 99 78 58 116 55 51 62 74 100 134 82 101 86 70 107 109 115 121 127 183 151 225 53 56 54 49 50 51 53 54 55 56 57 58 59 60 66 75 88 102 113 118 123 127 132 137 143 148 133 132 132 128 123 123 124 124 132 139 147 134 49 50 51 52 53 51 50 49 92 72 67 62 57 52 129 151 158 156 155 154 152 151 150 149 148 147 146 145 144 144 139 130 119 167 208 213 214 215 215 214 214 214 213 213 213 212 210 208 
50 51 52 53 54 78 101 123 143 158 167 175 183 182 174 154 113 63 87 119 91 70 65 74 61 48 51 70 96 113 95 136 123 111 98 103 108 113 119 190 203 48 51 53 56 51 51 52 53 54 55 57 58 59 60 61 62 63 77 91 105 115 120 124 129 134 140 145 144 138 137 132 141 145 146 138 133 137 144 47 48 49 50 51 51 52 52 51 87 80 72 65 60 55 119 156 159 157 156 155 153 152 151 150 149 148 147 146 145 142 136 130 119 167 215 215 214 214 214 213 213 213 212 212 212 210 208 206 
50 49 51 52 53 78 101 123 143 160 168 177 180 179 173 149 114 64 85 114 83 63 72 71 61 50 40 57 74 91 108 123 119 106 108 99 100 105 110 239 100 48 49 51 53 54 52 53 54 55 56 57 58 59 60 61 61 62 58 80 94 109 116 121 126 132 137 142 148 144 141 150 158 167 160 152 145 142 142 50 49 49 50 51 51 52 52 53 88 82 76 70 64 58 110 161 160 158 157 156 154 153 151 150 149 148 148 147 145 139 133 127 118 167 214 214 214 213 213 213 212 212 212 211 211 208 206 204 
50 49 49 50 51 76 101 123 142 159 169 178 178 177 173 145 109 64 85 110 75 69 72 68 58 50 44 60 88 105 77 109 114 109 119 110 101 96 102 153 57 48 49 50 51 53 52 53 55 56 57 57 58 58 59 59 60 62 66 52 75 98 112 118 123 129 134 139 145 150 154 158 162 166 167 161 156 151 56 52 50 50 51 52 52 53 53 56 90 83 77 71 65 60 123 157 150 155 158 156 155 154 152 151 150 149 148 147 142 136 130 124 118 178 214 213 213 212 212 212 211 211 211 210 209 206 204 202 
50 49 48 48 49 74 100 123 141 158 171 177 176 175 172 140 104 64 85 106 67 70 73 65 59 55 49 41 80 118 46 78 110 120 129 120 111 102 93 66 57 47 49 50 51 52 53 54 54 55 55 56 57 57 58 58 59 61 65 65 47 69 92 115 120 124 129 133 140 149 153 158 162 166 170 166 161 141 57 55 51 52 52 53 53 53 50 59 91 85 79 73 67 61 136 153 137 139 142 149 156 155 153 152 151 150 149 145 139 133 127 121 129 189 213 213 212 212 211 211 211 210 210 209 207 199 187 178 
49 49 48 47 48 73 98 123 140 157 172 174 173 172 171 135 100 64 102 102 57 65 73 69 64 60 53 45 61 132 75 58 90 128 99 117 136 154 138 121 57 47 48 49 51 53 52 53 53 54 54 55 55 56 57 57 58 60 64 69 59 41 52 64 75 98 121 130 138 147 152 156 161 165 169 171 166 132 57 56 54 53 53 54 53 50 48 62 92 86 80 74 68 63 149 150 133 126 128 131 136 143 150 153 151 150 148 142 136 130 125 119 140 201 212 212 211 211 211 210 210 209 209 195 181 137 92 48 
49 48 48 47 46 67 87 108 141 157 173 173 173 172 172 141 95 116 136 92 47 55 81 68 69 65 58 50 42 145 104 63 71 137 68 111 134 138 70 152 100 47 49 51 53 55 52 52 52 53 53 54 54 55 55 56 57 59 64 68 72 81 91 103 126 125 125 128 137 146 150 155 159 164 168 173 171 122 58 57 56 54 54 53 50 48 45 65 102 85 80 75 69 64 162 146 129 113 115 117 120 124 131 137 144 151 145 139 134 128 122 116 151 212 211 211 210 210 209 209 208 208 169 120 59 46 47 54 
49 50 51 51 52 51 72 93 143 159 170 171 173 173 173 158 142 156 93 82 37 42 88 57 64 70 63 55 48 113 140 95 51 81 110 114 118 122 126 59 167 147 51 53 54 64 51 52 52 52 52 53 53 54 54 55 55 59 63 66 75 103 130 130 129 129 129 129 136 144 149 153 158 162 167 171 176 184 191 199 127 55 53 50 48 45 43 71 113 84 79 74 69 64 159 153 136 120 118 116 115 113 111 117 123 129 135 133 131 125 119 114 162 212 210 209 209 208 207 207 206 177 128 80 31 46 62 61 
92 74 57 57 58 57 57 77 128 161 167 169 170 171 173 174 110 46 49 164 27 27 96 46 52 57 83 68 53 80 107 134 126 118 149 122 94 112 126 93 167 111 105 54 56 80 51 51 51 52 52 52 52 53 53 54 54 58 61 63 78 106 127 130 132 133 133 133 134 143 147 152 156 161 166 170 175 181 189 197 200 203 131 61 54 47 40 82 123 83 78 74 69 64 156 156 143 127 125 123 122 119 116 113 110 107 112 118 117 115 113 111 161 211 209 208 207 206 206 205 185 137 88 41 48 61 77 67 
134 117 99 82 64 63 63 62 113 163 165 167 169 171 173 162 114 101 189 38 37 36 60 98 39 45 110 95 98 28 127 103 79 71 62 80 98 116 126 127 167 75 69 64 58 96 50 50 51 51 51 52 52 52 52 53 53 55 58 60 81 107 125 127 130 132 135 137 136 141 146 150 155 160 164 169 174 179 187 195 199 201 204 207 75 59 43 84 105 76 78 74 69 64 153 153 150 134 132 130 128 124 121 117 114 111 108 105 102 93 85 76 161 211 209 207 206 204 204 194 145 79 50 57 64 76 83 74 
131 147 130 112 87 62 61 61 111 158 167 169 171 173 175 149 117 156 133 46 45 44 56 66 49 32 137 82 82 59 101 77 95 133 64 83 102 120 126 131 92 150 51 162 63 59 49 51 52 52 52 53 53 53 53 54 57 65 61 57 83 108 122 125 127 130 132 135 137 140 145 149 154 159 163 168 172 177 185 192 197 200 203 206 215 130 45 66 87 69 73 74 69 65 149 150 151 141 139 136 133 129 126 122 119 116 113 110 107 108 99 91 150 210 208 207 205 204 202 136 71 60 67 74 81 90 89 80 
129 144 160 135 109 78 60 60 110 154 169 170 172 174 169 137 169 78 66 53 53 52 52 74 95 117 66 66 66 66 76 72 86 76 65 85 104 124 130 135 119 57 100 84 68 53 48 52 53 53 53 54 54 54 54 54 61 80 76 53 84 109 120 122 125 127 130 134 138 140 143 148 153 157 162 167 171 176 182 190 196 198 201 206 213 216 160 48 69 62 66 71 69 65 146 147 147 148 145 141 138 134 131 127 124 121 117 114 111 116 114 106 165 210 209 207 205 204 156 62 69 76 84 91 98 105 96 87 
126 119 149 157 132 102 67 58 105 149 172 173 174 176 157 189 220 128 36 41 46 50 50 52 58 79 65 61 57 54 50 58 65 73 64 74 89 109 133 139 145 54 152 121 184 48 48 53 54 54 54 55 55 55 55 55 65 89 91 50 83 111 117 120 123 128 132 137 139 139 142 147 151 156 161 165 170 175 180 188 194 197 200 205 211 214 218 189 51 55 59 64 68 65 143 144 146 147 146 144 143 139 136 132 129 125 122 119 116 121 126 120 186 211 209 207 206 204 110 67 75 82 89 97 104 103 102 93 
78 90 139 160 154 127 92 57 101 145 174 175 176 177 164 151 138 89 39 44 49 49 49 49 53 58 63 58 53 48 76 74 81 75 63 73 83 93 137 125 112 105 102 177 110 42 47 52 55 55 55 56 56 56 56 56 68 93 107 46 79 112 117 121 126 131 135 139 139 139 141 144 150 155 160 164 169 173 178 186 192 195 198 204 209 212 215 219 136 49 53 57 61 65 140 145 145 146 146 143 140 139 139 137 134 130 127 124 121 125 130 135 213 211 209 207 206 158 90 73 81 88 95 102 103 101 104 100 
30 79 128 164 157 151 101 50 109 140 177 178 178 178 157 165 210 92 42 47 47 47 47 47 48 53 95 57 50 42 102 44 97 62 61 72 89 87 114 129 127 156 52 67 81 42 47 51 56 56 56 56 56 57 57 57 72 97 122 42 78 115 120 124 129 134 138 138 138 138 140 144 147 154 158 163 168 172 177 183 191 194 196 204 207 210 213 217 220 44 46 47 49 103 143 144 145 146 146 143 141 138 135 135 135 135 132 128 125 130 143 163 213 211 209 208 206 138 70 78 86 94 101 108 94 98 102 106 
30 62 115 167 161 154 94 43 102 161 179 179 179 179 165 136 108 77 45 45 45 45 45 45 46 49 126 59 53 47 62 88 69 50 67 84 101 80 92 133 141 155 49 56 136 42 47 53 58 54 56 57 57 57 57 57 76 101 123 44 80 118 123 127 132 137 138 138 138 138 140 143 146 149 157 162 166 171 176 181 189 192 195 202 205 208 211 215 219 189 43 39 34 141 142 143 144 145 146 144 141 138 135 133 131 130 130 130 130 151 171 192 212 212 211 211 180 112 80 86 92 100 107 101 92 96 102 103 
31 42 95 162 164 158 97 36 98 160 179 180 180 180 173 145 128 174 49 46 45 45 45 44 44 44 140 46 52 51 56 60 49 54 80 97 95 74 69 137 148 154 45 45 191 42 49 56 59 55 53 55 57 58 58 58 80 102 124 45 83 121 126 130 135 138 138 137 137 137 139 142 145 149 152 161 165 170 174 179 187 190 194 200 203 206 209 213 218 222 47 39 32 142 141 142 143 144 145 144 141 138 136 133 130 127 126 126 165 186 206 210 213 216 216 200 153 85 91 96 102 107 113 86 92 97 103 100 
31 22 89 156 159 161 99 38 97 159 180 180 180 181 181 164 147 118 53 50 47 45 45 45 44 82 153 32 38 44 50 48 47 59 84 109 88 67 46 141 147 153 108 62 142 108 53 60 61 56 52 51 53 55 57 59 81 103 125 47 86 124 129 133 137 137 137 137 137 137 138 141 145 148 151 155 164 169 173 178 184 189 193 198 201 204 208 212 217 221 136 35 30 143 142 141 142 143 144 144 142 139 136 133 130 128 125 122 200 204 207 211 214 217 220 173 127 95 101 107 107 108 109 94 93 98 102 97 
31 25 87 154 174 152 101 40 97 158 180 180 181 178 175 151 106 61 58 54 51 48 45 45 58 119 111 46 45 51 48 46 44 63 67 50 105 84 98 146 136 126 162 117 145 174 88 64 62 58 54 49 49 51 53 81 122 125 119 52 89 127 132 136 137 137 137 136 136 136 137 141 144 147 150 154 158 167 172 177 182 187 192 196 199 203 207 211 215 220 224 32 31 144 143 142 141 142 143 144 142 139 136 133 131 128 125 134 203 205 209 212 215 218 201 151 100 101 102 103 104 105 106 101 94 99 101 93 
31 27 78 151 190 144 98 41 99 157 180 177 175 172 170 167 122 57 55 53 51 49 47 45 85 37 68 60 51 49 47 44 42 51 59 47 59 101 127 139 124 99 112 171 101 30 49 68 64 59 55 51 47 48 63 99 123 128 113 57 92 130 135 137 136 136 136 136 136 136 137 140 143 146 150 153 156 162 171 175 180 186 190 194 197 202 206 210 214 219 220 28 32 145 144 143 142 141 142 143 142 139 137 134 131 128 126 146 206 207 210 213 217 213 183 132 100 98 98 99 100 101 102 103 95 100 99 90 
32 30 70 140 185 150 97 43 102 143 179 177 173 167 164 161 137 52 50 48 47 46 46 62 49 64 66 62 53 51 50 47 45 69 77 43 56 68 133 131 129 102 62 75 88 144 127 110 99 88 77 66 55 44 77 109 125 130 106 62 97 133 136 136 136 136 136 135 135 135 136 139 142 146 149 152 155 159 165 174 179 184 188 192 196 200 205 210 214 218 216 120 36 146 145 144 143 142 142 142 143 140 137 134 131 129 126 158 209 210 212 215 215 205 164 115 101 95 95 96 97 98 99 100 96 98 98 87 
32 32 62 130 180 164 110 47 106 138 179 177 175 173 166 160 153 48 48 47 47 47 47 61 60 62 64 64 55 52 51 51 48 46 95 40 57 98 119 125 122 120 42 107 31 39 46 79 83 72 61 50 46 60 90 119 126 133 100 67 102 136 136 136 135 135 135 135 135 135 135 138 142 145 148 151 155 158 161 168 178 183 186 191 195 200 205 209 214 214 213 211 40 147 146 145 144 143 141 142 143 140 137 134 132 129 127 170 212 213 215 216 206 196 147 107 101 95 92 93 94 95 95 96 97 97 96 84 
32 35 54 119 175 159 124 50 96 137 178 176 174 172 170 166 159 53 48 48 48 48 55 57 58 60 62 64 57 52 52 51 51 49 73 97 62 83 105 118 116 96 126 119 44 52 59 48 66 55 48 47 47 76 104 120 118 125 85 74 109 135 137 136 135 135 135 134 134 134 134 138 141 144 147 151 154 157 160 164 172 181 186 190 195 200 205 209 212 210 210 212 84 141 132 140 145 144 142 141 142 140 138 135 132 133 133 131 173 174 189 218 207 182 131 108 101 95 89 90 91 92 92 98 96 95 95 81 
32 37 46 108 170 154 137 54 95 136 178 176 173 171 169 167 165 59 49 49 49 48 53 55 56 58 60 62 59 53 52 52 51 51 50 67 84 58 68 112 92 73 102 131 169 50 50 50 50 49 49 48 63 88 113 121 115 117 69 81 132 135 138 138 137 136 135 134 134 134 134 137 140 143 147 150 153 156 160 163 166 175 183 190 195 200 204 209 208 209 211 214 128 135 108 116 124 132 140 142 141 141 138 137 138 139 139 136 134 163 191 220 209 169 114 108 102 96 90 87 88 91 99 97 95 94 93 78 
33 40 41 112 174 157 143 57 95 136 177 175 173 171 169 165 146 64 54 49 49 49 51 53 54 56 58 60 62 53 53 52 52 51 49 90 107 81 55 29 150 49 84 119 40 44 47 48 48 48 49 49 73 97 118 123 116 109 54 105 131 134 137 140 140 139 137 136 135 134 133 136 139 142 146 149 152 155 158 161 164 171 178 185 194 199 204 206 208 210 212 215 172 129 85 93 101 109 117 125 133 141 142 144 145 146 145 136 143 171 197 222 210 147 104 102 98 93 89 84 92 100 98 96 95 93 92 75 
33 35 37 107 177 163 150 59 97 135 177 174 172 169 166 163 128 79 64 49 48 49 50 51 52 54 56 58 59 55 53 53 52 51 48 89 129 101 73 58 49 51 70 106 44 45 45 46 46 47 47 60 82 106 119 124 117 73 73 128 131 134 136 139 142 141 140 138 137 136 135 135 138 141 144 147 150 153 156 160 163 168 175 182 190 197 204 206 209 211 214 216 199 98 84 85 76 79 87 95 103 111 121 132 142 153 138 122 152 181 208 221 182 116 95 94 91 86 82 88 101 99 97 96 94 92 90 71 
44 38 32 104 176 170 156 62 100 138 176 173 169 166 163 160 109 94 73 48 47 49 51 51 51 52 54 56 57 57 54 53 53 50 47 80 114 116 95 85 75 65 55 51 47 43 43 44 45 45 49 71 93 115 120 125 81 36 101 129 132 135 138 141 141 142 142 140 139 138 137 136 137 139 142 145 148 152 155 158 161 165 172 180 187 194 201 207 206 210 215 220 225 68 83 93 84 76 67 64 72 80 91 102 109 138 167 147 159 190 220 220 153 86 85 84 83 79 80 98 94 92 90 89 87 91 86 68 
56 49 57 103 174 168 162 64 100 135 175 179 170 163 160 157 124 97 63 46 47 49 51 52 52 53 53 54 55 57 54 54 52 50 50 46 89 132 122 111 101 82 53 51 50 46 42 42 43 43 61 82 108 115 118 94 49 75 128 131 134 136 139 140 141 142 142 142 141 140 139 137 136 139 141 144 147 150 153 156 159 163 170 177 184 191 197 203 209 209 209 210 215 140 82 96 93 84 76 67 59 50 58 65 73 124 197 172 166 197 215 180 118 74 73 73 72 72 96 102 87 85 83 86 92 94 82 65 
67 68 82 97 173 169 165 96 95 133 175 178 181 172 163 154 121 87 54 46 47 49 51 52 54 54 54 54 54 55 55 53 52 52 52 49 44 78 109 137 108 79 50 49 47 46 44 40 41 50 73 100 114 115 115 62 52 114 129 132 135 138 139 139 140 141 142 142 143 142 141 139 138 138 141 143 146 148 151 155 158 161 167 174 182 188 194 200 206 212 212 211 211 211 82 95 101 92 84 76 70 64 58 47 36 119 202 187 173 201 193 141 84 61 61 65 73 90 117 89 80 80 87 93 99 90 78 62 
78 93 107 122 167 167 167 129 90 132 174 177 181 184 172 159 121 82 44 46 47 49 51 52 54 55 55 55 55 55 55 55 55 55 55 53 58 67 59 136 106 77 48 47 45 44 42 41 39 66 93 114 114 99 69 31 89 128 131 133 136 137 138 139 139 140 141 142 143 143 142 141 140 139 140 143 145 148 150 153 156 159 164 172 178 184 190 196 202 208 214 214 214 214 82 96 109 103 97 91 85 79 73 67 56 123 206 192 195 206 154 101 49 58 66 75 83 107 97 75 81 88 94 100 98 86 74 59 
72 87 112 136 161 168 167 132 93 133 173 174 175 176 177 165 126 79 46 47 48 49 51 52 54 55 56 56 56 66 75 55 57 57 57 56 72 99 68 134 104 75 46 44 43 41 40 41 52 83 113 98 83 60 53 87 126 129 132 135 136 136 137 138 139 140 140 141 142 143 144 143 142 141 140 142 145 147 150 152 155 158 162 169 175 181 187 193 199 205 211 217 217 217 110 88 101 111 106 101 96 90 85 80 75 135 211 205 187 139 87 59 57 68 76 85 97 100 81 76 89 95 101 105 94 82 70 56 
66 75 96 121 155 176 168 135 96 136 172 174 173 172 171 170 115 59 49 50 51 52 53 54 55 56 57 67 76 86 95 64 54 56 58 60 66 71 77 133 103 73 43 42 40 42 44 45 66 73 58 43 51 75 104 125 128 131 133 134 135 136 137 137 138 139 140 141 141 142 143 144 144 143 141 141 144 146 149 151 154 156 159 165 171 177 183 189 195 201 207 213 219 219 138 81 93 106 113 108 103 98 92 87 84 118 215 167 120 72 70 68 65 76 86 95 102 87 74 77 96 102 109 101 90 78 66 52 
60 69 81 105 149 185 168 136 99 139 170 175 176 175 173 157 94 50 51 52 53 54 55 56 57 58 58 52 61 71 92 93 52 64 76 48 94 100 77 108 114 77 41 43 44 46 47 49 55 60 66 77 99 121 124 127 129 132 133 134 134 135 136 137 138 138 139 140 141 141 142 143 144 144 143 142 143 146 148 151 153 156 160 164 168 173 179 185 191 198 204 210 216 222 191 98 87 98 110 115 110 105 100 94 94 95 161 113 87 82 78 76 74 84 95 105 93 80 68 79 97 110 109 98 86 74 63 49 
55 63 71 90 143 193 169 137 102 138 169 173 178 177 176 144 74 53 53 54 55 56 57 58 59 59 59 73 46 56 89 133 31 68 105 35 82 128 77 83 88 94 43 42 43 45 47 64 78 88 94 110 122 124 126 129 130 131 132 133 134 134 135 136 137 138 138 139 140 141 142 142 143 144 145 144 143 145 148 150 153 156 160 165 169 173 177 181 187 193 199 205 212 218 205 114 82 92 102 115 117 112 107 102 103 105 106 101 97 92 87 84 82 92 103 87 78 70 61 80 98 117 105 94 82 70 59 46 
49 57 66 74 138 201 169 137 105 136 167 172 177 179 178 131 54 55 56 57 57 58 60 61 61 61 61 93 67 41 78 115 83 52 81 56 60 64 43 83 122 55 45 41 42 44 62 79 93 108 122 122 123 126 128 129 130 130 131 132 133 134 134 135 136 137 138 139 139 140 141 142 143 143 144 145 145 145 147 150 153 157 161 165 170 174 178 182 186 190 195 201 207 213 220 131 78 88 98 107 119 119 114 111 112 112 110 107 105 102 97 93 90 100 85 69 68 67 84 103 122 108 95 84 74 63 53 43 
43 51 60 69 142 205 198 166 103 135 166 170 175 180 181 119 81 43 53 59 60 61 62 62 62 62 62 114 88 66 89 112 135 36 57 77 62 73 110 50 82 65 47 40 42 59 77 94 108 118 123 123 125 126 127 128 129 130 130 131 132 133 134 134 135 136 137 138 139 139 140 141 142 143 143 144 145 145 147 149 154 158 162 166 170 174 179 183 187 191 195 200 204 209 215 174 74 84 93 103 113 124 121 120 119 116 114 111 108 106 103 101 98 91 84 77 73 81 108 126 113 100 86 73 61 51 41 72 
37 46 54 63 136 209 202 195 100 132 164 169 174 178 183 145 108 70 32 42 53 63 63 63 63 63 63 135 67 72 76 81 85 90 94 99 45 51 57 63 69 75 130 39 57 74 92 109 114 118 123 124 125 125 126 127 128 129 130 130 131 132 133 134 135 135 136 137 138 139 139 140 141 142 143 144 144 145 146 150 154 159 163 167 171 175 179 184 188 192 196 200 204 209 213 217 70 80 89 99 109 118 128 124 121 117 114 110 107 103 99 96 92 89 85 82 78 105 131 118 104 91 78 65 51 38 69 100 
