P2
#CREATOR : MyProgram
128 128
255
162 162 163 163 164 164 165 165 166 166 167 167 168 168 148 128 107 87 103 104 106 107 108 109 111 112 113 114 116 117 118 120 121 122 123 125 126 127 128 130 131 132 133 135 136 136 136 135 135 135 135 135 135 134 134 134 134 134 134 133 133 133 133 133 133 132 132 132 132 132 132 131 131 131 127 123 119 116 112 108 104 120 137 153 153 153 153 153 154 154 154 154 154 154 154 154 155 155 155 155 155 171 188 204 220 164 107 108 108 109 109 110 110 111 112 112 113 113 114 115 115 116 116 117 117 118 145 171 
161 162 162 163 163 164 164 164 165 165 166 166 168 167 148 127 107 87 101 105 106 107 108 110 111 112 113 115 116 117 119 120 121 122 124 125 126 127 129 130 131 133 134 135 135 135 135 134 134 134 134 134 134 133 133 133 133 133 133 132 132 132 132 132 131 131 131 131 131 131 130 130 130 130 126 122 118 114 110 107 105 118 134 151 153 153 153 153 154 154 154 154 154 154 154 154 155 155 155 155 154 179 195 211 219 195 138 108 111 111 112 112 113 113 114 115 115 116 116 117 118 118 119 119 120 123 147 171 
161 161 161 162 162 163 163 164 164 165 166 168 166 167 147 127 107 87 100 103 106 107 109 110 111 113 114 115 116 118 119 120 121 123 124 125 127 128 129 130 132 133 134 134 134 134 134 133 133 133 133 133 132 132 132 132 132 132 131 131 131 131 131 131 130 130 130 130 130 130 129 129 130 128 125 121 117 113 109 107 105 116 132 149 153 153 153 153 154 154 154 154 154 154 154 154 155 155 155 155 153 151 202 210 217 210 170 115 109 112 114 115 115 116 116 117 118 118 119 119 120 121 121 122 124 127 88 49 
160 160 161 161 162 162 163 163 163 165 167 168 163 166 147 127 107 86 98 102 105 108 109 110 112 113 114 115 117 118 119 121 122 123 124 126 127 128 129 131 132 133 133 134 134 133 133 132 132 132 132 132 131 131 131 131 131 131 130 130 130 130 130 129 129 129 129 129 129 128 127 128 131 127 123 119 116 112 110 108 106 114 130 146 153 153 153 153 154 154 154 154 154 154 154 154 155 155 155 153 152 150 175 208 216 208 201 146 107 110 113 115 118 118 119 119 120 121 121 122 122 123 124 125 128 86 47 50 
159 159 160 160 161 161 162 163 165 167 169 164 163 166 146 127 106 86 97 100 103 107 109 111 112 113 115 116 117 118 120 121 122 123 125 126 127 128 130 131 132 132 133 133 133 132 132 132 131 131 131 130 130 130 130 130 130 129 129 129 129 129 129 128 128 128 128 128 127 126 126 129 130 126 122 118 114 112 110 109 107 111 128 144 152 153 153 153 154 154 154 154 154 154 154 154 155 155 154 152 151 149 147 181 214 210 207 177 122 108 111 113 116 119 121 122 122 123 124 124 125 125 126 129 85 46 48 50 
158 159 159 160 160 161 163 165 167 169 166 160 162 165 146 126 106 86 95 98 102 105 109 111 112 114 115 116 117 119 120 121 122 124 125 126 128 129 130 130 131 131 132 132 132 132 131 131 130 130 130 129 129 129 129 129 129 128 128 128 128 128 128 127 127 127 126 126 125 124 127 130 128 125 121 117 114 113 111 109 108 109 126 142 152 153 153 153 154 154 154 154 154 154 154 154 155 155 153 151 149 148 147 161 194 216 212 200 154 107 109 112 114 117 120 122 125 125 126 127 127 128 130 85 44 46 49 51 
158 158 158 159 161 163 165 167 169 167 162 159 162 165 145 126 106 86 93 97 100 103 107 110 113 114 115 116 118 119 120 122 123 124 125 127 128 129 129 130 130 131 131 132 131 131 130 130 130 129 129 129 128 128 128 128 127 127 127 127 127 127 126 126 126 125 125 124 123 125 128 131 127 123 119 117 115 113 112 110 108 107 123 140 151 152 153 153 154 154 154 154 154 154 154 154 155 154 152 150 148 148 148 147 174 211 218 214 176 130 108 110 113 115 118 121 123 126 128 129 130 131 86 43 45 47 49 51 
157 157 158 160 162 165 167 169 169 163 158 158 161 164 144 125 106 85 92 95 98 102 105 109 112 114 116 117 118 119 121 122 123 124 126 127 128 128 129 129 130 130 131 131 130 130 130 129 129 128 128 128 127 127 127 127 126 126 126 126 126 126 125 125 124 123 123 122 122 126 129 130 126 122 119 117 116 114 112 111 109 107 121 137 151 152 153 153 154 154 154 154 154 154 154 154 154 152 151 149 149 148 148 148 154 197 213 220 199 153 106 109 111 114 116 119 122 124 127 129 132 87 41 43 45 48 50 52 
156 158 160 162 164 166 169 171 165 160 155 158 160 163 144 124 105 85 90 93 97 100 104 107 110 114 116 117 118 120 121 122 123 125 126 127 127 128 128 129 129 130 130 130 130 129 129 128 128 128 127 127 127 126 126 125 125 125 125 125 125 124 123 123 122 122 121 120 124 127 130 128 125 121 120 118 116 115 113 111 110 108 119 135 151 152 152 153 154 154 154 154 154 154 154 154 153 151 150 149 149 149 148 148 148 172 209 215 222 180 138 109 112 114 117 120 122 125 127 130 88 42 43 44 46 48 50 53 
157 160 162 164 166 168 170 167 161 156 154 157 160 163 143 124 104 85 88 92 95 99 102 105 109 112 116 117 119 120 121 123 124 125 125 126 126 127 127 128 129 129 130 129 129 128 128 128 127 127 127 126 126 125 125 125 124 124 124 124 123 122 122 121 120 120 119 121 125 128 131 127 124 122 121 119 117 116 114 112 111 109 116 133 149 151 152 153 154 154 154 154 154 154 154 154 152 150 150 150 149 149 149 149 148 148 204 212 220 212 170 102 112 115 118 120 123 125 128 89 43 44 44 45 47 49 51 53 
159 161 164 166 168 170 169 163 157 152 154 156 159 162 143 123 104 84 88 91 94 97 100 104 107 111 114 117 119 120 122 123 124 124 125 125 126 126 127 127 128 128 129 128 128 128 127 127 126 126 126 125 125 125 124 124 123 123 122 122 121 120 120 119 119 118 119 122 126 129 130 126 125 123 121 120 118 116 115 113 111 110 114 131 147 151 152 153 153 154 154 154 154 154 154 153 151 151 150 150 150 149 149 149 147 146 179 210 218 215 203 148 105 116 118 121 123 126 88 44 45 45 46 46 47 49 52 54 
160 163 165 168 170 170 165 159 154 150 153 156 159 162 142 123 103 83 89 92 95 98 100 103 106 109 112 116 119 121 122 123 123 124 124 125 125 126 126 127 127 128 128 128 127 127 126 126 126 125 125 125 124 124 129 134 140 144 145 146 128 119 118 117 117 117 120 124 127 130 129 127 125 124 122 120 119 117 115 114 112 110 112 129 145 150 151 152 153 154 154 154 154 154 153 151 151 151 151 150 150 149 148 147 146 145 155 192 215 218 206 193 98 108 119 121 124 86 45 46 46 47 47 48 49 50 52 55 
162 164 167 169 172 166 161 155 150 149 152 155 158 161 141 122 102 82 90 92 95 98 101 104 107 110 112 115 118 121 122 122 123 123 124 124 125 125 126 126 127 127 127 127 126 126 126 125 125 125 130 135 141 146 151 157 162 165 166 167 168 170 151 133 115 118 121 125 128 131 129 128 126 124 123 121 119 118 116 114 113 111 109 126 143 150 151 152 153 153 154 154 154 154 152 152 152 151 151 150 149 147 146 145 144 143 142 173 197 221 212 203 151 126 124 122 84 46 47 47 48 48 49 50 50 51 53 55 
163 166 168 171 159 156 153 149 146 150 153 157 160 161 140 121 101 81 89 93 96 99 102 104 107 110 113 116 119 120 121 122 122 123 123 124 124 125 125 126 126 127 126 126 126 125 131 136 141 147 152 157 163 168 173 179 184 185 187 188 189 190 192 193 161 129 115 118 121 126 128 128 127 125 123 122 120 118 117 115 113 112 110 124 141 150 150 151 152 153 154 154 154 153 152 152 152 150 149 148 147 146 145 143 142 141 140 155 179 209 219 213 204 155 153 80 42 45 47 48 49 50 51 51 52 53 54 56 
165 167 170 171 146 143 140 136 146 153 156 160 162 162 139 120 100 80 88 93 96 99 102 105 108 111 114 116 118 120 121 121 122 123 123 124 124 124 125 125 126 126 129 132 136 139 142 145 149 152 155 158 162 165 168 171 174 175 177 178 179 181 187 193 193 194 152 111 117 121 125 125 125 125 124 122 121 119 117 116 114 112 111 121 138 149 150 151 152 153 154 154 153 153 152 151 150 149 148 146 145 144 143 142 141 139 138 137 167 196 219 218 213 185 124 39 41 44 46 47 49 50 51 52 54 54 55 56 
166 169 171 165 133 130 127 130 147 156 159 163 162 162 139 119 99 80 87 94 97 100 103 105 108 111 114 116 117 119 120 121 122 123 123 124 124 124 125 125 126 123 125 127 129 130 133 136 139 142 146 149 152 155 159 162 164 165 167 168 175 182 189 193 193 193 194 194 112 116 120 122 122 122 122 122 122 120 118 117 115 113 112 119 136 149 150 151 151 152 153 154 153 152 151 150 149 148 146 145 144 143 142 141 140 139 138 139 152 184 213 218 216 214 35 38 40 43 46 47 48 49 51 52 53 54 56 57 
168 170 169 156 120 117 114 130 147 159 162 163 163 162 140 118 98 79 86 93 97 100 103 106 109 112 114 115 117 118 119 120 121 122 123 124 124 124 125 125 123 120 122 123 125 127 129 131 133 135 137 139 143 146 149 152 154 156 162 169 176 183 190 193 193 193 194 195 197 142 115 120 119 119 119 119 119 119 118 117 116 114 112 117 134 148 149 150 151 152 152 148 153 152 151 150 148 147 146 145 144 143 142 141 140 139 140 142 146 167 201 218 216 126 36 37 39 42 45 46 48 49 50 51 53 54 56 48 
169 172 163 143 107 104 114 131 148 162 164 164 163 162 140 118 97 78 85 92 98 101 104 107 109 112 113 114 116 117 119 120 120 121 122 123 124 125 125 124 118 116 118 120 122 124 126 128 130 132 134 135 137 139 141 143 150 157 164 171 178 185 192 193 193 193 195 196 198 199 173 115 117 117 116 116 116 116 116 115 115 115 113 114 131 148 149 149 150 151 151 142 139 151 150 149 148 147 146 145 144 143 142 141 140 142 143 144 147 153 182 218 128 37 37 38 38 41 44 46 47 48 50 51 52 55 60 38 
171 168 158 130 94 97 114 131 148 165 164 164 163 163 140 118 96 77 84 91 99 101 104 107 109 111 112 114 115 117 118 119 120 121 122 122 123 124 125 119 114 113 115 117 119 121 123 125 127 128 130 133 136 139 142 142 152 158 165 172 179 186 192 193 193 194 196 197 199 200 202 203 114 114 114 113 113 113 113 113 113 112 112 112 130 149 148 148 149 150 150 136 118 144 150 149 148 147 146 145 144 143 142 142 143 144 145 146 149 155 160 104 47 39 39 39 40 40 43 45 47 48 49 50 54 59 51 29 
172 162 152 117 81 98 114 131 148 164 164 164 163 163 140 118 96 76 83 90 98 102 105 107 109 110 112 113 114 116 117 118 119 120 121 122 123 123 120 115 109 110 112 114 116 118 121 123 126 129 132 135 138 140 143 142 155 160 167 174 181 188 192 193 194 195 197 198 200 191 205 209 213 171 98 98 98 98 98 98 101 104 107 113 131 150 148 147 148 149 149 130 97 124 150 149 148 147 146 145 144 142 143 144 145 146 147 148 151 156 114 57 39 40 41 41 41 41 42 44 46 47 49 53 58 63 41 90 
158 148 129 94 83 96 114 130 147 164 164 163 163 163 141 118 96 75 82 89 97 102 105 107 108 109 111 112 114 115 116 118 118 119 120 121 122 127 115 110 105 108 111 114 116 119 122 125 128 131 133 136 139 142 139 141 156 164 169 175 182 189 192 193 195 196 198 179 203 207 211 215 219 223 227 83 86 90 93 97 100 101 98 113 132 150 149 148 147 147 148 124 91 103 129 149 148 147 146 144 143 144 145 146 147 148 149 151 152 129 68 40 41 42 43 43 43 43 43 43 46 47 51 57 62 54 102 151 
144 134 107 83 84 92 112 130 147 163 163 163 163 163 140 118 96 74 81 89 96 103 104 106 107 109 110 111 113 114 116 117 118 119 120 120 121 114 110 105 106 109 112 115 118 121 124 126 129 132 135 138 141 144 133 140 155 167 172 178 184 191 193 194 186 167 202 205 209 213 217 221 222 223 224 176 86 89 93 96 96 93 96 114 133 151 150 149 148 146 147 119 85 82 108 135 147 146 145 144 145 146 147 148 149 151 152 153 154 78 41 42 43 44 44 44 45 45 45 45 45 50 56 61 66 105 144 151 
130 120 84 85 86 87 107 127 146 163 162 162 162 162 140 118 96 75 83 90 97 102 104 105 106 108 109 111 112 114 115 116 117 118 119 120 129 109 104 105 107 110 114 117 120 122 125 128 131 134 137 139 142 141 127 139 154 169 176 181 187 192 174 155 190 204 208 212 214 215 216 217 218 219 220 221 130 89 92 90 87 84 97 115 133 152 151 149 148 147 146 113 79 61 87 114 140 146 145 146 147 148 149 150 151 152 153 154 98 41 42 43 44 45 46 46 46 47 47 47 46 51 56 62 98 137 152 151 
115 97 86 87 88 89 102 122 142 162 162 162 162 162 140 118 95 77 84 91 98 100 103 104 106 107 109 110 111 113 114 116 117 117 118 138 109 104 103 106 108 111 114 118 121 124 127 130 132 135 138 141 144 135 124 139 153 168 179 184 169 143 178 202 206 208 209 210 211 212 213 214 215 216 217 218 219 88 85 82 79 79 97 116 134 153 151 150 149 148 144 109 75 40 67 93 120 146 147 148 149 149 150 151 152 153 154 127 42 43 44 45 46 47 48 48 48 48 48 46 47 52 57 91 131 152 152 150 
101 86 87 88 89 90 98 118 139 162 162 162 161 161 139 117 93 78 85 92 96 99 102 104 105 106 108 109 111 112 113 115 116 117 118 131 104 102 104 107 109 112 115 119 122 126 128 131 134 137 140 143 142 129 123 138 153 167 182 145 173 200 201 202 203 204 206 207 208 209 210 211 212 213 214 216 217 215 141 73 70 80 98 116 135 153 152 151 150 150 141 107 72 43 49 88 127 138 144 148 149 150 151 152 153 154 155 72 44 45 46 47 48 49 50 50 50 50 50 43 48 53 83 124 152 153 152 150 
87 88 89 90 91 92 93 116 139 162 161 161 161 161 139 117 91 79 86 92 95 98 101 103 104 106 107 108 110 111 113 114 115 116 154 103 101 103 105 108 110 112 116 119 123 126 130 133 136 138 141 144 137 123 123 137 152 172 154 181 196 198 199 200 201 202 203 204 205 207 208 209 210 211 212 213 216 218 211 136 62 80 99 117 136 154 153 153 152 151 139 105 70 45 41 58 97 130 138 143 148 151 152 153 154 154 100 44 45 46 47 48 49 50 51 52 52 52 47 44 49 74 117 152 153 153 152 150 
87 89 90 91 92 93 94 116 139 162 161 161 161 161 138 115 88 80 88 91 94 97 99 102 103 105 106 108 109 111 112 113 115 134 133 99 102 104 106 108 111 113 117 120 124 127 131 134 137 140 143 144 131 118 122 137 163 163 190 192 194 195 196 198 199 200 201 202 203 204 205 207 208 209 210 211 214 217 220 206 132 85 103 122 127 150 155 154 153 153 137 102 73 48 40 42 66 109 131 136 141 146 151 153 154 127 45 46 47 48 49 50 51 52 53 54 54 52 41 45 65 110 149 153 153 153 152 150 
88 90 92 93 94 95 96 117 139 162 161 161 160 160 138 113 86 82 87 90 93 95 98 101 103 104 105 107 108 110 111 113 114 170 98 100 103 105 107 109 112 114 117 121 124 128 131 135 138 142 144 138 125 112 121 153 171 186 188 189 191 193 194 195 196 198 199 200 201 202 203 204 205 206 208 209 212 215 218 221 202 89 95 101 120 146 153 156 155 154 135 100 75 51 40 42 44 77 124 129 134 140 145 150 155 81 46 47 48 50 51 52 53 54 55 55 55 47 40 56 101 142 153 154 153 153 152 150 
88 91 93 94 95 96 97 118 139 162 161 161 160 160 137 110 83 83 86 89 91 94 97 100 102 103 105 106 108 109 110 111 166 158 99 101 104 106 108 110 113 115 118 122 125 129 132 136 139 143 146 133 119 106 143 180 182 184 185 187 189 191 192 193 194 195 196 197 199 200 201 202 203 204 205 208 210 213 216 219 222 198 74 87 120 142 149 157 156 156 132 103 78 54 39 41 43 45 120 195 193 191 189 187 118 59 46 48 49 50 52 53 54 55 56 57 53 42 46 91 135 154 154 154 153 153 152 149 
88 91 94 96 97 98 99 120 141 162 161 161 160 159 135 108 81 82 85 87 90 93 96 98 101 102 103 104 106 107 108 109 217 147 100 102 105 107 109 111 114 116 119 122 126 129 133 136 140 139 130 117 116 153 176 178 179 181 183 185 187 188 189 191 192 193 194 195 196 197 198 200 201 202 203 206 209 212 214 217 220 223 53 86 119 138 145 153 158 157 130 105 81 56 38 40 42 142 193 197 201 207 212 218 80 53 47 48 49 51 52 54 55 56 58 59 48 37 82 127 154 154 155 154 154 153 151 149 
89 91 94 97 98 99 100 121 142 163 163 162 160 159 132 105 78 81 84 87 90 93 96 99 101 101 101 102 104 105 106 107 206 136 102 104 106 108 110 112 115 117 120 123 127 130 134 136 132 128 115 125 162 171 174 176 177 179 181 183 184 186 187 188 189 191 192 193 194 195 196 197 198 199 201 204 207 210 213 216 218 217 157 86 119 134 141 149 156 159 133 108 84 59 38 40 165 192 195 199 202 207 213 219 211 46 47 48 50 51 52 53 54 56 57 57 50 64 118 154 154 155 155 154 154 153 151 149 
89 92 94 97 99 100 101 123 144 163 164 164 162 161 134 107 79 82 85 88 91 93 96 99 100 102 101 101 102 103 104 160 195 125 103 105 107 109 111 113 116 118 120 124 127 131 129 125 121 112 135 165 167 169 172 174 175 177 178 180 182 184 185 186 187 188 189 191 192 193 194 195 196 197 200 203 205 208 211 214 215 210 206 122 118 130 137 145 152 160 135 111 86 62 37 187 190 194 197 200 204 208 213 219 209 46 46 47 49 50 51 52 54 55 56 56 51 90 154 155 155 156 155 154 154 153 151 149 
90 92 94 97 100 102 103 124 144 164 165 166 164 163 136 109 79 82 85 88 91 94 97 98 100 102 102 101 101 101 102 213 170 114 104 106 108 110 112 114 117 119 121 125 125 121 118 114 110 144 161 163 165 167 170 172 173 174 176 178 180 181 182 184 185 186 187 188 189 190 192 193 194 195 198 201 204 207 209 211 209 204 200 195 118 127 137 146 155 158 132 92 52 101 200 192 189 196 199 202 206 209 214 220 206 47 47 47 48 49 50 51 53 54 55 54 53 128 155 155 156 156 155 154 154 153 151 148 
90 92 95 97 101 103 104 125 145 165 166 167 166 165 138 110 80 83 86 89 92 95 96 98 100 101 103 102 101 101 100 218 161 103 105 107 109 111 114 116 118 120 122 127 133 138 143 149 154 156 159 161 163 165 168 170 171 172 174 176 177 179 180 181 182 184 185 186 187 188 189 190 191 193 196 199 202 205 207 207 202 198 193 193 180 132 141 150 156 157 144 104 159 213 205 198 190 192 198 204 207 211 214 220 204 47 47 47 47 48 49 50 52 53 53 52 102 152 156 156 156 156 155 154 154 153 151 148 
90 93 95 98 101 104 106 126 146 165 166 167 168 167 140 110 81 84 87 90 93 94 96 98 99 101 103 103 102 101 122 208 151 112 105 107 109 111 113 116 118 120 123 128 134 139 144 150 152 154 157 159 161 163 166 168 169 170 172 173 175 177 178 179 180 181 182 184 185 186 187 188 189 192 195 197 200 202 203 200 196 191 191 192 181 165 146 153 154 155 156 191 209 211 210 203 196 188 194 200 206 213 216 221 201 47 47 47 47 47 48 50 51 52 51 88 150 153 156 157 157 156 155 154 154 153 150 148 
91 93 95 98 101 104 107 127 146 166 167 168 169 169 141 111 81 84 87 90 92 94 96 97 99 101 103 103 103 102 144 198 141 120 105 107 109 111 113 115 118 120 124 129 134 140 145 149 150 152 155 157 159 161 164 166 167 168 169 171 173 174 175 177 178 179 180 181 182 183 185 186 187 190 193 196 198 199 199 194 190 188 189 190 182 166 150 163 177 190 203 205 207 209 210 207 201 193 190 197 203 209 215 221 199 48 48 48 48 47 47 49 50 51 75 131 149 154 157 157 157 156 155 154 154 153 150 148 
91 93 96 98 101 104 107 128 147 166 168 169 170 171 141 112 82 85 88 90 92 94 95 97 99 100 102 104 104 100 163 188 149 129 108 107 109 111 113 115 117 120 125 130 135 141 145 147 149 151 153 155 157 159 162 164 165 166 167 169 170 172 173 174 175 177 178 179 180 181 182 183 185 188 191 194 195 195 192 188 185 186 187 189 183 167 165 179 192 200 202 203 204 206 208 210 204 198 191 193 199 205 212 219 119 48 48 48 48 48 48 48 49 61 111 142 148 153 158 157 157 156 155 155 154 152 150 148 
91 94 96 99 101 104 107 129 148 167 168 169 170 171 142 112 83 86 88 90 92 93 95 97 98 100 102 104 104 96 181 178 158 137 117 107 109 111 113 115 117 120 125 131 136 141 143 145 147 149 151 153 155 157 160 162 163 164 165 166 168 170 171 172 173 174 175 177 178 179 180 181 184 187 189 190 191 190 186 182 183 185 186 187 183 168 181 194 196 199 201 203 204 205 206 208 207 201 195 189 196 203 211 218 38 44 50 49 49 49 49 48 48 92 136 143 150 157 158 157 157 156 155 155 154 152 150 147 
92 94 97 99 101 104 107 130 150 164 168 169 170 171 142 113 83 86 88 89 91 93 95 96 98 100 102 103 105 91 198 187 166 146 125 107 109 111 113 115 117 121 126 132 137 139 141 143 145 147 149 151 153 155 158 160 161 162 162 164 166 167 168 170 171 172 173 174 175 177 178 179 182 185 186 187 187 184 180 181 182 183 184 185 184 183 191 193 195 198 200 203 204 204 205 206 207 204 198 180 198 204 210 216 38 41 47 51 51 51 50 50 73 117 142 149 157 159 158 157 157 156 155 155 154 152 150 147 
92 95 97 99 102 104 108 130 151 161 165 169 170 171 142 113 84 86 88 90 91 93 95 97 99 101 103 103 98 89 216 195 175 154 134 113 109 111 113 115 117 122 127 133 136 138 140 142 143 145 147 149 151 153 156 158 159 160 160 162 164 165 166 167 168 170 171 172 173 174 175 178 180 182 183 183 182 178 178 179 180 181 183 184 185 187 190 192 194 197 199 202 204 204 205 206 206 207 189 171 186 207 213 126 39 42 45 50 53 53 52 52 98 142 149 156 159 159 158 157 157 156 155 155 154 152 149 147 
93 95 97 100 102 105 108 130 153 157 162 166 170 171 142 114 86 87 89 91 93 95 96 98 100 102 100 96 91 87 217 203 184 163 143 122 108 111 113 115 117 123 128 132 134 136 138 140 142 144 146 147 149 152 154 156 157 158 158 159 161 163 164 165 166 167 168 170 171 172 173 176 178 178 179 180 176 175 176 177 179 180 182 186 186 187 189 191 194 196 198 201 203 204 205 205 206 186 180 162 166 202 216 36 39 42 45 48 53 54 54 67 123 148 155 158 160 159 158 158 157 156 155 155 154 151 149 147 
93 95 98 100 102 105 108 130 152 158 161 165 168 171 143 116 88 88 90 92 94 96 98 99 101 98 93 89 87 85 217 204 190 172 151 131 110 110 113 115 118 124 128 130 132 134 136 138 140 142 144 146 148 150 152 154 155 156 156 157 159 160 161 163 164 165 166 167 168 170 171 173 174 175 175 174 172 174 175 176 179 186 188 188 188 189 190 191 193 195 197 200 202 204 205 205 197 165 159 153 146 182 219 37 37 41 45 49 52 55 56 96 147 154 157 160 160 159 158 158 157 156 155 155 154 151 149 147 
93 96 98 100 103 105 108 130 151 160 163 167 170 171 146 118 90 84 91 93 95 97 99 100 95 91 89 87 85 83 218 204 191 177 160 139 119 110 112 115 119 125 127 129 131 132 134 136 138 140 142 144 146 148 150 145 132 154 154 155 157 158 159 160 161 163 164 165 166 167 169 170 171 171 172 170 171 172 176 183 190 189 189 189 189 190 191 192 194 195 196 199 201 204 204 205 169 144 138 132 126 189 129 37 38 39 43 47 50 54 58 124 154 156 159 161 160 159 158 158 157 156 156 155 153 151 149 146 
94 96 98 101 103 106 108 129 150 162 165 169 171 172 146 120 92 79 93 95 96 98 97 93 91 89 87 85 83 81 218 205 191 178 164 148 127 110 112 115 120 123 125 127 129 131 133 135 136 138 140 142 144 146 148 136 123 111 128 153 154 156 157 158 159 160 161 163 164 165 166 166 167 168 167 168 173 180 187 191 191 191 191 191 191 191 192 194 195 196 198 199 200 203 204 187 142 123 117 122 159 221 38 38 38 38 40 44 48 52 87 153 156 159 161 161 160 159 159 158 157 156 156 155 153 151 148 146 
94 96 99 101 104 106 107 128 149 164 167 170 171 172 146 120 95 74 88 96 98 95 93 91 89 87 85 83 81 79 219 205 192 178 165 151 136 115 112 116 119 121 123 125 127 129 131 133 135 137 139 142 144 147 139 127 114 102 89 77 152 146 140 134 129 123 117 111 116 122 114 82 50 164 171 177 184 190 192 192 192 192 192 192 192 192 193 195 196 197 199 200 201 203 204 159 114 102 119 147 192 133 41 40 39 39 39 42 46 50 116 154 158 161 162 161 160 159 159 158 157 156 156 155 153 151 148 146 
94 97 99 102 104 106 106 128 148 166 169 170 171 173 147 121 95 69 83 97 96 94 93 92 90 89 88 86 85 82 219 206 192 179 165 152 138 124 112 116 118 120 121 123 126 128 131 133 135 138 140 143 145 139 130 118 105 93 79 85 138 128 110 93 75 57 62 68 73 78 83 64 35 173 180 187 194 194 194 194 194 194 194 194 194 194 195 196 197 199 200 201 203 147 92 90 87 115 143 171 164 44 43 42 42 41 40 40 43 78 149 155 160 163 162 161 160 160 159 158 157 156 156 155 153 150 148 146 
95 97 100 102 104 107 105 128 148 168 169 171 172 173 147 121 95 69 82 96 98 99 98 96 95 94 92 91 90 84 172 209 195 181 167 153 140 126 112 114 117 119 122 124 127 129 132 134 136 139 141 144 138 132 121 109 95 81 66 93 123 107 105 87 69 79 53 51 50 48 47 45 193 181 188 192 193 193 194 195 195 195 195 195 195 195 196 197 198 200 201 146 109 98 110 110 115 149 172 195 44 45 44 44 43 43 42 42 41 111 150 156 162 163 162 161 160 160 159 158 157 156 156 155 153 150 148 145 
95 98 100 102 105 107 104 128 148 167 170 171 172 173 147 121 95 69 82 96 97 99 100 101 100 98 97 96 94 87 124 212 198 184 171 157 144 132 112 115 118 120 123 125 128 130 133 135 137 140 142 137 131 125 111 97 82 68 64 100 109 86 83 81 63 100 50 48 47 45 101 185 110 190 191 191 192 192 193 193 194 195 196 197 197 197 197 198 200 154 126 99 104 117 129 130 142 177 211 45 45 46 46 45 44 44 43 43 72 144 151 157 164 163 162 161 161 160 159 158 157 156 156 155 152 150 148 145 
96 98 100 103 105 107 103 128 148 165 170 171 172 174 147 121 95 69 81 95 97 98 100 101 103 103 101 100 99 90 77 216 202 188 176 164 152 141 111 114 117 120 123 126 129 131 134 136 138 141 135 129 109 99 88 84 70 56 72 108 94 64 62 59 57 122 47 45 72 132 166 164 193 188 188 189 190 191 192 192 193 194 194 195 196 197 198 171 143 116 96 110 123 136 147 150 170 204 45 45 46 46 47 46 45 45 44 44 102 145 152 159 163 163 162 161 161 160 159 158 157 157 156 154 152 150 147 145 
96 98 101 103 105 106 102 128 148 164 168 171 173 174 147 121 95 69 81 95 96 98 99 101 102 104 105 105 103 93 86 219 207 196 184 172 161 108 111 114 117 120 123 126 129 132 135 137 139 134 114 94 83 72 62 51 47 43 80 116 80 43 58 74 89 67 44 79 113 148 182 195 190 186 185 186 187 188 189 190 192 192 193 194 195 159 46 133 105 102 116 129 142 156 165 171 198 44 45 46 47 47 48 47 47 46 45 60 133 146 153 160 163 163 162 162 161 160 159 158 157 157 156 154 152 150 147 145 
96 99 101 103 106 105 101 128 148 163 167 172 173 174 148 121 95 69 81 94 96 97 99 100 102 103 105 106 108 102 95 156 213 204 193 181 169 107 110 113 116 119 123 126 129 132 135 138 118 98 78 72 65 59 52 70 43 53 89 98 89 52 80 95 62 125 80 109 139 168 198 193 188 183 182 183 184 185 186 186 187 189 190 192 119 46 71 95 108 122 135 148 161 175 183 191 43 44 45 47 47 48 48 48 48 47 46 91 141 148 154 161 162 162 162 162 161 160 159 158 157 157 156 154 152 149 147 145 
97 99 101 104 106 104 100 128 148 162 166 170 173 174 148 121 95 69 81 94 95 97 98 100 101 103 104 105 106 105 100 94 172 207 201 189 136 107 110 113 116 119 122 126 129 133 137 121 101 81 76 67 60 54 48 89 39 62 71 80 89 62 73 116 34 123 115 145 169 187 194 191 186 181 179 180 181 182 183 184 184 185 186 187 128 69 60 85 106 125 142 160 177 194 118 42 43 44 46 47 48 49 49 49 49 48 48 121 142 149 155 161 161 161 161 161 161 160 159 158 157 157 156 154 151 149 147 144 
97 99 102 104 107 103 99 126 148 160 165 169 173 175 148 122 95 69 81 93 95 96 98 99 100 101 102 103 104 105 102 97 92 205 202 198 103 107 110 114 117 121 124 128 132 135 122 104 85 65 74 71 55 49 67 108 35 44 53 62 71 71 66 99 110 121 139 158 176 191 189 188 184 179 176 177 178 179 180 181 182 182 188 191 151 92 50 74 96 118 138 155 173 59 49 44 44 45 46 47 48 50 50 50 50 49 79 137 144 150 157 160 161 161 161 161 161 160 159 158 157 157 156 154 151 149 147 144 
97 100 102 105 106 102 98 125 147 159 163 168 172 175 148 122 95 69 81 93 94 96 97 98 99 99 100 101 102 103 104 99 94 211 206 172 105 109 112 116 119 123 127 130 134 123 105 87 68 63 72 76 60 44 60 76 81 34 39 44 53 62 60 81 99 124 147 166 184 186 185 183 182 177 174 174 175 176 177 178 182 189 192 194 162 115 56 64 86 107 129 151 104 57 47 45 46 46 47 47 49 50 51 51 51 50 110 138 145 151 158 160 160 160 160 160 160 160 159 158 158 157 156 153 151 149 146 144 
98 100 103 105 105 101 96 124 147 158 162 166 171 175 149 122 96 69 81 92 93 94 95 96 97 97 98 99 100 101 102 101 96 217 210 151 107 111 114 118 122 125 129 132 125 106 88 69 51 61 70 80 71 62 53 44 127 80 33 38 43 48 53 78 103 128 153 173 184 182 180 179 177 174 171 172 172 173 177 183 190 193 195 198 172 126 79 53 75 97 129 160 101 54 46 47 47 48 48 49 49 50 51 52 52 66 133 140 146 153 159 159 159 159 159 159 159 159 159 158 158 157 156 153 151 148 146 144 
98 100 103 105 104 100 95 123 147 156 161 165 169 174 151 121 95 68 80 91 94 94 95 95 95 96 96 97 98 99 100 101 98 223 214 137 109 113 117 120 124 127 131 126 108 89 71 51 51 57 66 73 73 67 58 49 109 94 79 31 36 42 115 128 141 154 168 181 179 178 176 174 173 171 168 169 171 178 184 191 194 196 199 201 183 136 90 43 75 106 138 169 105 52 48 48 49 49 50 50 51 51 52 53 53 98 134 141 148 155 159 159 159 159 159 159 159 159 159 159 158 157 155 153 151 148 146 144 
98 101 103 106 103 99 94 122 147 155 159 164 171 172 156 126 97 67 81 90 94 96 96 97 97 98 98 98 99 99 99 100 100 182 219 123 111 115 118 122 126 129 127 109 91 56 51 55 52 53 62 66 66 67 63 54 91 114 62 46 30 163 166 169 173 176 179 181 177 175 173 171 169 167 165 172 179 185 192 195 197 200 202 205 193 147 100 56 44 72 125 178 114 49 49 50 50 51 51 52 52 53 53 54 54 129 137 144 152 159 159 159 159 158 158 158 158 158 158 158 158 157 155 153 150 148 146 143 
99 101 104 106 102 98 93 121 147 154 158 166 173 171 158 132 102 69 83 90 93 96 98 98 99 99 100 100 100 101 101 101 112 138 223 109 113 117 120 124 128 129 110 75 48 52 55 59 52 49 59 59 59 60 60 58 72 134 82 29 145 155 166 171 174 177 180 180 175 173 171 169 167 166 169 180 186 193 196 198 201 203 206 208 204 157 113 69 44 45 49 172 108 56 50 50 50 51 51 52 52 52 53 53 83 133 140 148 156 159 159 159 159 158 158 158 158 158 158 158 158 157 155 153 150 148 145 143 
99 102 104 105 101 96 92 120 147 153 160 168 175 169 156 137 105 70 85 89 92 95 98 100 101 101 101 102 102 102 103 103 124 120 176 116 118 121 124 127 130 95 60 48 52 55 59 62 53 45 51 52 52 53 53 54 54 154 37 111 153 155 158 168 175 178 182 180 174 172 170 168 167 168 172 183 194 197 199 202 204 207 209 212 214 170 126 82 48 42 84 167 109 64 51 51 50 50 51 51 52 52 53 53 113 137 144 152 159 159 159 159 159 158 158 158 158 158 158 157 157 157 155 152 150 148 145 143 
100 102 104 104 100 95 91 119 147 155 162 170 177 168 155 142 107 72 85 88 91 94 97 100 102 103 103 103 104 104 104 115 137 132 128 124 123 126 129 129 105 45 49 52 56 59 63 66 53 41 44 45 45 47 49 51 52 44 77 147 162 163 165 168 171 180 183 179 174 170 168 168 169 170 176 187 191 192 195 197 200 202 205 207 209 181 137 94 51 49 85 161 116 71 52 52 51 51 51 51 52 52 52 68 129 141 148 156 159 159 159 159 159 158 158 158 158 158 158 157 156 155 154 152 150 147 145 143 
100 102 105 103 99 94 90 118 145 156 164 171 179 167 156 139 109 74 84 87 90 94 97 100 103 104 105 105 105 106 106 127 149 144 95 131 129 132 128 121 79 56 46 51 56 61 65 70 54 37 39 42 44 46 48 51 49 43 113 169 170 171 173 176 178 181 184 179 173 168 169 170 171 172 180 186 187 189 190 193 195 198 200 203 204 190 147 95 54 54 53 136 124 79 53 53 52 52 52 52 51 52 52 97 133 145 152 160 159 159 159 159 159 158 158 158 158 158 157 156 155 154 153 152 150 147 145 142 
100 103 105 102 98 93 89 117 144 158 165 173 178 170 158 136 111 76 84 87 90 93 96 99 102 105 106 107 107 107 118 140 161 134 62 98 134 127 120 113 90 66 43 48 52 57 60 71 64 43 39 41 43 46 48 50 47 157 149 178 178 179 180 183 186 189 128 82 96 110 136 172 173 174 181 182 184 186 187 189 191 194 196 198 199 200 139 79 58 56 53 112 144 86 54 54 53 53 53 53 52 52 52 126 137 148 156 160 159 159 159 159 159 159 158 158 157 157 155 154 153 152 152 152 149 147 145 142 
101 103 105 101 97 92 88 115 142 159 167 174 176 172 157 132 107 77 83 86 89 92 95 98 101 104 107 108 109 109 130 152 173 95 71 101 137 103 68 71 74 77 54 44 49 49 54 73 74 50 40 42 43 45 47 50 103 91 185 186 187 188 189 191 193 119 103 116 111 89 67 103 140 176 178 179 181 182 184 185 187 189 191 193 172 152 133 62 59 56 53 50 170 100 55 55 54 54 54 53 52 51 75 132 141 152 160 160 159 159 159 159 158 158 158 157 156 155 154 152 151 150 150 150 149 147 144 142 
101 103 104 100 95 91 87 114 141 161 168 172 175 174 154 129 104 79 82 85 88 91 94 97 100 104 107 110 110 121 143 157 171 49 79 110 140 78 69 73 65 57 49 41 39 37 56 74 84 56 41 43 44 46 47 49 149 164 180 189 191 193 196 198 110 123 137 150 163 127 91 93 94 96 155 185 185 185 185 185 185 185 165 145 124 104 137 97 57 54 51 48 173 115 56 55 54 53 52 51 50 49 98 139 146 156 160 160 159 159 159 158 158 158 157 156 154 153 152 151 149 148 148 148 148 147 144 142 
101 104 103 99 94 90 84 112 139 162 168 171 173 176 152 128 104 80 83 82 81 85 89 93 97 100 104 108 112 126 140 154 168 182 151 119 88 52 69 87 78 70 62 43 60 58 44 54 94 63 42 44 45 47 45 118 156 163 175 190 192 195 197 85 80 83 87 100 113 77 74 114 115 107 116 135 194 194 194 194 194 144 128 108 82 56 75 93 92 52 49 46 177 118 60 54 52 51 49 48 47 46 121 145 153 160 160 159 159 159 158 158 158 156 155 154 153 151 150 149 148 147 146 146 146 146 144 142 
102 104 102 98 93 88 82 109 137 164 167 170 174 177 153 129 105 81 84 87 86 85 84 83 87 91 95 99 200 132 146 160 157 138 104 69 35 52 70 87 92 84 60 45 53 80 69 51 32 69 43 45 44 41 79 155 163 170 176 185 194 196 83 66 49 53 56 60 63 60 57 54 136 118 118 137 155 173 203 203 159 103 86 72 57 75 58 54 49 68 47 44 180 111 64 57 52 51 49 47 46 44 144 149 154 158 159 159 159 158 158 157 156 155 153 152 151 150 148 147 146 145 145 145 145 145 144 141 
102 105 101 97 92 86 79 107 134 162 168 171 174 177 153 129 105 81 85 88 92 91 89 88 87 86 85 198 168 137 134 131 129 94 60 47 38 54 71 88 105 82 58 47 43 87 95 76 36 40 44 40 37 33 155 162 170 177 185 190 195 80 76 72 69 64 62 66 174 144 115 85 137 129 120 138 157 175 194 212 80 62 44 104 163 95 65 60 56 51 47 42 183 95 68 61 54 50 49 47 45 75 143 147 152 157 159 158 158 158 157 155 154 153 152 150 149 148 147 145 144 143 143 143 143 143 143 141 
103 104 100 96 89 83 77 104 132 160 169 172 175 178 154 130 106 82 85 89 92 96 95 94 93 82 71 183 153 159 106 103 85 61 60 59 40 57 74 91 105 80 56 49 45 65 120 58 39 41 41 38 35 115 162 168 176 183 191 199 93 94 92 91 88 84 79 72 188 170 146 116 138 130 122 142 161 181 201 183 104 82 64 124 151 114 71 67 62 58 51 43 176 78 71 65 58 52 48 47 45 105 142 146 150 155 158 158 157 156 155 154 152 151 150 149 147 146 145 144 142 141 141 141 141 141 141 141 
103 103 99 93 87 80 74 102 130 158 170 172 176 179 155 131 107 83 86 90 93 97 100 89 79 68 57 168 156 182 207 75 74 72 71 54 43 60 76 92 106 120 54 51 47 44 42 39 39 38 38 36 74 131 170 177 180 188 196 106 108 108 106 105 103 102 100 151 201 183 165 147 140 133 126 146 170 190 210 154 127 103 85 144 139 118 78 73 67 60 52 44 168 96 66 64 62 55 49 46 76 136 140 145 149 154 158 157 156 154 153 152 151 149 148 147 146 144 143 142 141 140 139 139 139 139 152 165 
103 102 97 90 84 78 72 99 128 157 171 173 176 180 156 132 108 84 87 90 94 102 111 37 82 127 140 153 116 78 41 68 85 84 82 50 45 62 78 92 106 120 95 91 49 43 42 40 38 37 35 34 91 148 177 185 189 193 93 114 122 122 120 119 117 115 113 123 174 179 161 150 144 137 130 137 170 199 218 177 151 125 105 149 127 106 84 76 68 61 53 45 156 113 70 55 52 50 48 46 99 137 142 146 150 155 157 156 155 153 152 150 149 148 146 145 144 143 141 140 139 138 138 138 150 163 175 188 
104 100 94 88 82 75 69 98 126 155 172 174 177 180 156 132 108 84 88 93 103 113 123 91 136 111 106 117 96 58 54 67 87 95 78 45 48 64 78 92 107 121 135 54 48 42 41 40 38 37 35 71 108 164 185 194 198 80 101 122 137 136 134 132 130 129 127 137 147 174 160 154 148 141 134 128 161 194 227 201 175 149 126 137 115 102 89 76 70 62 54 46 156 119 82 45 45 46 46 61 114 139 143 147 152 158 156 155 154 152 151 150 148 147 146 144 143 141 140 139 137 136 151 167 182 189 189 189 
104 98 91 85 79 73 66 96 124 153 173 175 178 181 157 133 109 85 95 105 115 124 134 144 120 95 71 81 76 55 68 81 93 106 73 41 50 64 78 94 110 126 59 53 47 41 40 40 38 37 36 109 145 181 192 203 78 96 115 133 151 149 147 146 144 142 140 150 160 170 164 157 151 145 139 132 151 185 225 204 185 165 146 133 120 108 95 72 69 63 55 48 156 119 82 44 46 47 47 76 129 140 144 149 156 157 156 154 153 152 150 149 148 146 145 143 142 141 139 138 141 166 191 191 191 191 191 191 
101 95 89 83 76 70 64 97 123 151 174 176 179 182 158 134 109 82 91 101 111 121 131 137 102 125 147 102 56 68 81 93 105 100 68 36 52 68 85 101 117 92 171 52 46 39 39 39 38 37 91 146 173 190 195 76 91 106 122 137 149 155 161 159 157 155 153 163 173 168 163 158 154 148 142 136 142 179 222 200 181 161 147 139 126 113 100 68 65 61 57 49 156 119 81 43 46 47 48 91 137 141 145 153 157 156 155 153 152 151 150 148 147 145 144 143 141 140 139 146 171 187 192 192 192 192 192 192 
98 95 86 80 74 67 61 98 124 149 175 177 180 182 158 132 105 78 88 98 108 119 132 129 95 60 64 69 62 80 92 105 117 94 62 40 39 60 82 103 124 111 130 126 44 38 38 38 37 37 147 165 182 200 143 77 92 107 123 138 147 153 159 165 170 169 167 177 171 166 161 156 152 147 142 138 133 176 220 197 177 158 149 140 131 118 105 64 61 57 54 50 156 118 80 42 45 48 49 106 138 142 150 158 157 155 154 153 151 150 149 147 146 145 143 142 141 139 151 173 183 192 193 193 193 193 193 193 
96 97 84 77 71 65 59 99 125 150 176 178 181 183 156 129 102 75 85 94 106 120 133 122 87 77 81 75 69 73 104 117 120 88 51 43 43 42 63 85 61 38 88 138 81 37 37 37 36 95 158 162 185 209 64 78 93 108 123 139 145 151 157 163 168 174 180 175 169 164 159 154 149 145 140 135 133 174 217 194 173 159 150 141 132 124 111 60 57 53 56 48 142 130 79 41 44 48 49 121 139 147 155 157 156 155 153 152 151 149 148 147 145 144 143 141 140 156 169 179 189 193 194 195 195 195 194 194 
93 94 86 75 69 62 56 98 126 151 173 175 178 181 156 126 98 71 81 94 107 120 134 115 96 94 88 81 75 69 107 128 114 77 48 47 46 46 45 45 46 53 84 116 147 36 35 34 33 152 168 167 176 50 65 79 94 109 124 138 144 149 155 161 167 172 177 173 167 162 157 152 147 142 138 133 133 167 215 192 169 160 151 143 134 125 116 56 59 63 66 45 128 151 104 40 43 47 50 136 144 152 158 156 155 154 152 151 150 148 147 146 144 143 142 140 155 165 175 185 192 193 195 196 196 196 196 196 
90 91 88 75 66 60 53 96 127 152 170 172 176 179 160 129 99 68 81 95 108 121 134 116 68 100 94 88 81 75 91 140 103 67 52 51 49 46 47 54 54 67 99 130 141 151 33 32 95 163 179 186 167 50 66 80 95 110 125 136 142 147 153 159 165 170 175 170 165 160 155 150 145 140 136 132 133 160 205 209 174 157 149 140 131 122 101 55 66 73 76 43 114 156 141 34 37 53 80 140 149 156 157 156 154 153 152 150 149 148 146 145 144 142 141 151 161 171 181 191 193 194 196 197 197 197 197 197 
87 89 90 77 63 57 51 93 128 154 167 170 174 177 164 133 102 71 84 97 109 122 135 42 93 105 99 93 87 81 75 69 62 56 53 50 48 46 49 62 62 82 113 146 40 135 82 29 157 173 190 206 33 50 66 81 96 111 126 134 140 146 151 157 163 168 172 167 163 158 153 148 143 138 133 131 132 154 195 226 178 154 146 137 128 119 85 54 65 75 86 40 101 161 95 28 55 82 109 144 153 157 156 155 153 152 151 150 148 146 145 143 142 140 144 157 167 177 187 193 194 195 196 198 198 198 198 198 
84 86 87 79 65 54 48 90 129 157 165 168 172 175 167 137 106 74 86 98 110 122 119 56 117 108 99 91 82 73 81 96 100 94 52 49 47 46 51 64 71 96 129 162 80 87 34 63 125 179 195 85 44 52 66 83 97 112 126 132 138 144 149 155 161 166 169 165 160 155 151 146 140 136 131 131 132 147 185 219 183 151 143 134 126 117 70 53 64 71 71 55 80 162 96 40 61 100 139 149 158 156 155 153 152 150 149 147 146 144 143 141 140 138 147 163 173 184 193 194 195 196 197 198 200 200 199 199 
82 83 84 81 68 54 46 88 130 159 163 166 170 173 171 140 108 75 86 97 108 120 103 70 106 97 89 80 71 73 87 102 117 132 50 48 47 45 54 66 79 96 112 111 74 38 67 97 126 184 137 46 54 62 70 82 98 113 125 130 136 142 147 153 159 165 167 162 157 153 148 144 138 133 130 131 132 140 176 212 182 148 140 131 123 114 56 52 56 55 55 55 60 164 103 52 56 95 142 152 157 156 154 152 150 148 147 145 144 142 141 139 138 136 151 169 180 190 194 195 196 197 198 199 200 201 201 201 
79 80 82 83 70 56 43 85 128 159 163 166 169 172 175 142 109 75 86 97 108 119 92 65 95 108 78 69 66 80 94 108 123 94 49 48 46 45 56 55 40 62 79 60 42 43 109 129 159 189 49 57 65 73 81 89 99 114 123 128 134 140 145 151 157 163 164 159 155 150 145 141 136 131 130 131 132 133 169 204 175 145 138 130 123 89 41 41 40 40 40 39 39 165 115 65 50 89 146 155 155 155 155 152 150 148 145 143 142 140 139 137 136 134 154 176 186 194 195 196 197 198 199 200 201 202 202 202 
76 77 79 80 72 58 54 97 137 159 164 167 170 173 173 142 109 76 87 98 109 119 87 60 90 119 89 58 72 86 100 115 100 71 75 47 46 45 44 43 73 164 45 46 46 47 169 180 190 52 60 68 76 84 91 99 107 115 121 126 132 138 144 149 155 161 161 157 152 147 143 138 134 129 116 102 89 125 161 197 178 159 140 132 111 62 46 46 46 46 45 45 41 133 127 77 45 116 149 153 154 154 154 153 151 148 146 144 141 139 137 135 134 132 157 182 192 194 196 197 198 199 200 201 202 203 203 203 
73 75 76 77 74 61 66 108 139 159 165 169 172 174 170 141 110 77 88 99 109 119 85 55 85 64 43 116 95 92 106 106 94 97 101 47 46 167 46 44 105 46 88 94 101 109 147 157 100 52 58 66 74 81 89 97 105 114 119 124 130 136 142 147 153 159 159 154 149 145 140 136 131 135 143 130 129 165 201 190 178 163 149 134 84 45 51 52 52 52 51 48 42 101 139 89 39 143 151 152 152 152 153 153 152 149 147 144 142 140 137 135 132 130 160 188 194 195 196 198 199 200 201 202 203 204 205 204 
70 72 73 75 76 63 77 115 141 159 165 170 173 176 168 139 110 77 88 99 109 119 85 50 81 111 142 44 67 89 112 116 120 123 127 46 88 130 88 46 47 109 130 134 142 105 124 147 54 53 56 64 71 79 87 95 104 113 118 123 128 134 140 145 151 157 156 151 147 142 137 133 127 141 170 157 168 204 193 183 172 159 144 105 55 49 56 58 58 57 56 50 44 86 151 101 78 146 150 150 151 151 151 152 152 150 148 145 143 141 138 136 133 133 164 194 195 196 197 198 200 201 202 203 204 205 206 206 
67 69 70 72 73 65 89 117 143 159 165 171 174 177 166 136 107 78 88 99 109 119 85 53 53 63 94 82 64 87 91 85 108 130 153 119 51 92 51 51 51 171 173 175 83 139 195 55 54 53 54 61 69 77 85 94 102 111 118 122 127 132 138 143 149 155 153 149 144 139 134 129 123 147 176 184 208 197 186 175 165 154 140 76 48 54 60 64 63 63 58 51 45 72 163 86 117 148 148 149 149 150 150 150 151 151 149 146 144 141 139 137 134 136 167 196 197 197 198 199 201 202 203 204 205 206 207 207 
65 66 68 69 70 67 93 119 144 159 165 171 175 178 163 134 105 75 94 102 111 119 81 56 56 56 56 76 62 75 69 64 58 90 122 140 157 55 67 79 91 124 185 163 95 76 57 56 55 54 53 59 67 75 83 92 101 110 117 121 126 131 136 141 147 153 150 146 141 136 131 125 125 153 182 211 200 190 179 168 157 147 136 47 53 59 65 69 69 65 59 53 47 57 168 106 137 150 148 147 148 148 148 149 149 150 149 147 145 142 140 137 134 140 170 198 199 199 200 201 201 203 204 205 206 207 208 208 
62 63 65 66 68 69 95 121 146 158 165 171 176 179 161 132 115 73 102 110 118 113 78 59 59 59 59 59 59 72 85 85 72 59 91 109 89 72 107 119 131 164 196 151 106 123 55 55 55 54 53 57 65 73 82 91 100 109 116 121 125 130 135 139 145 151 148 143 138 132 127 121 131 159 180 183 177 166 156 145 134 135 91 50 57 64 70 75 73 67 61 54 48 42 173 125 142 151 149 148 147 147 147 147 148 148 148 148 145 143 141 138 132 143 175 200 201 201 202 203 203 204 205 206 207 208 209 209 
59 60 62 63 65 71 97 122 148 158 165 171 177 181 159 138 129 70 110 118 126 107 75 62 62 62 62 57 68 126 113 100 86 73 60 82 63 89 119 159 171 204 95 142 188 52 53 53 54 54 54 55 63 72 81 90 99 108 115 120 125 129 134 138 143 149 145 140 134 129 123 118 137 149 152 155 154 143 133 134 135 136 46 53 60 67 74 81 75 69 63 57 51 44 164 131 148 153 150 148 148 147 147 146 146 147 147 147 146 144 141 139 130 146 181 202 203 204 204 205 205 206 207 207 208 209 210 211 
56 58 59 61 62 73 98 124 150 158 164 171 177 182 160 152 126 67 107 126 127 101 71 65 65 60 55 66 78 140 104 91 78 65 80 55 80 106 131 171 211 124 117 83 50 50 51 51 52 52 53 53 62 71 80 89 97 106 115 119 124 129 133 138 142 147 142 136 131 125 120 114 117 121 124 128 131 132 133 134 135 91 49 56 63 67 71 75 78 72 66 60 54 47 156 137 154 154 152 150 148 148 147 147 146 146 145 146 146 145 142 138 129 150 187 204 205 206 206 207 208 208 209 209 210 211 211 212 
53 55 56 57 58 74 100 126 152 158 164 171 177 183 174 166 124 65 104 133 121 94 68 63 58 53 64 76 87 155 107 83 69 85 100 115 119 123 126 121 153 119 138 105 51 52 52 52 53 53 53 53 56 63 73 83 93 104 114 118 122 126 130 135 139 143 146 140 135 129 124 120 121 124 127 131 134 130 132 134 136 45 49 53 57 61 66 70 81 75 69 63 56 49 147 143 158 156 153 151 149 148 148 147 147 146 146 145 145 145 143 136 127 156 194 206 207 208 208 209 210 210 211 212 212 212 211 207 
51 52 53 54 55 76 102 125 149 159 166 172 178 182 181 180 121 62 102 141 114 87 61 149 51 62 74 85 96 169 122 74 86 97 109 118 117 118 122 214 94 167 160 52 52 53 53 53 53 53 53 53 54 58 62 72 83 93 104 114 118 122 126 130 134 140 146 144 139 133 128 126 127 127 131 134 138 135 130 132 87 45 45 48 52 56 60 64 85 79 72 65 59 52 138 148 159 157 155 153 150 149 148 148 147 147 146 146 145 145 144 135 125 162 200 208 209 210 210 211 212 212 212 211 211 211 209 202 
48 49 50 51 52 75 99 122 146 161 167 173 179 180 180 172 120 61 78 117 107 80 53 108 54 52 63 74 88 122 115 84 91 102 114 121 120 118 117 172 140 215 52 53 53 53 53 53 53 53 53 53 53 57 61 65 72 82 93 105 114 118 122 126 130 136 142 149 143 138 132 133 133 134 134 137 141 140 134 129 45 45 46 46 46 50 54 58 88 82 75 68 61 54 130 154 161 159 156 154 152 150 149 148 148 147 147 146 146 145 140 132 123 169 206 211 211 212 212 212 211 211 211 210 210 210 204 197 
45 46 47 49 50 72 96 119 143 162 168 174 180 179 178 164 118 59 82 93 100 73 65 66 57 48 53 65 80 94 108 94 97 107 119 124 123 121 109 174 186 53 53 53 53 53 53 53 53 53 53 53 54 55 59 63 67 71 83 94 106 114 118 122 126 132 139 145 147 142 138 139 139 140 140 141 144 145 139 45 45 45 46 46 46 46 49 53 91 84 77 70 63 57 121 160 162 160 158 156 153 151 149 149 148 148 147 147 146 143 136 130 120 166 212 212 211 211 211 211 210 210 210 209 209 206 199 193 
47 44 45 46 48 70 93 116 140 163 169 175 178 178 177 157 117 58 91 84 92 75 73 67 59 51 42 57 72 86 101 104 107 112 124 127 126 114 102 218 95 52 53 53 53 53 53 53 53 53 53 53 54 54 58 62 66 69 64 84 95 107 113 118 123 129 135 141 147 146 144 145 145 146 146 147 147 149 100 48 46 46 46 46 47 47 47 47 94 87 80 73 66 59 113 166 164 162 159 157 155 153 151 149 149 148 148 147 146 139 132 126 118 164 211 211 211 210 210 210 209 209 209 209 207 201 194 188 
48 45 43 44 46 68 91 113 136 160 170 177 177 176 176 149 109 56 89 102 85 79 73 68 61 52 45 62 89 104 75 96 118 121 129 130 118 106 94 137 53 51 53 53 53 53 53 53 53 53 53 54 54 54 56 60 64 67 69 57 77 96 108 113 119 125 131 138 144 150 151 151 152 152 153 153 154 154 91 51 47 47 47 47 48 48 48 53 97 90 83 76 68 60 121 161 157 159 161 159 156 154 152 150 149 149 148 148 142 135 128 122 115 175 210 210 210 209 209 209 208 208 208 208 203 196 189 183 
50 46 43 42 43 66 88 111 133 157 172 176 176 175 174 141 101 55 88 121 75 78 74 68 63 54 47 43 83 122 49 70 92 113 134 122 110 98 86 55 52 49 53 53 53 53 53 53 53 53 54 54 54 54 55 59 63 66 68 66 50 70 89 109 116 122 129 136 142 149 154 157 158 158 159 159 160 145 82 53 48 48 48 48 49 48 48 60 99 92 85 77 69 62 130 155 151 147 145 152 158 156 154 151 150 149 149 144 138 131 125 119 126 186 209 209 209 208 208 208 208 207 207 204 198 191 185 178 
52 48 45 41 41 64 86 109 131 154 173 175 174 174 173 133 93 53 111 113 65 68 71 69 63 56 50 46 63 128 72 66 105 126 100 121 142 163 78 102 51 48 51 53 53 53 53 53 53 53 54 54 54 54 54 57 61 64 66 68 59 43 87 116 115 122 128 135 142 148 153 157 162 164 165 165 166 135 73 56 51 49 49 49 49 49 49 66 102 94 86 78 71 63 139 150 146 142 138 134 138 144 151 153 151 150 147 141 134 128 122 116 137 197 209 208 208 208 207 207 207 206 206 174 143 111 80 48 
53 50 46 43 39 62 84 107 129 152 174 174 175 175 176 142 92 126 159 105 56 58 61 64 64 57 52 48 44 133 95 57 82 139 66 113 139 144 70 148 98 47 50 53 53 53 53 53 53 54 54 54 54 54 54 56 60 62 64 66 68 80 108 122 122 121 127 134 141 147 152 156 161 165 170 171 172 126 64 59 54 50 50 50 50 49 49 73 107 89 83 77 70 64 148 144 140 136 132 128 124 125 131 137 144 150 144 138 132 126 119 113 147 208 207 207 206 206 205 205 204 204 168 123 91 59 50 54 
55 53 51 49 46 48 70 93 115 138 168 172 176 178 178 162 142 153 107 98 46 48 51 54 56 59 53 48 42 99 110 76 42 76 109 115 120 126 131 58 171 110 49 52 53 53 53 53 53 54 54 54 54 54 54 55 58 60 62 64 72 101 130 129 128 127 127 133 140 147 151 156 160 165 169 174 178 184 190 196 124 51 51 50 50 50 50 79 113 83 76 70 67 64 147 146 141 136 131 126 121 116 111 116 122 127 132 131 129 123 117 111 158 208 205 204 204 203 202 202 201 174 129 84 39 52 64 60 
92 75 58 56 54 55 56 79 101 144 161 165 169 173 177 181 119 56 55 164 36 42 48 55 61 51 69 46 40 66 120 87 120 97 103 113 121 126 132 79 153 129 112 51 53 53 53 53 54 54 54 54 54 54 55 55 57 59 60 61 76 105 127 130 134 134 133 132 139 146 150 155 159 164 168 172 177 182 188 194 198 202 130 69 63 56 50 84 118 76 73 70 67 64 145 147 143 138 133 128 123 119 116 112 108 104 109 114 113 111 110 108 158 208 205 202 201 200 200 199 181 136 91 46 54 66 71 67 
128 111 95 78 61 62 64 65 108 151 156 162 167 173 178 166 115 117 183 45 48 50 56 62 53 43 104 80 56 32 131 108 86 91 96 101 117 127 133 99 134 104 87 70 53 53 53 54 54 54 54 54 54 55 55 55 55 56 57 58 80 106 125 128 131 134 137 139 138 145 149 154 158 163 167 171 176 181 187 193 197 201 204 208 93 70 48 82 102 71 73 70 67 64 144 146 146 141 136 131 127 123 120 117 113 109 104 100 96 90 84 78 158 208 205 202 200 197 197 187 142 79 52 60 68 81 77 73 
128 141 124 107 83 60 61 62 105 148 159 164 170 175 180 150 111 123 134 44 51 57 64 54 45 35 138 82 52 49 97 74 79 84 90 95 105 121 134 120 116 80 63 66 70 53 53 53 53 53 54 54 54 54 54 54 59 64 59 55 81 107 122 125 128 131 135 138 141 144 148 153 157 161 166 170 174 179 185 191 195 199 203 207 210 128 45 66 87 67 70 70 67 64 143 144 146 143 138 135 131 128 125 121 118 114 110 105 101 95 89 97 149 208 205 202 200 197 194 131 68 59 67 75 83 87 83 79 
129 141 153 129 104 74 58 60 103 145 162 167 172 177 174 135 165 74 85 43 50 58 60 65 92 126 75 72 69 65 62 67 73 78 83 88 94 109 125 140 98 55 79 103 88 52 53 53 53 53 53 53 53 53 53 54 63 77 73 51 82 109 119 123 126 129 132 136 142 143 147 152 156 160 165 169 173 178 183 189 194 198 201 205 209 213 130 50 71 62 65 68 67 64 142 143 145 146 143 139 136 133 129 126 122 119 115 111 106 100 94 116 162 208 205 203 200 197 149 57 65 73 81 89 97 93 89 85 
129 118 145 150 126 97 64 57 99 142 165 170 174 180 158 189 219 128 36 44 51 55 55 56 67 85 77 74 71 60 59 68 71 73 77 82 87 98 113 130 147 53 116 139 105 52 52 52 52 52 52 52 53 53 53 53 68 86 86 47 81 110 117 120 124 129 134 139 142 143 146 150 155 159 163 168 172 176 181 187 193 196 200 204 208 211 215 133 55 58 60 63 66 64 140 142 144 145 144 142 140 137 134 130 127 124 120 116 112 106 113 134 174 208 205 203 200 197 105 67 75 83 91 98 98 99 95 92 
83 91 137 156 147 121 87 54 96 139 169 173 178 182 177 171 166 102 37 45 50 50 51 51 57 68 79 68 58 54 56 63 73 79 81 82 84 86 105 124 143 106 91 176 102 54 51 51 52 52 52 52 52 52 52 54 72 90 99 42 77 111 116 121 126 132 137 141 142 142 145 149 154 158 162 167 171 175 180 186 191 195 199 202 206 210 214 218 138 53 56 59 61 64 139 142 143 144 144 142 139 138 137 135 131 128 125 121 117 111 132 153 187 209 206 203 200 152 80 76 84 92 98 99 100 101 102 98 
37 83 129 161 153 144 96 49 93 136 172 176 178 177 165 167 214 103 39 45 45 46 46 47 47 58 98 56 48 51 53 58 68 79 86 88 90 83 111 127 143 159 43 61 79 57 54 51 51 51 51 51 51 51 51 58 76 94 112 38 76 114 119 124 129 134 140 140 141 141 144 148 153 157 161 165 170 174 178 184 190 193 197 201 205 209 212 216 220 49 49 49 49 101 139 141 142 143 144 142 139 137 135 134 133 132 129 126 122 129 151 172 199 209 206 203 200 127 78 86 94 99 100 100 101 102 103 104 
37 74 121 167 158 148 91 43 87 131 175 174 173 172 171 149 106 73 40 40 41 41 42 42 43 49 116 43 45 48 50 53 63 74 85 94 95 80 120 136 152 158 63 56 110 59 56 53 50 50 50 50 50 51 51 62 80 98 111 43 79 117 122 127 132 137 139 140 140 141 143 148 152 156 160 164 169 173 177 182 188 192 196 200 203 207 211 215 218 134 43 39 35 137 138 140 141 142 144 142 140 137 135 132 130 130 129 128 127 148 170 191 212 210 207 205 175 102 87 95 99 100 101 102 103 103 103 101 
37 64 111 158 162 152 95 38 86 135 176 173 170 167 165 164 132 177 43 44 43 42 41 41 40 39 127 40 42 45 47 50 58 69 80 90 101 77 85 144 156 158 82 52 141 62 54 55 52 50 50 50 50 50 50 66 84 110 109 49 81 119 124 130 135 138 139 139 140 140 142 147 151 155 159 163 167 172 176 180 186 191 194 198 202 206 210 213 215 218 77 38 33 138 137 139 140 142 143 143 140 138 135 133 130 128 126 125 161 182 203 208 213 212 210 194 150 89 97 100 101 102 102 102 102 102 102 99 
37 54 101 148 166 156 97 37 94 143 176 173 170 167 164 161 158 113 46 46 47 47 46 45 45 82 138 37 39 42 44 47 53 64 75 84 90 74 51 153 155 157 102 47 172 93 49 58 55 52 49 49 49 49 52 70 94 117 108 54 84 122 127 132 137 137 138 138 139 139 142 146 150 154 158 162 166 171 175 179 185 189 193 197 201 204 207 210 213 216 147 36 31 140 139 138 139 141 142 143 140 138 135 133 130 128 125 123 194 199 205 210 213 213 212 169 125 98 100 101 101 101 101 101 101 101 101 96 
37 43 91 139 171 144 96 36 98 151 177 174 171 168 165 162 159 48 49 49 50 51 51 50 68 102 112 52 42 41 41 44 48 59 67 73 79 71 89 145 115 117 171 116 176 172 44 60 57 54 51 48 48 48 57 78 108 120 107 59 88 125 130 135 136 137 137 138 138 139 141 145 149 153 157 161 165 169 174 178 183 188 191 195 199 202 205 208 211 213 216 32 32 141 140 139 138 140 141 143 141 138 136 133 131 128 126 134 198 201 206 211 214 213 196 148 100 100 100 100 100 100 100 100 100 100 100 93 
37 38 81 128 176 133 89 35 97 159 177 174 171 168 165 162 159 50 51 52 52 53 54 55 65 76 86 68 49 48 46 45 43 49 56 62 68 67 111 138 140 76 104 184 112 39 51 62 59 56 53 51 48 48 63 92 118 123 105 64 93 128 133 135 136 136 137 137 137 138 140 144 148 152 156 160 164 168 173 177 181 186 190 194 197 200 203 205 209 213 213 27 32 142 141 140 139 139 140 142 141 138 136 134 131 129 126 145 201 204 208 213 214 209 180 132 101 99 99 99 99 99 99 99 99 99 99 91 
36 38 70 118 173 139 87 34 101 143 176 174 172 169 166 163 160 52 53 53 54 55 55 55 59 69 79 72 54 49 48 47 45 61 62 63 63 64 116 130 132 101 38 86 120 140 128 115 104 92 81 70 58 47 76 105 121 127 104 70 99 130 134 135 135 135 136 136 137 137 139 143 147 151 155 159 163 167 172 176 180 185 189 192 195 198 201 205 209 212 209 115 42 144 143 141 140 139 139 141 141 139 136 134 131 129 127 156 205 207 210 214 213 203 164 116 102 96 97 98 98 98 98 98 98 98 97 88 
36 38 60 108 170 155 102 42 109 136 174 173 171 170 167 164 161 54 54 55 56 56 53 54 55 62 72 77 58 50 49 49 47 46 79 80 81 78 121 123 124 126 96 67 37 50 63 76 88 85 74 62 51 65 92 119 125 130 103 75 104 133 133 134 134 135 135 136 136 137 138 142 146 150 154 158 162 167 171 175 179 183 187 190 194 198 202 206 210 209 206 203 51 145 144 143 142 141 139 140 141 139 137 134 132 129 127 168 208 211 213 216 206 196 148 109 103 97 95 96 96 97 97 96 96 96 96 85 
36 38 49 105 167 152 118 50 97 135 173 171 170 168 167 164 161 55 56 57 56 53 53 54 55 56 66 76 63 52 51 50 49 48 64 97 49 76 102 116 118 102 132 115 51 56 58 57 56 62 67 55 57 84 101 119 117 123 85 77 106 133 136 135 134 134 135 135 135 136 137 141 145 149 153 157 161 166 170 174 178 182 186 190 194 198 202 206 208 205 202 199 97 141 129 138 143 142 141 140 140 139 137 134 132 133 134 129 169 172 188 217 207 177 133 110 104 98 93 93 94 95 95 95 95 95 95 82 
36 38 39 102 164 149 134 58 96 134 171 170 168 167 165 164 162 57 58 56 54 51 52 53 55 56 59 69 68 53 52 51 50 49 48 63 77 54 65 110 94 77 108 138 169 53 52 51 51 50 49 48 66 84 101 119 114 115 68 78 130 134 137 138 137 136 135 134 135 135 136 140 144 148 152 156 160 164 168 172 175 179 185 191 195 199 203 207 205 202 199 196 143 137 103 113 122 130 139 141 140 140 137 137 140 143 141 136 130 160 189 219 198 158 117 111 105 99 94 91 92 93 93 94 94 94 94 80 
36 38 49 102 165 156 141 62 94 132 170 168 167 165 164 164 138 59 56 54 51 51 52 53 54 55 56 62 73 54 53 52 51 50 43 91 105 82 58 35 150 53 86 119 77 51 51 50 50 49 48 57 68 84 101 119 114 108 51 103 130 134 138 141 141 140 139 138 137 136 135 139 143 146 150 154 158 161 165 169 173 176 182 188 195 199 203 204 201 198 195 192 189 133 77 87 96 106 114 123 131 140 143 146 149 152 148 137 141 167 194 220 177 135 106 106 106 100 95 89 90 90 91 92 93 93 93 77 
36 48 60 102 165 163 148 67 99 131 168 167 165 166 167 167 115 63 54 52 49 50 51 53 54 55 56 57 66 59 54 53 52 48 37 85 133 109 84 60 57 55 78 101 49 50 50 50 49 48 47 67 77 88 101 119 114 73 72 127 131 134 138 141 145 144 142 141 140 138 137 137 140 143 147 151 155 158 162 166 170 173 179 185 191 198 204 204 204 204 204 204 204 105 78 81 84 87 90 96 103 109 117 132 146 161 143 125 150 175 201 196 152 110 95 95 96 96 96 90 87 88 89 90 90 91 92 74 
48 58 70 102 166 163 154 71 103 135 167 168 168 169 169 170 100 67 52 49 49 50 51 52 53 54 56 57 59 63 55 54 54 43 32 66 100 133 109 85 82 73 60 47 48 48 49 49 48 47 58 76 87 97 108 119 78 37 101 128 132 135 139 141 143 145 144 143 142 140 139 137 139 141 144 148 152 156 159 163 167 171 176 182 188 195 200 205 205 207 211 214 218 77 81 85 89 93 90 81 72 78 84 95 109 143 169 152 156 181 207 172 127 85 85 85 85 85 85 85 85 87 89 91 93 95 89 72 
60 70 80 102 166 164 161 75 105 134 167 170 171 172 172 146 104 71 50 47 48 49 51 52 53 54 55 56 58 62 57 56 48 41 42 47 71 100 134 109 103 91 70 46 46 47 47 48 47 46 69 85 96 107 111 94 53 74 126 129 133 136 138 139 141 143 144 145 143 142 141 139 138 140 143 145 149 153 156 160 164 168 173 179 185 191 197 203 207 206 205 206 210 141 88 92 96 100 90 81 72 63 53 60 72 124 195 179 162 187 198 149 102 74 74 74 74 74 80 88 87 92 94 96 98 96 85 69 
72 82 92 102 167 167 168 106 101 133 167 170 173 175 175 141 108 74 47 47 48 49 50 51 52 54 55 56 57 58 58 54 51 51 52 53 63 86 110 134 113 92 67 45 44 44 45 46 46 57 80 94 105 102 86 69 57 111 127 130 133 134 136 138 139 141 143 144 145 144 143 141 140 140 142 145 147 150 154 157 161 165 169 176 182 188 193 199 205 208 207 206 206 205 80 98 102 100 90 81 72 63 53 44 35 116 197 197 189 193 174 125 77 63 63 66 74 83 91 84 90 97 99 101 103 93 82 66 
84 99 113 128 168 171 174 136 98 133 167 170 173 175 178 145 112 78 45 46 47 49 50 51 52 53 54 56 57 58 59 60 61 61 62 63 64 78 102 136 115 91 62 44 43 42 43 44 45 68 91 104 94 77 61 44 89 124 127 129 131 132 134 136 137 139 141 142 144 146 145 143 142 140 142 144 147 149 151 154 158 162 166 173 178 184 190 195 201 207 209 208 208 207 73 91 109 102 95 89 82 75 68 61 55 117 198 198 199 199 150 101 52 60 69 77 85 94 91 77 92 102 104 106 101 90 78 64 
79 91 117 142 168 174 172 137 99 133 167 168 169 170 171 155 122 78 44 48 49 50 52 53 54 55 56 57 59 60 69 58 63 67 72 73 74 74 93 137 115 86 58 43 42 40 40 41 51 76 102 82 61 41 68 95 122 124 125 127 129 130 132 134 135 137 139 140 142 144 145 145 144 142 141 143 146 148 151 153 156 159 163 169 175 181 186 192 197 203 209 210 210 209 118 88 102 111 105 100 95 90 84 79 74 128 200 200 184 139 90 66 69 72 80 88 97 98 83 74 94 106 108 109 97 86 75 61 
73 77 98 123 159 179 170 138 100 134 166 169 168 167 166 165 111 57 43 47 51 52 54 55 56 57 58 59 61 64 78 53 58 62 67 71 76 80 85 139 110 82 53 42 41 39 38 39 56 63 50 38 62 85 109 122 123 124 125 126 127 128 130 132 133 135 137 138 140 142 143 145 146 144 143 143 145 148 150 153 155 158 160 166 171 177 183 188 194 200 205 211 212 211 163 84 95 106 112 107 102 97 91 86 83 113 201 168 127 78 81 83 86 89 91 100 104 90 76 76 96 111 113 105 94 83 72 58 
68 71 79 105 150 184 168 138 101 135 165 170 171 170 169 152 90 47 42 46 50 53 56 57 58 59 60 61 63 73 88 103 52 57 61 66 71 75 80 104 106 77 49 41 40 38 37 36 44 52 59 73 96 120 122 123 124 124 125 126 127 128 129 130 131 133 135 136 138 140 141 143 145 146 145 143 145 147 150 152 154 157 161 166 171 176 180 185 190 196 202 207 213 213 208 103 89 99 110 114 109 104 98 93 92 94 153 116 92 95 98 100 103 106 108 111 97 83 68 79 99 116 113 102 91 79 68 55 
62 66 69 86 140 190 166 136 102 134 165 169 174 173 172 140 70 46 41 45 49 52 56 59 60 61 62 63 68 83 98 112 47 52 56 61 65 70 75 80 106 73 44 40 39 41 47 53 64 81 89 107 120 122 122 123 124 125 126 127 128 129 130 131 132 133 134 135 136 138 139 141 143 144 146 145 144 146 149 151 154 158 162 167 172 177 182 186 191 196 201 205 210 215 210 122 86 94 103 114 116 110 105 100 101 103 104 104 104 104 103 103 103 103 103 103 91 76 61 81 101 121 110 98 87 76 65 53 
57 60 64 67 131 195 164 134 103 133 164 168 173 175 174 127 49 45 40 44 48 51 55 59 62 63 64 65 78 93 107 122 97 46 51 56 60 65 70 75 89 73 40 46 52 58 64 70 76 92 118 120 121 122 123 124 125 126 127 128 129 130 131 132 132 133 134 135 136 137 138 139 141 143 144 146 146 146 148 151 154 159 164 168 173 178 183 188 192 196 200 204 208 212 213 142 82 91 99 108 118 117 112 109 110 110 107 103 100 96 95 95 95 94 94 94 86 71 83 103 123 113 103 92 82 71 61 50 
51 55 58 61 132 196 190 159 102 133 163 167 172 176 177 115 79 44 39 43 47 50 54 58 62 65 66 73 88 102 117 131 146 41 46 51 55 60 65 70 74 74 60 65 70 75 81 86 92 98 120 121 122 123 124 125 126 127 128 129 130 130 131 132 133 134 135 136 137 138 139 140 141 142 143 144 146 146 148 151 155 160 165 170 174 177 181 185 189 193 197 201 205 208 212 177 79 87 96 104 113 122 119 118 116 113 109 106 102 99 95 92 88 86 86 86 82 80 104 124 114 104 94 84 74 64 53 75 
46 49 52 55 126 197 191 185 100 131 162 167 171 176 180 145 109 74 38 42 46 49 53 57 61 64 68 68 69 69 70 70 70 71 71 72 72 72 73 73 74 74 79 84 90 95 100 105 111 116 121 122 123 124 125 126 127 128 128 129 130 131 132 133 134 135 136 137 138 139 140 141 141 142 143 144 145 146 147 151 155 159 163 166 170 174 178 182 186 190 194 197 201 205 209 213 75 84 92 101 109 118 126 123 119 116 112 109 105 102 98 95 91 88 84 81 77 102 126 116 106 96 86 76 66 56 78 100 
