P2
#CREATOR : MyProgram
128 128
255
162 162 163 163 164 164 165 165 166 166 167 167 168 168 148 128 107 87 103 104 106 107 108 109 111 112 113 114 116 117 118 120 121 122 123 125 126 127 128 130 131 132 133 135 136 136 136 135 135 135 135 135 135 134 134 134 134 134 134 133 133 133 133 133 133 132 132 132 132 132 132 131 131 131 127 123 119 116 112 108 104 120 137 153 153 153 153 153 154 154 154 154 154 154 154 154 155 155 155 155 155 171 188 204 220 164 107 108 108 109 109 110 110 111 112 112 113 113 114 115 115 116 116 117 117 118 145 171 
161 160 159 160 160 161 161 161 162 162 163 163 169 167 146 126 106 87 101 105 106 107 108 110 111 112 113 115 116 117 119 120 121 122 124 125 126 127 129 130 131 133 134 135 135 135 135 134 134 134 134 134 134 133 133 133 133 133 133 132 132 132 132 132 131 131 131 131 131 131 130 130 130 131 128 124 121 117 113 109 105 118 135 149 154 154 154 154 155 155 155 155 155 155 155 155 155 156 156 155 154 179 195 211 219 187 107 108 111 111 112 112 113 113 114 115 115 116 116 117 118 118 119 119 120 123 147 171 
161 159 158 157 156 157 157 158 158 159 159 170 167 165 145 125 105 87 100 103 106 107 109 110 111 113 114 115 116 118 119 120 121 123 124 125 127 128 129 130 132 133 134 134 135 134 134 133 133 133 133 133 132 132 132 132 132 132 131 131 131 131 131 131 130 130 130 130 130 130 129 129 130 130 129 126 122 118 114 110 106 116 133 144 153 155 155 155 155 156 156 156 156 156 156 156 156 157 155 154 152 151 202 210 217 210 154 107 109 112 114 115 115 116 116 117 118 118 119 119 120 121 121 122 124 127 88 49 
160 158 157 156 155 153 153 154 154 160 170 168 166 164 144 124 105 86 98 102 105 108 109 110 112 113 114 115 117 118 119 121 122 123 124 126 127 128 129 131 132 133 133 134 134 134 133 133 132 132 132 132 131 131 131 131 131 131 130 130 130 130 130 129 129 129 129 129 129 128 127 128 131 130 128 127 123 119 115 111 107 114 131 140 149 156 156 156 156 156 157 157 157 157 157 157 157 155 154 152 151 150 175 208 216 208 201 130 107 110 113 115 118 118 119 119 120 121 121 122 122 123 124 125 128 86 47 50 
159 158 156 155 154 153 151 150 161 171 169 167 165 163 143 123 105 86 97 100 103 107 109 111 112 113 115 116 117 118 120 121 122 123 125 126 127 128 130 131 132 132 133 133 134 133 133 132 131 131 131 130 130 130 130 130 130 129 129 129 129 129 129 128 128 128 128 128 127 126 126 129 131 129 128 127 124 120 116 113 108 112 127 136 144 153 157 157 157 157 158 158 158 158 158 157 155 154 153 151 150 148 147 181 214 210 207 177 107 108 111 113 116 119 121 122 122 123 124 124 125 125 126 129 85 46 48 50 
158 157 156 154 153 152 153 157 167 169 167 166 164 162 141 123 104 86 95 98 102 105 109 111 112 114 115 116 117 119 120 121 122 124 125 126 128 129 130 130 131 131 132 132 133 132 132 131 131 130 130 129 129 129 129 129 129 128 128 128 128 128 128 127 127 127 126 126 125 124 127 130 130 129 128 126 125 121 118 113 109 110 123 132 140 148 157 158 158 158 158 159 159 158 157 155 154 153 151 150 149 148 147 161 194 216 212 200 154 107 109 112 114 117 120 122 125 125 126 127 127 128 130 85 44 46 49 51 
158 156 155 154 154 156 158 164 168 167 165 164 162 160 141 122 104 86 93 97 100 103 107 110 113 114 115 116 118 119 120 122 123 124 125 127 128 129 129 130 130 131 131 132 132 132 131 131 130 130 129 129 128 128 128 128 127 127 127 127 127 127 126 126 126 125 125 124 123 125 128 131 130 128 127 126 124 123 119 114 110 108 119 127 136 144 153 159 159 159 159 160 158 157 155 154 153 152 151 149 148 148 148 147 174 211 218 214 176 130 108 110 113 115 118 121 123 126 128 129 130 131 86 43 45 47 49 51 
157 155 155 157 159 160 162 168 166 165 163 162 160 159 141 122 104 85 92 95 98 102 105 109 112 114 116 117 118 119 121 122 123 124 126 127 128 128 129 129 130 130 131 131 132 131 131 130 130 129 129 128 127 127 127 127 126 126 126 126 126 126 125 125 124 123 123 122 122 126 129 131 129 128 127 125 124 123 120 115 111 106 114 123 131 140 148 157 160 160 160 158 157 156 155 153 152 151 150 149 149 148 148 148 154 197 213 220 199 153 106 109 111 114 116 119 122 124 127 129 132 87 41 43 45 48 50 52 
156 158 160 162 163 165 167 165 164 162 160 159 157 159 141 122 104 85 90 93 97 100 104 107 110 114 116 117 118 120 121 122 123 125 126 127 127 128 128 129 129 130 130 131 131 131 130 130 129 129 128 127 127 126 126 125 125 125 125 125 125 124 123 123 122 122 121 120 124 127 130 130 129 128 126 125 124 122 121 116 112 107 115 123 130 138 146 153 161 160 159 158 156 155 154 153 152 151 150 149 149 149 148 148 148 172 209 215 222 180 138 109 112 114 117 120 122 125 127 130 88 42 43 44 46 48 50 53 
157 160 162 164 166 167 165 162 160 159 157 155 157 160 141 122 104 85 88 92 95 99 102 105 109 112 116 117 119 120 121 123 124 125 125 126 126 127 127 128 129 129 130 130 131 130 130 129 128 128 127 127 126 126 125 125 124 124 124 124 123 122 122 121 120 120 119 121 125 128 131 130 128 127 126 124 123 122 120 118 113 109 116 124 131 139 147 154 160 159 158 157 156 155 154 152 151 150 150 150 149 149 149 149 148 148 204 212 220 212 170 102 112 115 118 120 123 125 128 89 43 44 44 45 47 49 51 53 
159 161 164 166 168 170 163 158 157 155 153 154 157 160 142 123 104 84 87 90 94 97 100 104 107 111 114 117 119 120 122 123 124 124 125 125 126 126 127 127 128 128 129 129 130 129 129 128 128 127 127 126 126 125 125 124 124 123 122 122 121 120 120 119 119 118 119 122 126 129 131 129 128 127 125 124 122 121 119 119 115 110 115 125 132 140 148 156 159 159 158 157 155 154 153 152 151 151 150 150 150 149 149 149 147 146 179 210 218 215 203 148 105 116 118 121 123 126 88 44 45 45 46 46 47 49 52 54 
160 163 165 168 170 168 162 156 153 151 151 154 158 161 142 123 103 83 88 89 92 96 99 102 106 109 112 116 119 121 122 123 123 124 124 125 125 126 126 127 127 128 128 129 129 129 128 128 127 127 126 126 125 125 124 129 138 144 145 146 128 119 118 117 117 117 120 124 127 130 130 129 127 126 124 123 121 120 119 118 116 111 113 126 134 141 149 157 157 158 157 156 155 154 153 151 151 151 151 150 150 149 148 147 146 145 155 192 215 218 206 193 98 108 119 121 124 86 45 46 46 47 47 48 49 50 52 55 
162 164 167 169 172 166 160 154 150 149 152 155 158 161 141 122 102 82 90 89 91 95 98 101 104 108 111 114 118 121 122 122 123 123 124 124 125 125 126 126 127 127 128 128 129 128 128 127 127 126 126 125 126 135 144 152 161 165 166 167 168 170 151 133 115 118 121 125 128 131 129 128 126 125 123 122 120 119 118 118 117 113 110 127 135 142 150 155 156 157 157 156 154 153 152 152 152 151 151 150 149 147 146 145 144 143 142 173 197 221 212 204 152 110 116 122 84 46 47 47 48 48 49 50 50 51 53 55 
163 166 168 171 160 152 150 148 146 150 153 157 160 161 140 121 101 81 89 91 91 93 97 100 103 107 110 113 116 120 121 122 122 123 123 124 124 125 125 126 126 127 127 128 128 128 127 127 126 126 132 141 150 158 167 175 184 185 187 188 189 190 192 193 161 129 115 118 121 126 127 127 125 124 122 121 119 118 117 117 117 114 110 125 136 144 151 154 155 155 156 155 154 153 152 152 152 150 149 148 147 146 145 143 142 141 140 155 179 209 217 212 206 116 102 80 42 45 47 48 49 50 51 51 52 53 54 56 
165 167 170 171 148 134 132 130 146 153 156 160 162 162 139 120 100 80 88 92 92 92 95 99 102 105 109 112 115 119 121 122 122 123 123 124 124 124 125 125 126 126 127 127 128 127 127 130 138 147 156 159 162 165 168 171 174 175 177 178 179 181 187 193 193 194 152 111 117 121 125 123 124 123 121 120 118 117 116 116 116 116 111 122 137 145 152 153 154 154 155 155 153 153 152 151 150 149 148 146 145 144 143 142 141 139 138 137 167 196 219 213 209 165 69 39 41 44 46 47 49 50 51 52 54 54 55 56 
166 169 171 165 136 116 114 124 145 156 159 163 162 162 139 119 99 80 87 94 94 94 94 97 101 104 107 111 114 118 121 121 122 123 123 124 124 124 125 125 126 174 158 143 127 130 133 137 140 143 146 149 152 156 159 162 164 165 167 168 175 182 189 193 193 193 194 194 112 116 120 112 119 122 120 119 117 116 116 115 115 115 112 120 136 146 151 152 152 153 153 154 153 152 151 150 149 148 146 145 144 143 142 141 140 139 138 139 152 184 213 215 213 214 35 38 40 43 46 47 48 49 51 52 53 54 56 57 
168 170 169 156 124 98 102 123 145 159 162 163 163 162 140 118 98 79 86 93 95 95 95 96 99 103 106 109 113 117 120 121 122 122 123 124 124 124 125 125 158 127 111 121 125 128 129 131 133 134 137 140 143 146 149 152 154 156 162 169 176 183 190 193 193 193 194 195 197 142 115 120 108 115 119 118 116 115 115 115 114 114 114 117 134 147 150 150 151 152 152 148 153 152 151 150 148 147 146 145 144 143 142 141 140 139 140 142 146 167 201 216 216 126 36 37 39 42 45 46 48 49 50 51 53 54 55 48 
169 172 163 144 112 80 101 123 144 162 164 164 163 162 140 118 97 78 85 92 97 97 97 96 98 102 105 108 112 116 119 121 121 122 123 123 124 125 125 141 95 105 114 120 123 126 129 130 132 133 135 137 138 140 141 143 150 157 164 171 178 185 192 193 193 193 195 196 198 199 173 115 106 104 111 117 115 114 114 114 114 113 113 115 131 148 149 149 150 151 151 142 139 151 150 149 148 147 146 145 144 143 142 141 140 142 143 144 147 153 182 218 128 37 37 38 38 41 44 46 47 48 50 51 52 53 51 38 
171 168 158 132 98 90 109 127 146 165 164 164 163 163 140 118 96 77 84 91 99 98 98 98 98 100 104 107 111 115 118 120 121 122 122 123 124 124 125 112 98 108 115 118 121 124 126 129 131 132 134 136 137 139 141 145 152 158 165 172 179 186 192 193 193 194 196 197 199 200 202 203 114 93 100 107 114 114 113 113 113 113 112 112 130 149 148 148 149 150 150 136 118 144 150 149 148 147 146 145 144 143 142 142 143 144 145 146 149 155 160 104 47 39 39 39 40 40 43 45 47 48 49 50 50 49 45 29 
172 162 152 117 81 98 114 131 148 164 164 164 163 163 140 118 96 76 83 90 98 100 100 99 99 99 103 106 110 113 117 120 121 121 122 123 123 124 120 115 102 110 113 116 119 121 124 127 130 132 133 135 136 138 140 147 155 160 167 174 181 188 192 193 194 195 197 198 200 191 205 209 213 171 88 95 106 109 108 108 108 107 107 113 131 150 148 147 148 149 149 130 97 124 150 149 148 147 146 145 144 142 143 144 145 146 147 148 151 156 114 57 39 40 41 41 41 41 42 44 46 47 49 48 47 46 36 90 
158 148 129 94 83 96 114 130 147 164 164 163 163 163 141 118 96 75 82 89 97 101 101 101 100 99 102 105 109 112 116 120 120 121 122 122 123 121 116 110 105 108 111 114 116 119 122 125 128 131 132 134 136 137 142 150 157 164 169 175 182 189 192 193 195 196 198 179 203 207 211 215 219 223 227 83 98 103 103 103 103 101 98 113 132 150 149 148 147 147 148 124 91 103 129 149 148 147 146 144 143 144 145 146 147 148 149 151 152 129 68 40 41 42 43 43 43 43 43 43 46 47 46 45 43 42 97 151 
144 134 107 83 84 92 112 130 147 163 163 163 163 163 140 118 96 74 81 89 96 103 102 101 100 100 102 105 108 111 115 119 120 121 121 122 120 116 111 106 106 109 111 113 114 117 120 123 126 129 132 133 135 136 144 152 160 167 172 178 184 191 193 194 186 167 202 205 209 213 217 221 222 223 224 176 90 98 98 98 96 93 96 114 133 151 150 149 148 146 147 119 85 82 108 135 147 146 145 144 145 146 147 148 149 151 152 153 154 78 41 42 43 44 44 44 45 45 45 45 45 54 63 73 82 91 146 154 
130 120 84 85 86 87 107 127 146 163 162 162 162 162 140 118 96 75 83 90 97 102 102 101 100 100 103 105 108 110 114 118 120 120 121 119 116 112 106 107 107 110 113 116 118 119 121 122 124 127 129 132 134 139 146 154 162 170 176 181 187 192 174 155 190 204 208 212 214 215 216 217 218 219 220 221 130 93 93 90 87 84 97 115 133 152 151 149 148 147 146 113 79 61 87 114 140 146 145 146 147 148 149 150 151 152 153 154 98 41 42 43 44 45 46 46 46 47 47 47 48 61 81 101 120 140 148 157 
115 97 86 87 88 89 102 122 142 162 162 162 162 162 140 118 95 77 84 91 98 100 102 101 100 101 103 106 108 111 113 116 119 120 118 115 112 107 107 108 109 111 114 117 120 123 124 126 127 129 130 132 133 141 149 156 164 172 179 184 169 143 178 202 206 208 209 210 211 212 213 214 215 216 217 218 219 88 85 82 79 79 97 116 134 153 151 150 149 148 145 111 76 40 67 93 120 146 147 148 149 149 150 151 152 153 154 127 42 43 44 45 46 47 48 48 48 48 48 49 50 58 77 97 133 145 151 159 
101 86 87 88 89 90 98 118 139 162 162 162 161 161 139 117 93 78 85 92 96 99 102 101 100 101 104 106 109 111 114 116 119 117 114 112 107 108 109 109 110 111 115 118 121 124 127 129 130 132 133 135 134 132 142 152 162 172 182 145 173 200 201 202 203 204 206 207 208 209 210 211 212 213 214 216 218 222 116 73 70 80 98 116 135 153 152 151 150 150 144 112 76 43 49 88 127 138 144 148 149 150 151 152 153 154 155 72 44 45 46 47 48 49 50 50 50 50 50 51 53 54 90 126 147 151 155 162 
87 88 89 90 91 92 93 116 139 162 161 161 161 161 139 117 91 79 86 92 95 98 101 102 101 102 104 107 109 112 114 116 117 129 119 108 109 109 110 110 111 112 115 118 122 125 128 131 134 135 137 138 136 130 131 141 151 161 154 181 196 198 199 200 201 202 203 204 205 207 208 209 210 211 212 213 217 221 225 144 62 80 99 117 136 154 153 153 152 151 144 113 77 46 41 58 97 130 138 143 148 151 152 153 154 154 100 44 45 46 47 48 49 50 51 52 52 52 53 54 53 82 120 148 152 156 161 165 
87 89 90 91 92 93 94 116 139 162 161 161 161 161 138 115 88 80 88 91 94 97 99 102 101 102 105 107 110 112 113 114 116 150 139 105 110 110 111 112 112 113 116 119 122 126 129 132 135 138 140 142 137 131 125 131 141 163 190 192 194 196 196 198 199 200 201 202 203 204 205 207 208 209 210 211 215 220 222 216 116 85 103 122 127 150 155 154 153 153 143 114 78 49 40 42 66 109 131 136 141 146 151 153 154 127 45 46 47 48 49 50 51 52 53 54 54 54 55 52 71 110 149 148 147 147 162 164 
88 90 92 93 94 95 96 117 139 162 161 161 160 160 138 113 86 82 87 90 93 95 98 101 101 103 105 108 109 110 112 113 114 170 98 103 108 112 112 113 113 114 117 120 123 126 129 133 136 139 142 145 139 133 126 120 171 186 188 190 192 193 194 195 196 198 199 200 201 202 203 204 205 206 208 210 214 218 218 222 207 89 95 101 120 146 153 156 155 154 142 115 79 52 40 42 44 77 124 129 134 140 145 150 155 81 46 47 48 50 51 52 53 54 55 55 55 56 50 59 99 141 140 128 143 158 164 164 
88 91 93 94 95 96 97 118 139 162 161 161 160 160 137 110 83 83 86 89 91 94 97 100 101 103 105 106 108 109 110 111 166 158 99 101 105 110 113 114 115 115 118 121 124 127 130 133 137 140 139 131 118 106 143 180 182 184 186 187 189 191 192 193 194 195 196 197 199 200 201 202 203 204 205 209 213 215 215 218 222 198 74 87 120 142 149 157 156 156 141 115 82 55 39 41 43 45 120 195 193 191 189 187 118 59 46 48 49 50 52 53 54 55 56 57 58 49 48 89 133 144 133 140 155 163 164 163 
88 91 94 96 97 98 99 120 141 162 161 161 160 159 135 108 81 82 85 87 90 93 96 98 101 102 103 104 106 107 108 109 217 147 100 102 105 108 113 115 116 117 119 122 125 128 131 134 137 134 129 116 116 153 176 179 180 182 183 185 187 189 190 191 192 193 194 195 196 197 198 200 201 202 203 207 212 211 211 214 219 223 53 86 119 138 145 153 158 157 141 116 85 58 38 40 42 69 212 209 209 212 215 218 80 53 47 48 49 51 52 54 55 56 58 59 48 37 81 125 147 139 136 151 163 163 164 163 
89 91 94 97 98 99 100 121 142 163 163 162 160 159 132 105 78 81 84 87 90 93 96 99 101 101 101 102 104 105 106 107 206 136 102 104 106 108 110 115 117 118 120 123 126 129 132 132 128 125 114 125 162 172 175 177 178 179 181 183 185 187 188 189 189 191 192 193 194 195 196 197 198 199 202 206 208 208 208 210 215 218 157 86 119 134 141 149 156 159 140 117 88 61 38 40 128 220 185 203 221 219 216 214 211 46 47 48 50 51 52 53 54 56 57 57 50 64 118 151 144 140 148 162 162 163 164 162 
89 92 94 97 99 100 101 123 144 163 164 164 162 161 134 107 79 82 85 88 91 93 96 99 100 102 101 101 102 103 104 160 195 125 103 105 107 109 111 113 117 119 120 123 127 130 126 123 119 112 135 165 168 171 173 176 177 177 179 181 183 185 186 187 187 188 189 191 192 193 194 195 196 197 201 205 205 204 204 207 211 213 207 122 118 130 137 145 152 160 139 118 91 64 37 187 190 174 207 218 217 220 218 215 209 46 46 47 49 50 51 52 54 55 56 56 51 90 154 149 145 145 160 162 162 163 163 162 
90 92 94 97 100 102 103 124 144 164 165 166 164 163 136 109 79 82 85 88 91 94 97 98 100 102 102 101 101 101 102 213 170 114 104 106 108 110 112 114 117 120 121 124 124 121 117 114 110 144 161 164 167 169 172 175 176 175 177 179 181 182 184 185 185 186 187 188 189 190 192 193 194 195 200 202 201 201 201 203 207 208 204 195 118 127 137 146 155 158 145 111 52 62 208 186 163 210 215 213 214 220 219 217 206 47 47 47 48 49 50 51 53 54 55 54 53 128 155 150 146 156 161 162 162 163 163 161 
90 92 95 97 101 103 104 125 145 165 166 167 166 165 138 112 80 83 86 89 92 95 96 98 100 101 103 102 101 101 100 218 161 103 105 107 109 111 114 116 118 120 122 120 118 116 114 112 154 157 160 162 165 168 171 174 175 175 175 176 178 180 182 183 183 184 185 186 187 188 189 190 191 194 198 198 198 197 197 199 203 203 200 202 214 132 141 150 156 157 150 104 159 213 175 195 214 212 210 208 210 216 221 218 204 47 47 47 47 48 49 50 52 53 53 52 102 152 156 151 153 160 161 161 162 163 162 160 
90 93 95 98 101 104 106 126 146 165 166 167 168 167 140 116 81 84 87 90 93 94 96 98 99 101 103 103 102 101 100 213 156 114 103 105 107 109 111 113 115 117 125 121 118 116 114 142 153 156 158 161 164 167 170 172 175 174 173 174 176 178 180 180 181 181 182 184 185 186 187 188 189 193 195 195 194 194 194 195 200 198 197 203 209 182 146 153 154 155 156 171 187 202 199 190 210 207 205 204 206 212 219 220 201 47 47 47 47 47 48 50 51 52 51 88 150 153 156 152 159 160 161 161 162 163 162 160 
91 93 95 98 101 104 107 127 146 166 167 168 169 169 143 119 81 84 87 90 92 94 96 97 99 101 103 103 103 102 99 208 166 125 104 102 105 107 109 111 113 120 129 124 120 116 131 145 151 153 157 160 163 166 168 171 174 173 172 172 174 176 178 178 179 179 180 181 182 183 185 186 187 192 191 191 191 191 190 191 195 193 189 193 201 209 150 161 172 183 176 169 175 191 206 186 205 206 201 199 203 209 215 221 199 48 48 48 48 47 47 49 50 51 75 124 149 154 157 159 159 160 161 161 162 162 161 159 
91 93 96 98 101 104 107 128 147 166 168 169 170 171 147 122 82 85 88 90 92 94 95 97 99 100 102 104 104 102 133 203 177 136 108 100 102 104 106 108 114 123 132 128 123 119 133 148 150 151 153 159 161 164 167 170 173 172 172 171 172 174 176 176 177 177 178 179 180 181 182 183 186 188 188 188 187 187 187 187 190 187 180 181 189 188 169 189 209 202 195 189 182 179 195 210 201 206 197 194 199 205 212 219 119 48 48 48 48 48 48 48 49 61 98 142 148 153 158 159 159 160 160 161 162 162 161 159 
91 94 96 99 101 104 107 129 148 167 168 169 170 171 150 126 83 86 88 90 92 93 95 97 98 100 102 104 104 98 163 199 173 147 112 104 100 102 104 108 117 126 135 131 126 122 136 147 148 150 151 155 160 163 166 169 171 172 171 170 170 171 173 174 175 175 176 177 178 179 180 181 185 185 184 184 184 184 183 184 185 179 172 168 183 168 188 203 207 208 208 208 202 195 188 199 196 206 198 189 196 203 211 218 38 44 50 49 49 49 49 48 48 72 136 143 150 157 158 158 159 160 160 161 162 162 160 158 
92 94 97 99 101 104 107 130 150 164 168 169 170 171 150 129 83 86 88 89 91 93 95 96 98 100 102 103 105 91 189 194 168 142 116 108 101 99 103 112 117 118 126 133 129 125 139 145 147 148 150 151 156 162 165 167 170 171 170 169 168 169 171 172 173 173 174 174 175 177 178 180 182 181 181 181 180 180 180 180 177 170 163 156 184 186 196 201 206 208 208 208 208 208 208 201 203 207 198 180 198 204 210 216 38 41 47 51 51 51 50 50 60 107 142 149 157 159 158 158 159 160 160 161 161 161 159 158 
92 95 97 99 102 104 108 130 151 161 165 169 170 171 150 119 84 86 88 90 91 93 95 97 99 101 103 104 102 89 216 201 187 172 157 137 117 97 98 100 101 102 117 132 132 127 142 144 145 147 148 150 153 158 163 166 169 170 169 168 168 167 169 170 171 171 172 172 173 174 175 178 178 178 177 177 177 177 176 176 178 180 181 183 185 190 195 199 204 207 207 207 207 207 207 207 207 207 189 171 186 207 213 126 39 42 45 50 53 53 52 52 79 142 149 156 159 159 158 158 159 159 160 161 161 161 159 157 
93 95 97 100 102 105 108 130 153 157 162 166 170 171 145 114 86 87 89 91 93 95 96 98 100 102 103 103 100 87 214 200 185 170 155 139 119 99 95 96 98 114 113 123 135 130 141 142 144 145 147 148 150 154 160 165 168 169 169 168 167 166 167 168 169 169 170 170 171 172 173 175 175 174 174 174 173 173 175 180 182 184 185 186 186 188 193 198 202 206 206 207 206 206 206 206 206 185 180 162 166 202 216 36 39 42 45 48 53 54 54 59 113 148 155 158 160 159 158 158 159 159 160 161 161 160 158 156 
93 95 98 100 102 105 108 130 152 158 161 165 168 171 143 116 88 88 90 92 94 96 98 99 101 102 102 103 97 85 213 198 183 168 153 138 120 100 97 93 126 126 125 125 130 133 139 141 142 144 145 147 148 150 156 161 166 169 168 167 166 165 165 166 167 167 168 168 169 170 172 171 171 171 171 171 171 174 182 184 186 187 188 188 188 189 191 196 201 206 206 206 206 206 206 206 194 163 173 153 146 182 219 37 40 43 46 49 52 55 56 85 147 154 157 160 160 159 158 158 159 159 160 160 161 159 158 156 
93 96 98 100 103 105 108 130 151 160 163 167 170 171 146 118 90 84 91 93 95 97 99 100 101 101 102 102 94 82 211 196 181 166 151 135 120 102 98 138 138 137 137 137 136 136 138 139 141 142 144 145 147 148 152 157 163 168 167 166 165 164 164 164 165 165 166 166 167 167 168 168 168 168 168 169 173 181 186 188 190 189 189 189 189 190 191 194 199 204 205 205 205 205 205 205 158 141 151 162 126 189 129 39 41 44 46 49 52 55 58 119 154 156 159 161 160 159 158 158 158 159 160 160 161 159 157 155 
94 96 98 101 103 106 108 129 150 162 165 169 171 172 146 120 92 79 93 95 96 98 99 100 100 101 101 102 92 81 214 192 177 162 147 133 118 103 114 125 129 128 128 128 135 135 135 135 136 138 140 142 144 146 148 128 109 89 123 160 161 161 162 162 163 163 164 164 165 165 165 166 166 166 166 173 180 188 190 191 191 191 191 191 191 191 193 194 197 202 204 204 204 205 205 181 122 119 114 93 157 221 38 40 42 44 47 50 53 56 87 153 156 159 161 161 160 159 159 158 158 159 160 160 160 158 157 155 
94 96 99 101 104 106 107 128 149 164 167 170 171 172 146 120 95 74 88 96 98 98 99 99 100 100 101 101 90 79 216 193 173 158 143 128 113 115 110 113 120 120 123 134 130 134 136 134 132 133 135 137 139 141 140 133 126 119 98 77 152 149 147 131 110 114 115 115 116 119 103 76 50 164 172 179 187 192 192 192 192 192 192 192 192 192 194 195 197 201 203 204 204 204 204 145 86 90 94 135 187 133 41 42 43 45 48 51 54 50 116 154 158 161 162 161 160 159 159 158 158 159 159 160 160 158 156 154 
94 97 99 102 104 106 106 128 148 166 169 170 171 173 147 121 95 69 83 97 98 98 99 100 100 101 101 102 92 81 219 195 172 154 139 124 120 127 121 116 111 122 133 134 129 133 136 134 133 131 130 132 134 136 133 126 115 104 101 89 116 132 123 101 79 57 62 66 70 73 67 41 35 155 168 181 194 194 194 194 194 194 194 193 193 194 195 196 198 199 203 203 203 131 92 93 93 94 135 176 217 44 45 45 46 47 49 52 48 78 149 155 160 163 162 161 160 160 159 158 158 159 159 160 159 157 155 154 
95 97 100 102 104 107 105 128 148 168 169 171 172 173 147 121 95 69 82 96 98 99 100 101 101 102 102 103 94 82 177 193 175 151 134 125 132 138 133 115 117 132 138 123 128 132 137 135 133 132 130 128 128 130 125 112 95 89 85 82 79 114 98 83 67 79 54 54 46 39 31 45 193 145 176 192 192 193 195 195 195 195 195 195 195 195 196 197 199 200 202 97 95 93 92 93 117 141 167 195 40 42 44 46 47 49 50 46 41 111 150 156 162 163 162 161 160 160 159 158 158 159 159 160 158 157 155 153 
95 98 100 102 105 107 104 128 148 167 170 171 172 173 147 121 95 69 82 96 97 99 100 102 102 103 104 104 98 84 135 185 167 148 130 137 143 150 118 103 123 142 127 122 127 132 136 136 134 132 130 129 127 125 108 92 77 73 70 67 91 108 93 78 62 100 46 42 35 56 99 185 110 190 190 191 191 191 193 195 197 196 196 196 196 196 197 198 200 145 90 90 91 91 115 139 163 187 211 36 38 40 43 45 47 48 50 47 69 144 151 157 164 163 162 161 161 160 159 158 158 158 159 160 158 156 154 152 
96 98 100 103 105 107 103 128 148 165 170 171 172 174 147 121 95 69 81 95 97 98 100 101 103 104 105 105 101 88 77 202 184 169 159 149 155 136 90 114 139 128 117 122 126 131 135 137 135 133 131 129 109 99 88 71 62 58 55 92 103 101 86 72 57 122 38 59 80 101 166 124 193 188 188 189 189 190 190 192 194 196 198 198 198 198 198 163 127 92 106 121 140 160 132 156 180 204 38 38 39 40 42 43 45 47 49 49 97 147 154 160 162 163 162 161 161 160 159 158 158 158 159 159 157 155 154 152 
96 98 101 103 105 106 102 128 148 164 168 171 173 174 152 121 95 69 81 95 96 98 99 101 102 104 105 106 105 93 86 219 209 198 188 177 167 118 107 135 131 126 122 123 126 130 134 137 135 134 114 94 83 72 62 51 47 43 80 116 80 43 58 74 89 67 44 137 142 147 138 195 190 186 185 186 187 188 188 189 191 193 195 197 199 123 46 129 93 107 121 135 152 171 176 174 198 39 39 40 40 41 43 44 46 47 49 50 122 150 155 160 161 162 162 162 161 160 159 158 158 158 159 159 157 155 153 151 
96 99 101 103 106 105 101 128 148 163 167 172 173 174 157 121 95 69 81 94 96 97 99 100 102 103 105 106 108 102 95 156 211 200 190 180 157 96 124 130 135 131 126 126 129 132 135 138 118 98 78 72 65 59 52 70 43 43 71 83 46 47 80 95 62 125 32 127 132 165 198 193 188 183 182 183 185 186 187 187 189 191 193 193 88 46 114 95 109 123 137 151 165 183 187 191 41 41 41 41 42 42 44 45 47 48 50 80 146 151 155 158 159 160 162 162 161 160 159 158 157 158 159 158 156 154 153 151 
97 99 101 104 106 104 100 128 148 162 166 170 173 174 157 126 95 69 81 94 95 97 98 100 101 103 105 107 109 106 100 94 172 203 192 189 147 114 119 125 130 136 131 130 132 135 133 120 101 81 72 67 60 54 48 89 39 44 62 50 50 51 68 116 34 123 90 116 153 190 192 191 186 181 179 181 182 183 184 185 186 186 187 187 128 69 86 85 106 125 142 160 177 194 118 42 42 43 43 43 44 44 45 47 48 49 51 110 146 151 155 156 157 159 160 161 161 160 159 158 157 158 159 157 156 154 152 150 
97 99 102 104 107 103 99 126 148 160 165 169 173 175 157 131 95 69 81 93 95 96 98 99 101 103 105 107 109 110 104 98 92 205 202 198 103 108 114 119 125 130 136 133 136 128 114 101 85 65 65 71 55 49 67 108 35 44 53 54 55 55 56 78 99 121 128 145 183 184 185 187 184 179 177 178 179 180 181 184 189 190 190 191 151 92 58 74 96 118 138 155 173 59 49 44 44 44 45 45 45 46 46 48 49 51 73 140 146 151 153 155 156 157 158 159 161 160 159 158 157 158 158 157 155 153 151 150 
97 100 102 105 106 102 98 125 147 159 163 168 172 175 157 135 100 69 81 93 94 96 98 100 102 104 106 108 110 112 108 102 94 211 206 172 105 109 114 118 123 127 132 136 123 109 96 83 68 58 59 76 60 44 60 76 81 42 47 49 53 54 55 70 76 81 148 175 176 177 179 180 182 177 174 175 176 177 181 189 191 194 194 195 162 115 56 64 86 107 129 151 104 57 47 45 46 46 47 47 47 48 48 49 50 52 105 140 146 151 152 153 154 155 157 158 159 160 159 158 158 158 158 156 154 153 151 149 
98 100 103 105 105 101 96 124 147 158 162 166 171 175 158 140 105 69 81 92 94 96 98 100 102 104 106 108 110 112 112 106 96 217 210 151 107 111 115 120 124 129 133 122 105 91 78 64 51 52 52 80 66 52 47 44 127 40 41 42 45 49 53 137 84 126 167 168 170 171 172 174 175 174 171 172 173 179 187 191 194 196 198 198 172 126 79 53 75 97 129 160 101 54 46 47 47 48 48 49 49 49 50 50 52 64 135 140 146 149 150 151 153 154 155 156 157 159 159 158 158 158 157 156 154 152 150 148 
98 100 103 105 104 100 95 123 147 156 161 165 169 174 158 140 104 68 80 91 94 96 99 101 103 105 107 109 111 113 115 110 98 223 214 137 109 113 117 121 126 130 129 108 87 73 60 46 48 48 54 71 74 60 52 48 86 107 59 35 38 42 154 83 179 119 155 171 170 168 166 167 169 170 168 169 176 185 191 194 196 199 201 202 183 136 90 43 75 106 138 169 105 52 48 48 49 49 50 50 51 51 52 52 53 96 135 140 146 147 148 150 151 152 153 155 156 157 158 159 158 157 157 155 153 151 150 148 
98 101 103 106 103 99 94 122 147 155 159 164 171 172 158 141 104 67 79 90 95 96 99 101 103 105 107 109 111 113 115 114 100 168 219 123 111 115 118 123 127 132 115 94 72 55 42 65 45 50 56 62 74 69 58 52 44 94 68 49 30 163 102 181 145 134 142 178 176 174 172 170 169 167 165 174 182 191 194 196 199 201 204 206 193 147 100 56 44 72 125 178 114 49 49 50 50 51 51 52 52 53 53 54 54 129 136 143 148 148 149 149 150 150 152 153 154 155 157 158 158 157 156 155 153 151 149 147 
99 101 104 106 102 98 93 121 147 154 158 166 173 171 158 141 104 69 78 89 96 97 99 101 103 105 107 109 112 114 116 118 115 112 223 109 113 117 120 124 129 123 101 80 58 37 104 41 47 53 58 64 73 68 63 119 49 124 77 29 145 123 182 171 160 149 153 165 182 180 178 177 170 166 169 180 188 194 196 199 201 204 206 209 204 157 113 69 44 45 49 172 108 49 50 50 50 51 51 52 52 52 53 53 83 133 140 147 149 150 150 151 151 152 152 153 153 154 155 156 157 157 156 154 152 150 149 147 
99 102 104 105 101 96 92 120 147 153 160 168 175 169 156 142 105 70 77 88 97 98 99 101 103 105 107 109 112 114 116 119 118 118 176 116 118 121 124 127 130 100 71 41 50 44 71 69 42 50 57 65 72 37 105 80 54 154 37 111 144 135 175 183 175 165 163 176 188 182 176 170 167 168 172 183 194 197 199 202 204 207 209 212 214 170 126 82 48 42 84 167 105 49 53 52 51 50 51 51 52 52 53 53 113 137 144 151 151 152 152 152 153 153 154 154 155 155 156 156 157 157 155 153 152 150 148 146 
100 102 104 104 100 95 91 119 147 155 162 170 177 168 155 142 107 72 78 87 98 99 100 101 103 105 107 110 112 114 116 120 121 123 128 124 123 126 129 129 105 45 54 63 64 51 37 96 53 43 51 56 60 58 77 98 47 44 77 147 148 148 168 186 184 180 174 186 181 175 169 168 169 170 176 187 192 195 197 200 202 205 207 210 211 181 137 94 51 49 85 161 105 49 55 54 53 52 51 51 52 52 52 68 129 141 148 152 153 153 154 154 155 155 156 156 156 157 157 157 156 155 155 153 151 149 147 146 
100 102 105 103 99 94 90 118 143 157 164 172 179 167 156 139 109 74 80 86 98 100 101 102 104 105 107 110 112 114 117 120 124 137 95 131 129 132 128 121 79 82 38 85 64 42 52 72 55 37 41 44 48 79 56 117 40 43 113 165 160 160 161 189 187 186 184 179 173 168 169 170 171 172 180 187 190 193 195 198 200 203 205 208 207 190 147 95 54 54 53 136 105 49 55 57 56 55 54 53 52 52 52 97 133 145 151 154 155 155 155 156 156 157 157 158 158 157 156 155 154 154 153 152 150 149 147 145 
100 103 105 102 98 93 89 117 140 160 167 174 178 170 158 136 111 76 81 87 97 101 102 103 105 106 108 110 112 114 117 121 149 159 62 98 134 127 120 113 50 119 40 103 48 35 67 49 41 41 49 47 36 100 35 34 33 157 149 173 173 173 173 192 190 189 161 82 96 110 136 172 173 174 181 185 188 191 194 196 198 201 203 206 204 200 139 79 58 56 53 112 127 49 55 59 58 57 56 55 54 53 52 126 137 148 155 156 156 157 157 158 158 159 158 157 156 155 154 153 153 152 152 152 150 148 146 144 
101 103 105 101 97 92 88 113 136 159 170 177 177 172 157 132 107 77 83 89 96 102 103 104 105 107 108 110 112 114 118 146 173 54 69 84 185 127 68 83 97 43 41 120 32 36 43 46 59 44 52 61 69 58 47 42 91 91 185 185 185 185 185 195 193 135 138 140 111 89 67 103 140 176 179 182 186 189 192 194 197 199 202 204 171 138 100 62 59 56 53 50 170 49 55 60 61 60 59 58 57 53 75 132 141 152 157 157 158 158 159 158 158 157 156 155 154 153 153 152 151 150 150 150 149 147 146 144 
101 103 104 100 95 91 87 110 133 156 172 176 177 174 154 129 104 79 85 90 96 103 104 105 106 108 109 110 112 115 143 157 171 49 71 93 133 93 61 56 70 67 114 41 39 37 50 63 76 48 56 61 61 49 49 49 149 155 177 189 191 193 196 198 110 123 137 150 163 127 91 93 94 96 166 172 178 184 190 189 188 187 187 97 97 97 137 96 54 51 48 48 173 109 53 60 63 62 61 58 54 50 98 139 146 156 159 159 159 158 158 157 156 155 154 153 152 152 151 150 149 148 148 148 148 147 145 143 
101 104 103 99 94 90 84 107 130 152 175 175 176 176 152 128 104 80 86 92 98 104 105 106 107 109 110 111 112 126 140 154 168 182 142 102 81 59 54 48 43 71 100 40 109 42 59 77 94 51 54 57 53 44 29 162 124 146 168 190 192 195 197 85 80 83 87 100 113 77 74 114 115 124 140 156 168 181 193 190 180 169 144 119 88 56 54 51 49 46 46 46 177 112 47 57 66 62 58 55 51 47 121 145 153 160 159 158 157 157 156 155 154 153 152 152 151 150 149 148 147 147 146 146 146 146 145 143 
102 104 102 98 93 88 82 105 127 150 175 176 176 177 153 129 105 81 87 93 99 105 104 103 102 101 100 99 200 132 146 160 170 142 106 69 35 116 89 63 71 78 85 39 43 46 41 37 32 120 49 48 45 38 92 103 194 177 160 182 194 196 83 66 49 53 56 60 63 60 57 54 136 139 143 150 167 184 196 201 191 103 60 59 57 54 51 48 46 45 44 44 180 115 61 70 63 60 56 52 48 44 144 150 156 159 158 157 156 155 154 153 152 152 151 150 149 148 147 146 146 145 145 145 145 145 144 142 
102 105 101 97 92 86 79 102 125 149 175 177 177 177 153 129 105 81 87 94 100 103 101 97 93 89 85 198 168 137 148 159 131 103 71 35 128 39 83 56 99 106 75 43 42 45 81 76 36 40 44 40 37 33 155 172 189 195 196 196 195 80 66 53 55 64 62 66 174 176 69 62 112 129 132 145 162 178 195 212 80 62 44 147 163 51 48 45 45 44 43 42 183 97 74 67 59 58 55 51 47 75 145 151 157 158 157 156 155 154 152 151 151 150 149 148 147 146 146 145 144 143 143 143 143 143 143 142 
103 104 100 96 89 83 77 99 122 149 175 177 178 178 154 130 106 82 88 94 99 101 100 96 93 82 71 183 153 159 147 119 91 63 35 120 59 51 53 49 127 96 64 47 43 45 120 58 39 41 41 38 35 71 163 168 185 195 197 199 93 97 86 43 60 77 79 72 188 186 182 70 87 105 122 139 156 180 204 169 100 90 72 108 168 106 45 45 44 44 43 43 176 78 71 63 56 55 53 49 45 105 145 153 157 157 156 155 154 153 152 151 149 148 147 146 145 145 144 143 142 141 141 141 141 141 141 141 
103 103 99 93 87 80 74 97 122 149 175 178 178 179 155 131 107 83 89 95 97 98 100 89 79 68 57 168 156 182 207 75 57 38 100 78 43 62 70 94 118 111 54 51 47 44 42 39 39 38 38 36 52 109 172 176 180 194 196 106 110 115 119 92 95 97 100 151 201 183 165 147 140 133 126 135 152 188 220 125 120 114 101 132 172 94 65 57 49 45 44 44 168 104 77 60 52 51 50 48 76 136 146 154 156 156 155 154 154 152 151 150 149 147 146 145 144 143 142 141 140 140 139 139 139 139 152 165 
103 102 97 90 84 78 72 96 122 149 176 178 179 180 156 132 108 84 90 93 94 98 102 37 82 127 140 153 116 78 41 56 120 133 85 36 55 74 88 111 108 122 95 96 40 45 43 40 38 36 35 34 90 146 180 184 189 193 93 114 125 130 136 141 132 123 113 123 174 179 161 150 144 137 130 131 148 188 220 147 141 135 129 156 110 64 84 76 68 61 53 45 156 129 103 76 49 48 47 46 101 134 145 156 155 155 154 153 153 152 151 149 148 147 145 144 143 142 140 139 139 138 138 138 150 163 175 188 
104 100 94 88 82 75 69 96 122 149 176 178 180 180 156 132 108 84 89 91 96 100 105 91 136 111 106 117 96 58 42 37 151 78 107 36 42 65 105 102 99 105 135 35 41 47 44 41 38 36 35 97 98 184 189 193 198 80 101 122 138 143 147 148 145 136 127 137 147 174 160 154 148 141 134 128 145 186 220 169 163 154 137 143 97 101 89 76 70 62 54 46 156 115 88 62 48 47 46 45 122 135 148 156 155 154 153 152 152 151 150 149 147 146 145 144 142 141 140 139 137 136 151 167 182 189 189 189 
104 98 91 85 79 73 66 96 122 149 176 178 180 181 157 133 109 85 89 94 98 102 107 144 120 95 71 81 76 49 55 72 89 106 83 36 42 48 54 117 102 87 59 43 42 48 46 42 39 37 35 159 144 188 194 203 78 96 115 133 151 152 154 155 156 149 140 150 160 170 164 157 151 145 139 132 141 182 220 192 179 162 146 129 118 106 95 72 69 63 55 48 156 101 74 48 46 45 44 43 127 141 153 156 154 153 152 151 150 150 149 148 147 145 144 143 142 140 139 138 141 166 191 191 191 191 191 191 
101 95 89 83 76 70 64 97 123 149 176 178 180 182 158 134 109 82 97 113 119 114 109 132 102 125 147 102 56 67 77 88 102 100 68 36 50 64 78 100 129 92 171 51 47 50 47 43 40 37 91 139 190 193 195 76 91 106 122 137 149 155 161 162 163 163 153 163 173 168 163 158 154 148 142 136 137 178 220 201 182 163 144 132 123 111 100 68 65 61 57 49 156 129 60 46 45 45 45 66 133 146 157 155 154 153 152 150 149 149 148 147 146 145 144 142 141 140 139 146 171 187 192 192 192 192 192 192 
98 95 86 80 74 67 61 98 124 149 176 178 181 182 158 132 105 78 94 110 125 141 157 151 144 60 58 56 59 69 82 99 116 94 62 40 39 59 88 117 112 65 49 130 91 51 48 44 41 37 147 118 189 201 143 74 92 107 123 138 147 153 159 165 170 172 167 177 171 166 161 156 152 147 142 138 133 176 218 197 178 159 145 136 127 117 105 64 61 57 54 50 156 157 46 46 46 46 46 90 138 150 156 155 154 153 152 150 149 148 147 146 145 144 143 142 140 139 151 173 183 192 193 193 193 193 193 193 
96 97 84 77 71 65 59 99 125 150 176 178 181 183 156 129 102 75 91 106 122 137 152 107 111 77 75 68 61 78 95 113 120 88 51 44 43 42 52 81 94 38 78 118 119 44 44 42 38 120 108 204 187 209 67 72 93 108 123 139 145 151 157 163 168 174 180 175 169 164 159 154 149 145 140 135 133 174 217 194 173 157 148 139 130 121 111 60 57 53 66 46 147 129 72 45 48 48 48 113 143 154 156 155 154 153 151 150 149 148 146 145 145 144 142 141 140 156 169 179 189 193 194 195 195 195 194 194 
93 94 86 75 69 62 56 98 126 151 175 178 180 182 156 126 98 71 87 103 117 132 146 63 79 94 102 110 118 62 109 126 114 77 48 47 47 46 46 45 49 53 84 116 147 36 36 36 36 117 151 192 177 50 76 69 94 109 124 138 144 149 155 161 167 172 176 173 167 162 157 152 147 142 138 133 133 167 215 192 169 160 151 143 134 125 116 56 69 81 94 41 138 142 103 40 43 47 50 136 147 157 156 155 154 152 151 150 149 147 146 145 144 143 142 140 155 165 175 185 192 193 195 196 196 196 196 196 
90 91 88 75 66 60 53 96 127 152 175 177 179 180 160 129 99 68 83 97 112 126 141 140 46 113 75 83 82 72 62 140 103 67 52 51 51 48 46 50 64 68 99 130 141 151 33 33 97 114 194 181 167 44 84 67 95 110 125 136 142 147 153 159 164 168 173 170 165 160 155 150 145 140 136 132 133 160 205 209 174 157 149 140 131 122 101 55 66 77 90 41 111 155 141 34 39 42 87 140 150 157 156 155 153 152 151 150 148 147 146 145 143 142 141 151 161 171 181 191 193 194 196 197 197 197 197 197 
87 89 90 77 63 57 51 93 128 153 174 176 178 179 164 133 102 78 81 95 108 122 135 42 87 131 94 56 63 70 77 104 80 56 54 52 50 48 46 55 69 83 132 180 40 135 28 29 157 113 200 206 33 37 92 65 94 111 126 134 140 146 151 156 160 165 169 167 162 158 153 148 143 138 133 131 132 154 195 226 178 154 146 137 128 119 85 54 65 75 86 40 101 162 113 28 33 38 113 144 154 157 156 154 153 152 151 150 148 146 145 143 142 140 144 157 167 177 187 193 194 195 196 198 198 198 198 198 
84 86 87 79 65 54 48 90 129 152 173 176 176 177 167 137 106 87 81 94 108 121 119 56 117 76 71 66 69 80 91 92 93 94 53 51 49 47 45 60 74 120 86 162 53 87 34 73 113 158 203 38 35 36 101 63 92 112 126 132 138 143 148 152 157 161 165 164 159 155 151 146 140 136 131 131 132 147 185 219 183 151 143 134 126 117 70 53 64 75 85 55 91 169 114 58 33 70 139 149 158 156 155 153 152 150 149 147 146 144 143 141 140 138 147 163 173 184 193 194 195 196 197 198 200 200 199 199 
82 83 84 81 68 54 46 88 130 151 173 174 175 176 171 141 110 97 91 94 108 120 103 70 80 90 70 71 71 71 89 116 124 132 51 51 48 46 50 64 79 157 99 99 42 38 78 118 139 174 146 45 40 34 109 60 90 113 125 130 135 140 144 148 153 157 162 161 157 152 148 144 138 133 130 131 132 140 176 212 182 148 140 131 123 114 56 52 63 74 84 62 65 167 122 78 33 94 142 152 157 156 154 152 150 148 147 145 144 142 141 139 138 136 151 169 180 190 194 195 196 197 198 199 200 201 201 201 
79 80 82 83 70 56 43 90 136 154 172 173 174 174 175 144 113 107 100 94 107 119 92 65 95 105 74 64 143 51 88 124 142 92 49 48 48 46 55 55 40 76 112 36 39 43 124 154 164 189 49 45 42 37 109 58 88 114 123 127 132 136 140 145 149 153 158 158 154 149 145 141 136 131 130 131 132 133 169 204 175 145 138 130 123 89 41 52 62 73 84 61 39 165 124 83 35 110 146 155 155 155 155 152 150 148 145 143 142 140 139 137 136 134 154 176 186 194 195 196 197 198 199 200 201 202 202 202 
76 77 79 80 72 58 54 96 142 160 169 174 175 176 171 145 113 100 93 95 107 119 87 60 90 119 89 58 84 110 79 119 159 52 88 44 44 45 46 47 105 164 45 46 46 47 169 180 190 52 49 46 42 39 109 111 113 115 119 124 128 132 137 141 145 150 154 155 151 146 142 138 133 129 116 102 89 125 161 197 178 159 140 132 111 62 43 50 62 72 83 61 39 154 133 89 37 127 149 153 154 154 154 153 151 148 146 144 141 139 137 135 134 132 157 182 192 194 196 197 198 199 200 201 202 203 203 203 
73 75 76 77 74 61 65 104 148 162 166 171 176 177 167 147 113 92 86 96 107 119 85 55 85 91 43 116 100 84 68 95 121 87 126 38 38 167 53 74 95 46 88 94 101 109 132 155 118 49 49 47 43 40 114 96 98 115 119 120 124 129 133 137 142 146 150 152 148 143 139 135 132 137 143 130 124 142 178 188 174 160 147 134 83 48 45 46 58 70 82 61 39 142 142 91 39 143 151 152 152 152 153 153 152 149 147 144 142 140 137 135 132 130 160 188 194 195 196 198 199 200 201 202 203 204 205 204 
70 72 73 75 76 63 76 115 154 159 164 168 173 178 163 148 113 85 87 97 107 119 85 50 57 63 142 44 67 89 112 98 83 111 140 61 46 138 71 59 47 109 130 134 142 99 124 211 46 46 46 45 44 41 119 81 98 114 121 123 124 125 129 134 138 142 147 149 145 140 136 135 140 144 170 157 159 177 195 178 163 150 137 114 53 50 46 43 59 75 77 67 45 101 153 88 78 146 150 150 151 151 151 152 152 150 148 145 143 141 138 136 133 133 164 194 195 196 197 198 200 201 202 203 204 205 206 206 
67 69 70 72 73 65 86 126 154 160 164 169 174 179 164 145 114 78 88 98 108 119 85 71 100 126 42 47 64 87 91 85 115 134 153 84 102 97 61 56 51 171 173 175 83 89 195 52 49 47 46 44 43 42 94 102 97 114 124 125 126 128 129 130 134 139 143 146 142 137 138 143 147 152 167 184 194 200 193 169 153 140 137 95 51 49 45 53 69 80 73 66 51 81 163 86 117 148 148 149 149 150 150 150 151 151 149 146 144 141 139 137 134 136 167 196 197 197 198 199 201 202 203 204 205 206 207 207 
65 66 68 69 70 67 97 125 153 160 165 170 175 180 165 143 115 80 95 105 112 119 59 91 123 39 45 50 62 75 69 64 58 90 122 140 157 55 67 79 91 124 185 163 95 84 57 54 52 49 48 47 45 60 91 122 94 113 126 128 129 130 131 133 134 135 139 143 139 141 146 150 155 159 164 211 204 197 190 175 143 140 136 47 48 47 44 62 78 76 68 61 54 62 168 106 137 150 148 147 148 148 148 149 149 150 149 147 145 142 140 137 134 140 170 198 199 199 200 201 201 203 204 205 206 207 208 208 
62 63 65 66 68 69 97 125 153 159 165 171 176 181 166 140 115 81 97 112 125 132 55 87 102 51 54 56 59 72 85 86 74 59 91 109 89 72 107 119 131 164 196 151 106 123 55 55 55 52 50 49 48 78 98 94 90 110 129 130 131 133 134 135 136 138 139 140 141 142 144 145 146 147 151 169 184 183 182 181 156 142 94 48 46 46 54 72 78 71 64 57 49 42 173 125 142 151 149 148 147 147 147 147 148 148 148 148 145 143 141 138 132 143 175 200 201 201 202 203 203 204 205 206 207 208 209 209 
59 60 62 63 65 71 97 125 153 159 165 171 177 181 163 137 112 83 98 114 129 145 51 66 81 63 66 63 55 126 114 102 90 121 60 82 63 89 119 159 171 204 95 89 188 52 53 53 54 54 53 51 66 73 76 84 92 105 124 128 132 136 139 140 141 142 144 104 116 127 128 129 131 134 137 141 157 156 137 99 122 145 51 49 47 45 63 81 76 72 67 62 52 44 164 131 148 153 150 148 148 147 147 146 146 147 147 147 146 144 141 139 130 146 181 202 203 204 204 205 205 206 207 207 208 209 210 211 
56 58 59 61 62 73 98 124 152 159 165 171 177 182 160 135 109 84 94 105 130 122 60 65 70 75 67 59 51 140 108 107 106 125 143 55 80 106 131 171 211 137 114 124 50 50 51 51 52 52 53 53 61 70 78 86 95 103 119 123 127 131 135 139 143 147 131 115 111 112 113 114 117 121 124 128 131 125 119 116 129 95 47 45 45 45 51 69 87 82 77 62 49 47 156 137 154 154 152 150 148 148 147 147 146 146 145 146 146 145 142 138 129 150 187 204 205 206 206 207 208 208 209 209 210 211 211 212 
53 55 56 57 58 74 100 126 152 158 164 171 177 183 166 149 132 129 75 115 132 100 68 66 64 69 80 73 47 155 107 91 104 99 60 115 119 123 126 121 185 106 132 158 49 50 50 51 51 52 52 54 56 63 73 83 93 104 114 118 122 126 130 135 139 143 142 126 118 118 119 118 128 147 165 184 203 139 133 133 136 45 45 45 45 46 46 58 97 93 71 54 52 49 147 143 158 156 153 151 149 148 148 147 147 146 146 145 145 145 143 136 127 156 194 206 207 208 208 209 210 210 211 212 212 212 211 211 
51 52 53 54 55 76 102 127 150 159 166 172 178 182 181 180 121 62 102 141 114 87 61 149 51 62 74 85 96 169 122 74 102 130 115 107 113 118 122 214 94 161 103 45 48 49 50 50 51 51 52 55 57 60 62 72 83 93 104 114 118 122 126 130 134 140 146 137 124 125 126 121 123 142 161 160 157 152 147 137 87 45 45 46 46 46 46 46 108 81 59 57 54 52 138 148 159 157 155 153 150 149 148 148 147 147 146 146 145 145 144 135 125 162 200 208 209 210 210 211 212 212 212 211 211 211 210 210 
48 49 50 51 52 77 101 126 149 161 167 173 179 180 180 172 120 61 98 137 103 78 53 108 54 52 63 74 100 133 88 106 86 65 99 98 105 111 117 172 140 215 49 47 46 49 49 50 50 51 53 56 58 60 63 65 72 82 93 105 114 118 122 126 130 136 142 149 133 131 132 125 118 118 117 117 126 135 145 129 45 45 46 46 46 46 46 46 100 64 62 59 57 54 130 154 161 159 156 154 152 150 149 148 148 147 147 146 146 145 140 132 123 169 206 211 211 212 212 212 211 211 211 210 210 210 209 209 
45 46 47 49 50 76 100 125 147 162 168 174 180 179 178 164 118 59 94 133 91 66 57 66 57 48 53 71 95 110 95 138 120 102 84 90 97 103 109 174 186 53 51 49 46 48 49 49 50 52 54 56 59 61 64 66 69 71 83 94 106 114 118 122 126 132 139 145 144 137 136 129 138 142 142 134 129 133 142 45 45 45 46 46 46 46 47 47 91 81 71 62 59 57 121 160 162 160 158 156 153 151 149 149 148 148 147 147 146 143 136 130 120 166 212 212 211 211 211 211 210 210 210 209 209 209 208 207 
47 44 45 46 48 75 100 124 145 163 169 175 178 178 177 157 117 58 91 129 78 53 62 66 58 50 42 57 72 86 101 121 116 98 101 89 89 95 102 218 95 52 51 50 48 47 48 49 50 53 55 57 60 62 64 66 68 69 64 84 95 107 113 118 123 129 135 141 147 144 139 149 158 167 159 152 144 141 140 49 46 46 46 46 47 47 47 47 94 87 80 73 66 59 113 166 164 162 159 157 155 153 151 149 149 148 148 147 146 139 132 126 118 164 211 211 211 210 210 210 209 209 209 209 208 208 207 206 
48 45 43 44 46 72 99 124 143 161 170 177 177 176 176 149 109 56 89 125 66 57 66 67 59 51 45 62 89 104 75 104 111 104 117 105 93 87 94 137 53 51 50 50 49 48 48 49 51 53 56 57 59 61 62 64 66 67 69 57 77 96 108 113 119 125 131 138 144 150 154 158 163 167 167 163 158 154 64 54 47 47 47 47 48 48 48 53 97 90 83 76 68 60 121 158 154 159 161 159 156 154 152 150 149 149 148 148 142 135 128 122 115 175 210 210 210 209 209 209 208 208 208 208 207 206 206 205 
50 46 43 42 43 70 97 123 142 160 172 176 176 175 174 141 101 55 88 121 53 62 71 67 60 53 47 43 83 122 49 78 107 121 134 122 110 98 86 55 52 49 49 48 48 47 47 49 50 52 54 55 57 59 61 62 64 66 68 66 50 70 89 109 114 119 124 129 137 149 154 158 162 166 171 168 163 145 64 58 48 48 48 48 49 48 48 60 99 92 85 77 69 62 130 151 139 142 145 152 158 156 154 151 150 149 149 144 138 131 125 119 126 186 209 209 209 208 208 208 208 207 207 207 206 200 189 178 
52 48 45 41 41 68 95 122 140 158 173 175 174 174 173 133 93 53 111 106 49 62 76 69 62 55 50 46 63 128 72 56 85 130 100 121 142 163 146 129 51 48 48 47 47 48 47 48 49 50 52 54 55 57 59 60 62 64 66 68 59 43 50 57 64 88 112 124 136 148 153 157 162 166 170 173 168 135 64 60 52 49 49 49 49 49 49 66 102 94 86 78 71 63 139 143 131 126 129 132 138 144 151 153 151 150 147 141 134 128 122 116 137 197 209 208 208 208 207 207 207 206 206 196 185 139 94 48 
53 50 46 43 39 62 85 108 138 156 174 174 175 175 176 142 92 126 159 102 45 58 81 66 64 57 52 48 44 133 95 57 64 139 66 113 139 144 70 148 98 47 48 48 49 49 46 47 48 49 50 52 54 55 57 59 60 62 64 66 68 80 90 97 121 120 119 123 135 147 152 156 161 165 170 174 173 126 64 60 55 50 50 50 50 49 49 73 107 89 83 77 70 64 148 136 123 111 114 117 120 125 131 137 144 150 144 138 132 126 119 113 147 208 207 207 206 206 205 205 204 204 168 123 61 49 49 54 
55 53 51 49 46 48 71 94 137 154 168 172 176 178 178 162 142 153 107 98 40 49 85 55 57 59 56 53 50 107 132 87 42 76 109 115 120 126 131 58 171 150 49 50 50 58 46 47 48 49 50 51 52 53 55 57 59 60 62 64 72 101 130 129 128 127 126 125 134 147 151 156 160 165 169 174 178 184 190 196 124 51 51 50 50 50 50 79 113 83 76 70 67 64 147 143 130 118 117 115 114 112 111 116 122 127 132 131 129 123 117 111 158 208 205 204 204 203 202 202 201 174 129 84 39 50 62 60 
92 75 58 56 54 55 56 79 122 153 161 165 169 173 177 181 119 56 55 164 36 34 90 43 47 51 78 66 55 80 106 131 126 120 166 130 94 114 127 85 171 118 107 51 52 75 45 46 47 48 49 50 51 52 53 55 57 59 60 61 76 105 127 130 134 134 133 132 134 146 150 155 159 164 168 172 177 182 188 194 198 202 130 69 63 56 50 84 118 76 73 70 67 64 145 147 137 125 124 122 121 119 116 112 108 104 109 114 113 111 110 108 158 208 205 202 201 200 200 199 181 136 91 45 53 63 75 67 
128 111 95 78 61 62 64 65 108 151 156 162 167 173 178 166 115 108 183 45 41 37 60 98 39 43 108 97 107 32 131 103 75 66 56 77 98 119 123 111 171 86 75 64 53 91 45 46 47 48 49 50 51 52 53 54 55 56 57 58 80 106 125 128 131 134 137 139 138 145 149 154 158 163 167 171 176 181 187 193 197 201 204 208 93 70 48 82 102 71 73 70 67 64 144 146 144 132 131 129 127 123 120 117 113 109 104 100 96 90 84 78 158 208 205 202 200 197 197 187 142 79 52 59 66 76 81 73 
128 141 124 107 83 60 61 62 105 148 159 164 170 175 180 150 111 160 131 47 43 39 49 61 48 35 138 91 88 62 103 75 92 131 57 80 102 123 119 122 83 150 51 162 60 56 45 50 51 52 53 54 55 56 57 57 58 64 59 55 81 107 122 125 128 131 135 138 141 144 148 153 157 161 166 170 174 179 185 191 195 199 203 207 213 129 45 66 87 67 70 70 67 64 143 144 146 139 138 135 131 128 125 121 118 114 110 105 101 104 98 92 150 208 205 202 200 197 194 131 68 58 65 73 80 88 87 79 
129 141 153 129 104 74 58 60 103 145 162 167 172 177 174 135 165 70 60 49 45 42 38 67 97 126 75 72 70 67 74 69 82 70 58 81 104 127 130 133 115 55 97 82 66 49 46 54 55 56 57 58 59 60 58 56 60 77 73 51 82 109 119 123 126 129 132 136 142 143 147 152 156 160 165 169 173 178 183 189 194 198 201 206 211 215 154 50 71 62 65 68 67 64 142 143 145 146 143 139 136 133 129 126 122 119 115 111 106 112 112 106 164 207 205 203 200 197 149 57 64 72 79 86 94 101 93 85 
129 118 145 150 126 97 64 57 99 142 165 170 174 180 158 189 219 128 36 37 38 39 38 44 59 88 77 69 62 54 46 54 63 71 57 67 84 107 141 144 147 53 162 121 184 43 46 57 60 61 62 63 61 60 58 56 63 85 86 47 81 110 117 120 124 129 134 139 142 143 145 150 155 159 163 168 172 176 181 187 193 196 200 205 210 213 217 179 55 58 60 63 66 64 140 142 144 145 144 142 140 137 134 130 127 124 120 116 112 117 122 119 182 206 205 203 200 197 105 64 71 78 86 93 100 100 99 92 
83 91 137 156 147 121 87 54 96 139 169 173 178 182 177 171 166 102 37 38 39 39 39 38 50 65 79 69 59 49 71 76 84 74 56 66 76 86 151 133 114 106 103 176 106 36 47 57 64 65 65 63 61 59 58 56 66 88 99 42 77 111 116 121 126 132 137 141 142 142 145 148 154 158 162 167 171 175 180 186 191 195 199 204 208 211 215 218 138 53 56 59 61 64 139 142 143 144 144 142 139 138 137 135 131 128 125 121 117 122 128 133 206 205 204 202 200 152 88 71 78 85 93 100 101 99 102 98 
37 83 129 161 153 144 96 49 105 136 172 176 179 181 159 167 214 103 39 40 39 39 39 39 42 56 98 57 49 41 96 44 105 60 56 66 82 82 126 138 131 159 43 61 79 39 49 58 68 66 64 63 61 59 57 56 69 90 112 38 76 114 119 124 129 134 140 140 141 141 144 147 150 157 161 165 170 174 178 184 190 193 197 203 206 210 213 217 220 49 49 49 49 101 139 141 142 143 144 142 139 137 135 134 133 132 129 126 122 127 141 162 209 207 205 202 200 136 71 78 85 92 99 107 95 98 101 104 
37 68 117 167 158 148 91 43 99 155 175 177 178 180 166 136 106 73 40 40 40 39 39 39 39 48 116 43 45 47 68 99 72 45 62 78 95 77 101 143 148 158 38 53 133 43 52 61 66 64 64 62 61 59 57 55 71 93 115 41 80 117 122 127 132 137 139 140 140 141 143 146 149 152 160 164 169 173 177 182 188 192 196 201 204 208 211 215 218 189 42 39 35 137 138 140 141 142 144 142 140 137 135 132 130 130 129 128 127 148 170 191 212 210 207 205 175 111 81 87 92 99 106 101 94 97 101 101 
37 49 99 160 162 152 95 38 97 156 176 176 177 179 172 143 132 177 43 44 43 42 41 41 40 39 127 40 48 52 64 66 49 51 75 91 91 73 76 148 156 158 32 45 186 46 54 61 65 62 61 60 60 59 57 55 74 96 118 45 82 119 124 130 135 138 139 139 140 140 142 145 148 151 154 163 167 172 176 180 186 191 194 199 203 206 210 213 215 218 39 37 33 138 137 139 140 142 143 143 140 138 135 133 130 128 126 125 161 182 203 208 213 212 210 194 150 86 91 97 102 108 113 90 94 98 102 99 
37 30 92 153 155 156 97 37 98 157 176 177 178 178 179 169 158 113 46 46 47 47 46 45 45 76 138 37 45 52 60 54 47 56 80 104 86 69 51 153 155 157 102 47 135 109 54 61 63 61 59 57 57 56 56 55 77 99 121 48 85 122 127 132 137 137 138 138 139 139 141 144 147 150 154 157 166 171 175 179 185 189 193 198 201 204 207 210 213 216 128 36 31 140 139 138 139 141 142 143 140 138 135 133 130 128 125 123 194 199 205 210 213 213 212 169 125 96 101 107 108 109 110 96 95 99 102 96 
37 31 90 152 165 144 96 36 98 158 177 177 178 176 174 148 98 48 49 49 50 51 51 50 61 113 112 52 47 55 53 52 45 62 66 52 109 91 101 139 130 120 171 116 144 172 86 62 61 59 57 55 54 53 53 81 123 123 116 55 88 125 130 135 136 137 137 138 138 139 140 143 146 150 153 156 160 169 174 178 183 188 192 196 199 202 205 208 211 213 216 32 32 141 140 139 138 140 141 143 141 138 136 133 131 128 126 134 198 201 206 211 214 213 196 148 100 101 102 103 104 105 107 103 96 100 100 93 
37 32 80 150 176 133 89 35 97 159 177 175 173 171 169 167 117 49 50 51 52 53 54 55 88 42 86 68 49 48 46 45 43 51 60 47 58 113 132 138 116 84 104 184 112 39 51 62 60 58 55 53 51 50 64 101 124 125 112 62 91 128 133 135 136 136 137 137 137 138 139 142 146 149 152 155 158 163 173 177 181 186 191 194 197 200 203 205 209 213 213 27 32 142 141 140 139 139 140 142 141 138 136 134 131 129 126 145 201 204 208 213 214 209 180 132 100 97 99 100 101 102 103 104 97 100 99 91 
36 33 70 138 173 139 87 34 101 143 176 174 171 166 163 161 135 51 52 53 54 53 53 66 52 78 82 72 54 49 48 47 45 67 75 41 53 64 143 138 132 93 38 60 82 140 128 115 104 92 81 70 58 47 78 110 124 128 107 68 97 130 134 135 135 135 136 136 137 137 138 142 145 148 151 154 157 160 167 176 180 185 189 192 195 198 201 205 209 212 209 115 42 144 143 141 140 139 139 141 141 139 136 134 131 129 127 156 205 207 210 214 213 203 164 116 101 94 95 96 98 99 100 101 98 99 98 88 
36 34 59 126 170 155 102 42 109 136 174 173 171 170 164 159 154 52 52 51 51 51 51 61 69 73 77 77 58 50 49 49 47 46 91 36 50 96 123 131 128 126 42 120 37 50 63 85 85 73 62 51 47 61 90 119 125 130 103 75 104 133 133 134 134 135 135 136 136 137 138 141 144 147 150 153 156 159 163 170 179 183 187 190 194 198 202 206 210 209 206 203 51 145 144 143 142 141 139 140 141 139 137 134 132 129 127 168 208 211 213 216 206 196 148 109 101 94 91 92 94 95 96 98 99 98 97 85 
36 35 49 114 167 152 118 50 97 135 173 171 170 168 167 163 158 54 49 49 49 49 55 61 65 69 73 77 63 52 51 50 49 48 70 97 49 76 103 120 118 102 125 122 51 58 65 55 66 55 47 47 47 75 104 119 117 123 85 77 106 133 136 135 134 134 135 135 135 136 137 140 143 146 149 152 155 159 162 165 173 182 186 190 194 198 202 206 208 205 204 206 97 141 128 137 143 142 141 140 140 139 137 134 132 133 134 129 169 172 188 217 205 182 133 109 102 95 87 89 90 91 93 100 98 97 96 82 
36 36 39 102 164 149 134 58 96 134 171 170 168 167 165 164 162 57 45 46 47 46 52 56 61 65 69 73 68 53 52 51 50 49 48 63 77 54 65 110 94 77 101 124 169 51 50 48 47 47 47 46 61 88 115 119 114 115 68 78 130 134 137 138 137 136 135 134 135 135 136 139 142 145 148 151 155 158 161 164 167 175 184 191 195 199 203 207 205 205 207 210 143 137 103 112 121 130 139 141 140 140 137 137 140 143 141 136 130 160 189 219 204 167 117 110 102 95 88 85 86 91 102 100 98 96 94 80 
36 38 37 107 169 154 141 62 94 132 170 168 167 165 164 162 144 59 47 41 43 44 48 52 56 60 64 68 73 54 53 52 51 50 43 91 105 82 58 35 150 53 83 113 37 40 43 45 47 46 46 46 73 99 120 119 114 108 51 103 130 134 138 141 141 140 139 138 137 136 135 138 141 144 147 150 153 156 159 162 165 171 178 186 194 199 203 204 206 208 210 213 189 133 77 86 95 104 113 122 131 140 143 146 149 152 148 137 142 169 195 220 203 148 110 106 100 93 87 81 92 103 101 99 97 95 93 77 
36 36 35 105 174 161 148 67 99 131 168 167 165 164 162 161 126 74 56 37 42 44 45 48 52 56 60 64 68 59 54 53 52 48 37 85 133 105 77 64 58 52 67 101 38 40 42 44 46 46 46 60 84 110 120 119 114 73 72 127 131 134 138 141 145 144 142 141 140 138 137 137 139 142 146 149 152 155 158 161 164 169 176 183 190 197 204 206 209 211 214 216 204 105 81 79 71 75 84 93 102 111 123 136 148 161 143 125 153 182 208 214 178 123 102 99 94 88 82 90 104 102 100 98 96 94 92 74 
48 41 33 102 172 168 154 71 103 135 167 166 164 163 161 160 108 89 65 40 44 45 45 46 49 52 56 60 64 63 55 54 54 43 32 73 113 120 99 91 78 62 46 44 42 40 42 44 46 46 50 74 97 121 120 119 78 37 101 128 132 136 139 143 144 145 144 143 142 140 139 137 139 141 144 147 150 153 156 159 162 166 173 180 187 194 200 206 205 207 211 214 218 77 84 88 81 73 65 63 72 81 94 107 114 143 169 149 161 192 222 208 153 98 95 92 89 83 84 100 95 93 91 89 87 93 89 72 
60 53 60 100 169 165 161 75 105 134 167 172 165 161 160 158 123 94 59 44 45 45 45 45 47 50 52 55 60 64 57 56 48 40 36 40 87 134 123 112 98 76 48 47 46 44 42 44 46 45 64 88 111 117 118 94 53 74 126 130 134 137 141 142 143 144 145 145 143 142 141 139 138 140 143 145 148 151 154 157 160 164 171 178 185 191 196 202 207 206 205 206 210 141 88 95 90 82 75 67 60 52 60 67 75 124 195 172 167 198 210 172 119 82 81 80 79 78 97 101 87 85 83 85 93 96 85 69 
72 72 87 102 167 167 168 106 101 133 167 172 177 170 164 157 122 87 52 45 45 45 45 46 46 48 51 53 56 59 58 54 47 43 40 42 48 81 110 134 106 77 49 48 47 46 45 43 45 55 78 100 112 114 115 69 57 111 128 131 135 139 140 141 142 143 144 145 145 144 143 141 140 140 142 145 147 150 153 156 159 162 168 175 182 187 193 198 203 209 208 207 206 205 80 98 100 92 84 77 71 65 59 47 35 116 197 185 173 198 186 137 86 67 66 70 79 92 112 86 78 78 86 94 102 93 82 66 
84 99 113 128 168 171 174 136 98 133 167 172 177 182 171 160 121 83 45 45 45 46 46 46 46 47 50 52 54 57 59 55 51 47 43 44 60 73 62 136 107 79 51 50 49 48 47 46 45 67 90 107 109 97 73 44 89 125 129 133 136 137 138 139 141 142 143 144 145 146 145 143 142 140 142 144 147 149 151 154 157 160 165 172 178 184 189 194 200 205 210 209 208 208 73 91 109 103 97 91 85 79 73 67 55 117 198 186 189 199 150 101 52 61 71 80 89 107 94 71 79 87 95 103 101 90 78 64 
79 91 117 142 168 174 172 137 99 133 167 169 170 172 174 162 124 78 48 49 48 47 46 46 46 47 48 51 53 66 79 58 55 51 47 45 72 108 74 137 109 80 52 51 50 49 48 45 51 76 102 90 79 61 60 90 122 127 131 134 135 136 137 138 139 140 141 142 143 145 146 145 144 142 141 143 146 148 151 153 156 159 163 169 174 180 185 190 196 201 207 212 211 210 104 88 102 111 105 100 95 90 84 79 74 128 200 195 179 138 89 63 60 72 81 90 102 100 79 74 87 95 103 109 97 86 75 61 
73 77 98 123 159 179 170 138 100 134 166 169 168 167 166 165 111 57 50 54 53 52 51 50 49 48 47 60 73 85 98 69 57 54 50 47 60 72 85 139 110 82 54 53 52 48 44 40 56 63 50 38 49 76 104 122 125 128 132 133 134 135 136 137 138 139 140 141 142 143 144 145 146 144 143 143 145 148 150 153 155 158 160 165 171 176 181 187 192 197 203 208 213 213 134 84 95 106 112 107 102 97 91 86 83 113 201 160 118 77 74 71 68 80 91 101 105 88 73 76 96 104 112 105 94 83 72 58 
68 71 79 105 150 184 168 138 101 135 165 170 171 170 169 152 90 48 53 57 58 57 56 55 54 53 51 46 59 72 93 94 59 68 77 39 84 97 80 111 118 87 55 51 47 44 40 36 44 52 59 72 95 118 121 124 127 130 131 132 133 134 135 136 137 138 139 140 141 142 143 144 145 146 145 143 145 147 150 152 154 157 161 164 168 173 178 183 189 194 199 204 210 215 208 103 89 99 110 114 109 104 98 93 92 94 153 111 89 85 82 79 76 87 99 111 96 82 67 79 99 112 113 102 91 79 68 55 
62 66 69 86 140 190 166 136 102 134 165 169 174 173 172 140 70 51 55 60 63 62 61 60 59 57 55 69 46 58 87 124 36 77 117 31 76 121 75 82 90 97 52 51 47 43 39 53 69 81 89 107 119 121 124 127 128 129 130 131 132 133 134 135 136 137 138 139 140 141 142 143 144 145 146 145 144 146 149 151 154 157 161 165 169 173 177 180 185 191 196 201 207 212 211 122 86 94 103 114 116 110 105 100 101 103 104 100 97 93 90 86 83 95 107 90 80 71 61 81 101 121 110 98 87 76 65 53 
57 60 64 67 131 195 164 134 103 133 164 168 173 175 174 127 49 54 58 63 67 67 66 65 63 61 60 92 68 45 81 117 91 59 88 53 64 74 42 81 120 45 50 50 46 43 57 71 86 102 118 119 121 124 126 127 128 129 130 131 132 132 133 134 135 136 137 138 139 140 141 142 143 144 145 146 146 146 148 151 154 158 162 165 169 173 177 181 185 189 193 198 203 209 214 142 82 91 99 108 118 117 112 109 110 111 108 106 104 102 98 94 91 103 86 68 67 67 83 103 123 113 103 92 82 71 61 50 
51 55 58 61 132 196 190 159 102 133 163 167 172 176 177 115 79 44 57 65 70 72 71 69 67 66 64 114 91 66 93 119 146 41 58 75 62 74 109 50 81 60 47 50 46 60 74 88 104 114 120 121 123 124 125 126 127 128 129 130 131 132 133 134 135 136 136 137 138 139 140 141 142 143 144 145 146 146 148 150 154 158 162 166 170 174 178 181 185 189 193 197 201 206 211 177 79 87 96 104 113 122 119 118 117 115 113 110 108 106 104 101 99 91 84 76 72 80 104 124 114 104 94 84 74 64 53 75 
46 49 52 55 126 197 191 185 100 131 162 167 171 176 180 145 109 74 38 51 64 77 75 73 72 70 68 137 61 70 79 88 96 105 114 123 38 45 52 60 67 74 130 49 63 77 91 105 110 116 121 122 123 124 125 126 127 128 128 129 130 131 132 133 134 135 136 137 138 139 140 141 141 142 143 144 145 146 147 151 155 159 163 166 170 174 178 182 186 190 194 197 201 205 209 213 75 84 92 101 109 118 126 123 119 116 112 109 105 102 98 95 91 88 84 81 77 102 126 116 106 96 86 76 66 56 78 100 
