P2
#CREATOR : MyProgram
128 128
255
157 158 158 159 159 160 160 161 161 162 162 163 163 164 144 123 103 82 101 102 104 105 107 108 109 111 112 113 115 116 118 119 120 122 123 125 126 127 129 130 131 133 134 136 137 137 137 136 136 136 136 135 135 135 135 134 134 134 134 133 133 133 133 132 132 132 132 131 131 131 131 130 130 130 127 124 121 118 115 112 109 124 139 154 154 154 155 155 155 155 155 155 156 156 156 156 156 156 157 157 157 175 194 212 230 171 111 112 112 113 114 115 115 116 117 118 118 119 120 121 121 122 123 124 124 125 146 167 
156 157 157 158 159 159 160 160 161 161 162 162 164 164 144 124 103 83 100 103 104 105 107 108 109 111 112 114 115 116 118 119 121 122 123 125 126 127 129 130 132 133 134 136 136 136 136 135 135 135 135 134 134 134 134 133 133 133 133 132 132 132 132 131 131 131 131 130 130 130 130 129 129 129 126 123 120 117 114 111 109 121 136 151 154 154 154 154 155 155 155 155 155 156 156 156 156 156 156 157 156 182 200 218 228 198 138 111 114 115 115 116 117 118 118 119 120 120 121 122 123 123 124 125 126 125 146 167 
156 156 157 157 158 158 159 160 160 161 162 164 163 164 145 125 104 84 99 102 104 105 107 108 110 111 112 114 115 117 118 119 121 122 123 125 126 128 129 130 132 133 134 135 135 135 135 134 134 134 134 133 133 133 133 132 132 132 132 131 131 131 131 130 130 130 130 129 129 129 129 129 130 128 125 122 119 116 113 111 110 119 134 149 154 154 154 154 154 155 155 155 155 155 155 156 156 156 156 156 156 155 206 216 226 210 165 117 112 114 117 117 118 119 120 120 121 122 123 123 124 125 126 126 126 125 87 48 
155 156 156 157 157 158 158 159 159 162 164 164 161 164 145 125 105 84 98 101 103 106 107 108 110 111 113 114 115 117 118 119 121 122 124 125 126 128 129 131 132 133 134 134 134 134 134 133 133 133 133 132 132 132 132 131 131 131 131 130 130 130 130 129 129 129 129 128 128 128 128 128 131 128 125 122 119 116 113 112 110 116 131 146 152 154 154 154 154 154 155 155 155 155 155 155 156 156 156 156 155 154 180 214 223 208 192 144 110 112 115 117 120 120 121 122 123 123 124 125 125 126 127 127 126 86 48 48 
155 155 156 156 157 157 158 159 161 164 166 161 161 164 145 126 106 85 97 100 102 105 107 109 110 111 113 114 115 117 118 120 121 122 124 125 127 128 129 131 131 132 133 134 134 133 133 133 132 132 132 131 131 131 131 130 130 130 130 129 129 129 129 128 128 128 128 128 127 127 127 129 130 127 124 121 118 116 114 112 110 114 128 143 151 153 154 154 154 154 154 155 155 155 155 155 155 156 155 155 154 154 153 187 221 212 203 171 122 110 112 115 117 120 122 123 124 125 125 126 127 128 128 127 86 47 48 48 
154 154 155 155 156 157 159 161 164 166 163 158 161 164 145 127 106 86 96 98 101 104 107 109 110 111 113 114 116 117 118 120 121 123 124 125 127 128 129 130 131 132 132 133 133 132 132 132 131 131 131 130 130 130 130 129 129 129 129 128 128 128 128 127 127 127 127 127 126 126 128 130 129 126 123 120 118 116 114 112 111 111 125 140 150 152 153 154 154 154 154 154 154 155 155 155 155 155 155 154 154 153 152 165 199 224 215 198 149 108 110 113 115 118 120 123 125 126 127 127 128 129 129 86 47 47 48 48 
153 154 154 155 157 159 161 164 166 165 160 158 161 164 145 127 107 87 95 97 100 103 105 108 110 112 113 114 116 117 119 120 121 123 124 125 127 128 129 129 130 131 132 132 132 132 131 131 130 130 130 129 129 129 129 128 128 128 128 127 127 127 127 126 126 126 126 126 126 127 129 131 128 125 122 120 118 116 114 113 111 109 123 138 149 151 153 153 154 154 154 154 154 154 155 155 155 155 154 153 153 152 151 150 177 216 226 217 176 128 108 111 113 116 118 121 123 126 128 129 130 130 87 46 47 48 48 49 
153 153 154 157 159 161 164 166 166 162 157 158 161 164 145 127 108 87 94 96 99 102 104 107 110 112 113 114 116 117 119 120 121 123 124 126 126 127 128 129 130 130 131 131 131 131 130 130 130 129 129 129 128 128 128 127 127 127 127 126 126 126 126 126 125 125 125 125 125 128 130 130 127 124 122 120 118 117 115 113 111 110 120 135 148 150 152 153 153 153 154 154 154 154 154 155 155 154 153 153 152 151 150 149 156 199 218 229 204 155 106 109 111 114 116 119 121 124 126 129 131 89 46 47 47 48 48 49 
152 154 157 159 161 163 166 168 163 159 154 158 161 164 145 127 108 88 93 95 98 101 103 106 109 111 113 115 116 117 119 120 122 123 124 125 126 127 127 128 129 130 130 130 130 130 129 129 129 128 128 128 127 127 127 126 126 126 126 125 125 125 125 125 125 124 124 124 126 128 131 129 126 124 122 120 119 117 115 113 112 110 118 132 147 149 150 152 153 153 153 154 154 154 154 154 154 153 153 152 151 150 149 149 148 172 211 221 231 186 141 108 110 113 115 118 120 123 125 128 89 46 46 47 47 48 48 49 
154 157 159 161 163 166 168 165 160 155 154 158 161 164 145 127 108 89 92 94 97 100 102 105 108 110 113 115 116 118 119 120 122 123 124 124 125 126 127 128 128 129 130 130 129 129 129 128 128 128 127 127 127 126 126 126 125 125 125 125 124 124 124 124 124 123 123 125 127 129 132 129 126 124 122 121 119 117 116 114 112 110 116 130 145 147 149 151 153 153 153 153 154 154 154 154 153 153 152 151 150 149 148 148 147 146 203 215 228 220 175 95 110 112 115 117 120 122 125 89 46 46 47 47 47 48 49 49 
156 158 161 163 166 168 167 162 157 152 154 158 161 164 145 127 107 88 91 94 96 99 101 104 107 109 112 115 116 118 119 120 122 122 123 124 125 125 126 127 128 128 129 129 128 128 128 127 127 127 126 126 126 125 125 125 124 124 124 124 123 123 123 123 123 123 124 126 128 130 131 128 126 124 123 121 119 118 116 114 112 111 114 127 142 146 148 150 152 153 153 153 153 153 154 153 152 152 151 150 149 148 148 147 145 144 178 212 225 224 210 147 97 111 114 116 119 121 87 46 46 47 47 47 48 48 49 49 
157 160 163 166 168 168 164 159 154 151 154 158 161 164 145 126 106 86 91 94 96 99 101 103 106 108 111 114 116 118 119 120 121 122 122 123 124 125 126 126 127 128 128 128 128 127 127 127 126 126 126 125 125 125 129 134 139 142 144 146 130 122 122 122 122 122 125 127 129 131 130 128 127 125 123 121 120 118 116 114 113 111 112 125 139 145 147 149 151 153 153 153 153 153 153 152 152 151 150 149 148 147 146 145 144 143 153 193 222 227 213 199 84 99 113 116 118 84 46 46 47 47 47 48 48 48 49 49 
159 162 165 167 170 165 161 156 151 151 154 158 161 164 144 124 104 85 91 93 96 98 101 103 106 108 111 113 116 118 119 120 120 121 122 123 123 124 125 126 126 127 127 127 127 126 126 126 125 125 130 134 139 144 148 153 158 161 163 165 167 169 153 137 121 123 125 128 130 132 130 129 127 125 123 122 120 118 117 115 113 111 110 123 137 144 146 148 150 152 153 153 153 153 152 151 151 150 149 148 147 145 144 143 142 141 140 174 202 231 219 207 144 115 115 115 81 46 46 47 47 47 48 48 48 48 49 50 
161 164 166 169 156 154 152 150 148 152 156 159 163 164 143 123 103 83 90 93 96 98 101 103 106 108 110 113 115 118 119 120 120 121 121 122 123 124 124 125 126 127 127 126 126 126 130 135 140 144 149 154 158 163 168 172 177 179 181 183 185 187 189 191 161 132 118 120 123 128 128 128 127 125 124 122 120 119 117 115 113 112 110 121 134 143 145 147 149 150 152 152 153 152 151 151 150 148 147 146 145 144 143 141 140 139 138 154 183 216 226 215 204 146 146 78 43 46 47 47 47 48 48 48 48 49 49 50 
163 166 168 170 142 140 138 136 148 155 158 162 164 164 141 121 101 82 88 93 96 98 101 103 105 108 110 113 115 117 119 120 121 122 122 123 123 124 124 125 125 126 129 132 135 138 141 144 147 150 153 155 158 161 164 167 170 172 174 176 178 180 186 191 192 193 153 113 122 124 123 124 124 124 124 122 121 119 117 116 114 112 110 118 131 142 143 145 147 149 151 152 152 151 150 149 148 147 146 144 143 142 141 140 139 137 136 135 168 202 227 220 212 177 120 41 43 45 47 47 48 48 48 48 49 49 49 50 
165 167 170 166 128 126 124 129 148 157 161 165 164 164 141 120 100 80 87 93 95 98 100 103 105 108 110 112 114 117 118 120 121 122 123 124 124 125 125 126 126 123 125 127 130 132 134 137 140 143 146 149 152 155 158 161 163 165 167 169 175 181 187 191 192 193 194 195 121 120 119 119 120 120 120 121 121 119 118 116 114 112 111 116 129 140 142 144 146 148 150 152 151 150 149 148 147 146 144 143 142 141 140 139 138 137 136 137 151 187 220 221 215 208 38 40 43 45 47 48 48 48 49 49 49 49 50 50 
167 169 169 158 114 112 110 129 148 160 164 165 164 164 141 118 98 79 85 92 95 98 100 103 105 108 110 112 114 116 118 119 121 122 123 125 125 126 126 127 124 121 123 125 127 129 131 133 135 137 139 142 145 148 151 154 156 158 164 170 176 182 188 191 192 193 194 195 197 148 115 115 115 115 116 116 116 117 117 116 114 113 111 114 127 139 141 143 145 147 150 147 151 150 149 148 146 145 144 143 142 141 140 139 138 137 138 140 143 167 205 223 216 126 40 40 42 45 47 48 48 49 49 49 49 50 51 43 
168 171 166 144 100 98 110 129 147 163 165 165 164 163 140 117 97 77 84 90 95 98 100 103 105 107 109 111 114 116 118 119 120 122 123 124 126 127 127 126 120 118 120 122 124 126 128 130 133 135 137 139 141 143 145 147 153 159 165 171 177 183 189 191 192 193 194 196 197 199 175 111 111 111 111 112 112 112 113 113 113 113 111 112 125 138 140 143 145 147 150 142 138 149 148 147 146 145 144 143 142 141 140 139 138 140 141 142 145 150 183 224 134 43 43 42 42 44 47 48 49 49 49 50 50 52 56 35 
170 169 162 130 86 91 110 128 147 166 165 165 164 163 140 117 95 76 82 89 95 97 100 102 105 107 109 111 113 115 117 119 120 121 123 124 125 127 128 122 116 115 117 120 122 124 126 128 130 132 134 137 139 142 145 146 154 160 166 172 178 185 190 191 192 193 195 196 198 199 201 202 106 106 107 107 107 108 108 109 109 109 110 110 125 140 140 143 145 147 150 137 119 143 148 147 146 145 144 143 142 141 140 140 141 142 143 144 147 152 157 104 52 44 44 45 44 44 46 49 49 49 50 50 52 57 49 28 
172 166 159 116 72 91 110 128 147 166 165 165 164 163 140 117 94 74 81 87 94 97 100 102 104 106 108 110 113 115 117 118 120 121 122 124 125 126 123 118 112 113 115 117 119 121 124 126 129 132 135 137 140 143 146 145 155 161 167 174 180 186 190 191 192 194 195 197 198 193 204 207 210 164 101 102 102 102 103 103 104 105 105 111 127 142 142 143 145 148 150 132 100 124 148 147 146 145 144 143 142 140 141 142 143 144 145 146 149 154 113 61 44 45 45 46 46 46 46 48 49 50 50 53 58 63 42 93 
159 152 133 90 75 90 109 128 147 166 165 164 164 163 140 117 94 73 79 86 92 97 100 102 104 106 108 110 112 114 116 118 119 121 122 123 125 128 118 113 108 111 113 116 119 122 124 127 130 133 135 138 141 144 142 144 155 162 169 175 181 187 190 191 193 194 196 183 203 206 209 212 215 218 221 96 97 98 99 99 100 99 96 112 129 144 144 145 145 148 150 127 95 105 129 147 146 145 144 142 141 142 143 144 145 146 147 149 150 128 70 44 45 46 46 47 47 48 48 48 50 50 54 59 63 55 106 157 
145 139 108 79 79 86 108 128 147 165 165 164 164 163 140 117 94 71 78 84 91 97 99 101 103 105 107 109 112 114 116 118 119 120 122 123 124 118 113 108 109 111 114 117 120 122 125 128 131 133 136 139 142 144 138 144 154 164 170 176 182 188 190 192 186 174 202 205 208 211 214 216 217 218 219 178 93 94 95 96 94 91 94 113 131 146 146 147 147 148 150 122 90 85 110 134 145 144 143 142 143 144 145 146 147 149 150 151 152 79 44 45 46 46 47 48 48 49 49 50 50 55 60 64 69 109 149 157 
132 126 82 82 82 82 104 125 146 165 165 164 164 163 140 117 94 73 79 86 92 97 99 101 103 105 107 109 111 113 115 117 119 120 121 123 129 113 108 108 109 112 115 118 120 123 126 129 131 134 137 140 142 142 134 143 153 164 171 177 183 189 177 164 192 203 206 209 211 212 213 214 215 216 217 217 133 91 91 89 86 82 95 114 132 148 148 149 149 150 150 117 85 66 90 115 139 144 143 144 145 146 147 148 149 150 150 151 98 44 45 46 46 47 48 49 49 50 50 50 51 55 60 65 101 141 157 156 
119 100 85 85 85 85 100 122 143 165 165 164 164 163 140 117 94 75 81 88 94 96 99 101 102 104 106 109 111 113 115 117 118 120 121 135 112 108 106 108 110 113 115 118 121 124 127 129 132 135 138 140 143 138 131 142 152 163 172 178 162 155 183 202 205 207 207 208 209 210 211 212 213 213 214 215 216 87 84 80 77 77 96 115 133 150 150 151 151 151 148 114 81 47 71 96 120 144 145 145 146 147 147 148 149 150 150 125 44 45 46 47 47 48 49 49 50 50 51 50 51 56 61 92 132 156 157 156 
105 89 89 89 89 89 96 118 141 165 165 164 164 163 140 117 93 77 83 90 93 96 99 101 102 104 106 108 110 112 114 116 118 119 121 129 107 105 107 109 111 113 116 119 122 125 127 130 133 135 138 141 142 133 130 141 152 162 173 134 168 201 202 203 204 204 205 206 207 208 209 209 210 211 212 213 214 215 138 72 69 78 97 115 134 152 152 153 153 153 146 112 79 48 53 93 133 140 143 145 146 147 147 148 149 149 150 72 45 46 47 47 48 49 50 50 51 51 52 47 52 57 84 124 154 157 157 156 
92 92 92 92 92 92 92 116 140 164 165 164 164 164 140 117 91 78 85 90 93 96 98 100 102 104 106 108 110 112 114 116 118 119 146 107 104 106 108 110 112 114 117 119 122 125 128 131 133 136 139 142 137 129 129 140 151 167 147 180 197 199 200 200 201 202 203 204 205 205 206 207 208 209 210 211 213 215 214 137 60 79 98 116 135 154 154 154 155 155 144 110 77 49 43 59 99 135 140 142 145 146 147 148 148 149 98 46 46 47 47 48 49 50 51 51 52 52 49 48 53 75 116 152 156 157 157 156 
92 93 93 93 93 93 93 116 140 164 164 164 164 164 141 117 89 80 87 90 93 95 98 100 102 104 106 108 110 112 113 115 117 132 129 103 105 107 109 110 112 114 117 120 123 126 128 131 134 137 140 141 133 125 128 139 162 159 193 194 195 196 197 198 199 200 201 201 202 203 204 205 206 207 207 208 211 214 216 212 136 74 93 112 125 151 156 156 156 157 142 108 78 50 40 41 65 114 136 139 141 144 146 148 148 123 46 47 47 48 49 49 50 51 52 52 53 52 45 49 67 108 147 154 156 157 157 155 
92 93 93 93 93 93 93 116 140 164 164 164 164 164 141 115 87 82 87 90 92 95 98 100 102 104 106 108 110 111 113 115 117 157 102 104 106 108 109 111 113 115 118 120 123 126 129 132 135 138 140 137 129 120 128 156 172 189 190 191 192 194 195 196 197 197 198 199 200 201 202 203 203 204 205 207 209 212 215 217 211 69 82 95 120 148 155 158 158 158 140 106 79 51 38 38 39 75 133 136 138 141 143 146 148 78 47 47 48 49 50 50 51 52 52 53 54 49 44 58 99 139 152 156 156 157 157 155 
93 94 94 94 94 94 94 117 140 163 164 164 164 164 140 113 85 84 87 89 92 95 97 100 102 104 106 108 110 111 112 113 160 153 102 104 106 108 110 112 114 116 118 121 124 127 130 132 135 138 141 133 124 116 150 184 185 186 188 189 190 191 192 193 194 195 196 197 198 199 199 200 201 202 203 205 208 210 213 215 218 210 66 85 121 145 152 160 160 160 138 107 80 52 35 36 36 37 118 198 195 192 189 186 110 57 47 48 49 50 50 51 52 53 53 54 52 45 50 90 131 151 154 156 156 157 157 155 
93 94 94 94 94 94 94 117 140 163 163 164 164 164 138 111 83 84 87 89 92 94 97 99 102 103 104 106 107 108 109 111 203 143 102 104 107 109 111 113 114 116 119 122 124 127 130 133 136 136 130 122 122 156 178 182 183 184 185 186 188 189 190 191 192 193 194 195 195 196 197 198 199 200 201 203 206 209 211 214 216 219 50 86 122 142 149 157 161 162 136 108 81 53 33 33 34 142 197 200 204 210 215 221 72 52 48 49 50 50 51 52 53 53 54 55 48 41 82 122 149 153 156 156 157 157 156 154 
93 94 95 95 95 95 95 118 141 163 165 165 164 164 136 109 81 84 86 89 92 94 97 100 102 103 104 105 105 106 107 108 193 132 102 104 107 109 112 113 115 117 119 122 125 128 131 133 130 128 119 128 162 172 176 180 180 182 183 184 185 186 188 189 190 191 191 192 193 194 195 196 196 197 199 202 204 207 209 212 215 214 157 87 124 139 146 154 161 163 137 109 82 54 30 31 167 195 198 201 204 210 215 221 222 48 49 49 50 50 51 51 52 52 53 52 47 63 114 148 151 154 156 156 157 157 156 154 
93 95 96 95 95 95 95 118 141 164 167 167 166 166 139 111 82 84 87 90 92 95 98 100 101 103 104 105 105 106 107 160 183 121 102 104 107 109 111 114 116 118 120 123 126 128 127 125 122 117 134 162 166 170 174 178 178 179 180 182 183 184 185 186 187 188 189 190 191 192 192 193 194 195 197 200 203 205 208 210 210 209 209 126 125 136 143 151 158 165 138 110 83 55 28 191 194 197 200 203 206 210 215 221 220 49 47 48 48 49 49 50 50 51 52 50 46 85 146 149 153 156 156 156 157 157 156 154 
94 95 96 96 96 96 96 119 141 164 167 169 169 168 141 113 82 85 88 90 93 96 98 99 101 102 104 104 105 106 107 211 164 110 102 104 106 109 111 114 116 118 120 123 124 122 119 117 114 140 156 160 164 168 172 176 176 177 178 179 180 181 183 184 185 186 187 188 188 189 190 191 192 193 196 198 201 203 206 206 205 204 204 203 126 135 144 152 161 160 132 90 49 94 198 194 193 199 201 204 207 210 215 221 218 49 48 46 47 47 48 49 49 50 50 47 45 121 148 151 155 156 156 156 157 157 155 153 
94 95 96 97 96 96 96 119 142 165 167 170 171 171 143 114 83 85 88 91 93 96 97 99 101 102 104 104 105 106 107 212 156 99 101 104 106 109 111 114 116 119 121 125 129 134 138 142 146 150 154 158 162 166 170 174 174 174 175 177 178 179 180 181 183 184 184 185 186 187 188 189 190 191 194 197 199 202 202 201 200 199 199 201 188 140 149 158 160 156 139 98 151 204 200 197 193 195 201 206 209 212 215 221 216 50 48 47 45 46 47 47 48 48 47 45 97 148 150 153 155 156 156 156 157 157 155 153 
94 95 96 98 97 97 97 119 142 165 168 171 173 173 145 114 83 86 89 91 94 96 97 99 100 102 103 104 105 106 121 203 147 108 102 104 106 109 111 114 116 119 122 126 130 134 138 143 145 148 152 156 160 164 168 172 172 172 173 174 175 177 178 179 180 181 182 183 184 185 186 186 187 190 192 195 197 199 197 196 195 195 196 199 189 174 154 159 155 151 147 182 201 203 203 199 196 192 197 203 208 214 216 221 214 50 49 47 46 45 45 46 46 47 45 83 148 150 151 155 156 156 156 156 157 157 155 153 
94 96 97 98 98 97 97 120 143 165 168 171 174 175 146 115 84 86 89 92 94 95 97 98 100 101 103 104 105 106 136 195 138 117 102 104 107 109 111 114 116 119 122 127 131 135 139 142 144 146 150 154 158 162 166 170 170 170 171 172 173 174 175 176 178 179 180 181 182 182 183 184 185 188 191 193 195 193 192 191 190 191 194 196 189 174 159 168 177 186 195 197 199 201 203 202 199 195 194 200 205 210 216 221 212 51 49 48 46 45 44 44 45 45 69 129 148 152 153 155 156 156 156 156 157 156 154 153 
95 96 97 98 99 98 98 121 143 166 168 171 174 177 146 115 84 87 90 92 93 95 96 98 100 101 103 104 105 100 154 186 147 126 105 104 107 109 112 114 117 119 123 127 131 136 139 141 143 145 147 152 156 160 164 168 168 168 168 169 171 172 173 174 175 176 178 178 179 180 181 182 184 186 189 192 190 188 187 186 187 189 192 194 189 174 171 180 189 194 196 197 198 200 202 204 201 197 194 196 202 207 214 222 126 51 50 48 47 46 44 43 43 56 110 143 147 151 155 155 156 156 156 157 157 156 154 152 
95 96 97 98 99 99 99 124 145 166 169 172 174 177 147 116 85 88 90 91 93 94 96 98 99 101 102 104 105 87 175 178 157 136 115 104 107 109 112 114 117 120 124 128 132 136 138 140 142 143 145 149 154 158 162 166 166 166 166 167 168 169 170 172 173 174 175 176 177 178 179 180 182 185 187 186 184 183 182 182 184 187 189 192 189 175 184 193 194 195 197 198 199 199 201 203 203 200 196 193 200 208 215 222 39 46 51 50 48 47 45 44 42 91 139 144 149 154 155 155 156 156 156 157 157 156 154 152 
95 96 97 98 100 100 99 126 148 164 169 172 175 177 147 116 85 88 89 91 93 94 96 97 99 100 102 103 105 74 196 187 166 145 124 105 107 109 112 114 117 120 124 129 133 135 137 139 140 142 144 146 151 156 160 164 164 164 163 164 166 167 168 169 170 172 173 174 175 176 176 178 180 183 182 180 179 178 177 180 182 185 187 190 190 187 192 193 195 196 198 199 200 201 201 202 203 202 199 182 196 205 214 223 41 42 48 52 50 49 47 46 67 116 142 147 152 157 155 155 156 156 156 157 157 155 154 152 
95 96 98 99 100 100 100 127 152 162 167 172 175 178 147 117 86 88 89 91 93 94 96 97 99 101 102 103 102 86 217 196 175 154 133 112 107 110 112 114 117 121 125 129 132 134 136 137 139 141 143 145 148 154 158 162 162 162 161 162 163 164 166 167 168 169 170 171 172 173 174 176 179 179 177 175 173 173 175 177 180 182 185 187 190 191 193 194 196 197 199 200 201 202 202 203 203 204 187 170 181 199 208 134 44 44 45 50 52 51 49 48 93 141 146 151 156 157 156 155 156 156 156 157 157 155 153 151 
96 97 98 99 100 101 101 128 155 160 165 170 175 178 147 118 89 88 90 92 93 95 97 98 100 101 101 100 99 98 214 204 184 163 142 121 107 110 112 115 117 122 126 129 131 133 135 136 138 140 142 144 146 150 156 160 160 160 159 160 161 162 163 164 165 167 168 169 170 171 172 174 175 173 171 169 169 170 173 175 178 180 184 191 190 192 194 195 197 198 200 201 202 203 204 204 205 182 176 159 160 189 203 45 46 47 47 48 51 53 51 62 118 144 149 154 158 157 156 156 156 156 156 157 157 155 153 151 
96 97 98 99 100 101 102 129 153 161 165 169 174 178 149 120 91 89 91 92 94 96 97 99 100 100 99 97 97 96 212 201 190 172 151 130 109 110 112 115 118 122 126 128 130 132 133 135 137 139 141 143 145 147 153 158 158 158 157 157 158 159 161 162 163 164 165 167 168 169 170 171 169 168 166 164 165 168 170 173 178 188 191 191 191 192 194 196 198 199 200 202 203 205 205 206 196 161 154 147 140 168 197 44 46 48 49 50 51 53 53 90 143 148 153 158 158 157 156 156 156 156 156 157 156 155 153 151 
96 97 98 99 101 102 102 128 152 162 167 171 175 178 152 123 94 85 91 93 95 96 98 99 98 97 96 96 95 95 209 198 188 177 160 139 118 110 112 115 119 123 125 127 129 130 132 134 136 138 140 142 143 145 149 147 138 156 155 155 156 157 158 159 161 162 163 164 165 166 168 166 164 162 160 161 163 166 172 182 192 192 192 191 191 192 194 196 198 199 201 203 204 206 206 207 167 139 132 126 119 187 118 42 45 48 49 51 52 54 55 117 146 151 156 160 159 157 156 156 156 156 157 157 156 154 152 150 
96 97 99 100 101 102 103 126 150 164 168 172 175 177 151 125 96 81 92 94 95 97 97 96 96 95 94 94 93 93 206 196 185 174 164 149 128 110 113 115 119 122 124 126 127 129 131 133 135 137 139 140 142 144 146 136 127 117 132 153 153 155 156 157 158 159 160 162 163 164 162 160 158 157 156 158 167 176 186 193 192 192 192 192 192 192 194 195 197 199 201 203 205 207 208 188 139 118 111 117 163 245 38 41 44 47 49 50 52 53 84 145 150 155 160 160 159 158 157 156 156 156 157 157 156 154 152 150 
97 98 99 100 101 102 102 125 148 165 169 173 175 177 151 125 99 76 88 94 96 96 95 94 94 93 93 92 92 91 204 193 182 172 161 150 137 116 113 116 119 121 123 124 126 128 130 132 134 136 138 139 141 143 137 127 117 107 97 87 151 147 142 138 133 129 124 120 119 118 108 84 59 151 161 171 180 190 193 193 193 193 192 192 192 192 193 195 197 199 201 203 205 207 209 159 110 96 116 149 206 147 43 43 42 45 48 50 52 53 114 148 153 158 161 160 159 158 157 156 156 156 157 157 156 154 152 150 
97 98 99 100 101 102 101 125 146 167 170 172 174 176 150 124 98 72 84 95 95 95 94 94 94 94 94 93 93 91 201 190 180 169 158 148 137 125 113 116 118 120 122 123 125 127 129 131 133 135 137 139 141 136 129 119 109 99 87 86 135 127 114 102 89 76 75 74 72 71 70 53 35 162 172 183 194 194 194 193 193 193 193 193 192 192 193 195 197 199 201 203 205 141 76 79 81 114 147 180 179 48 48 47 47 47 47 50 51 82 142 150 157 162 161 160 159 158 157 156 156 156 157 157 155 153 151 150 
97 98 99 100 101 103 100 125 147 168 170 172 174 176 150 124 98 72 83 95 96 97 96 96 96 96 96 95 95 91 161 193 181 170 159 147 136 124 113 115 117 119 121 123 124 126 128 130 132 134 136 138 133 129 120 110 98 86 74 85 119 110 104 91 78 88 64 56 47 39 30 22 193 172 183 189 191 192 193 193 194 193 193 193 193 192 193 195 197 199 201 137 98 87 99 104 113 150 180 211 47 48 49 49 49 50 50 51 51 110 144 153 160 163 162 161 159 158 157 156 156 156 157 157 155 153 151 149 
97 98 99 101 102 103 100 125 147 167 171 173 175 177 150 124 98 72 83 95 96 97 98 98 98 98 98 97 97 92 121 196 184 173 162 150 140 130 114 115 116 118 120 122 124 126 127 129 131 133 135 131 126 122 110 98 86 73 67 85 103 93 86 80 67 101 61 52 44 35 84 161 104 183 184 186 187 189 190 191 192 192 193 193 193 193 193 195 197 145 119 93 98 110 123 130 146 182 218 45 47 48 49 49 50 50 50 51 77 138 147 155 164 163 162 161 160 159 158 157 156 156 157 157 155 153 151 149 
98 99 100 101 102 103 99 126 147 166 171 173 175 177 150 124 98 72 83 94 95 96 97 98 99 100 99 99 99 92 81 199 188 176 166 157 147 138 116 117 118 119 120 121 123 125 127 129 131 132 128 124 110 97 84 85 73 61 66 84 87 75 69 62 56 113 57 49 69 122 152 153 187 182 182 184 185 185 187 188 190 190 191 191 192 192 193 167 141 115 96 109 121 134 146 155 178 214 44 45 47 48 49 50 50 50 51 51 102 140 148 157 163 163 162 161 160 159 158 157 156 157 157 156 154 152 151 149 
98 99 100 101 102 102 98 126 147 165 170 174 176 178 151 124 98 72 83 94 95 96 97 98 99 100 101 101 101 92 84 202 193 183 174 164 155 117 117 118 119 120 121 122 123 124 126 128 130 125 112 99 86 72 59 46 47 48 66 83 71 58 68 78 88 71 54 84 114 143 173 190 185 180 180 182 184 185 187 186 186 188 189 189 190 157 46 136 110 107 120 132 145 157 170 181 210 45 45 45 47 48 49 50 50 51 51 66 128 142 150 159 163 163 162 161 160 159 158 157 156 157 157 156 154 152 150 148 
98 99 100 101 102 101 97 126 148 164 169 175 177 179 151 124 98 72 83 94 95 96 97 98 99 100 101 102 103 95 87 145 202 191 181 172 162 118 119 120 121 122 122 123 124 125 126 127 114 100 87 78 68 59 50 66 48 54 72 75 72 59 81 91 58 123 78 107 136 165 194 189 184 179 178 180 181 183 185 186 188 189 188 187 121 55 81 106 118 131 143 156 168 181 193 206 47 46 46 46 47 48 49 50 50 51 51 92 136 144 152 161 162 162 162 162 160 159 158 157 156 157 157 156 154 152 150 148 
98 99 100 102 103 100 96 127 148 163 168 174 177 179 152 125 98 72 83 94 95 96 97 98 99 100 101 102 103 102 96 88 169 202 189 179 141 119 120 121 122 123 124 124 125 125 126 111 97 84 82 72 63 53 44 87 48 60 64 67 70 61 74 104 28 110 101 130 157 181 190 187 182 177 176 178 179 181 183 184 186 188 189 191 133 75 68 93 115 134 152 169 187 204 126 48 48 48 47 47 47 48 49 50 51 51 52 118 138 146 154 161 161 161 161 161 161 160 159 157 156 157 157 155 153 152 150 148 
98 100 101 102 103 99 95 126 148 162 167 173 178 180 153 125 98 72 83 93 94 95 96 97 99 100 101 102 104 105 101 95 88 217 202 187 120 121 121 122 122 123 123 124 125 125 113 96 80 67 76 73 57 48 64 107 49 52 55 59 62 62 67 88 92 96 120 144 168 187 186 185 181 176 174 175 177 179 180 182 184 185 192 195 154 96 55 80 102 125 145 163 180 50 49 48 49 49 49 48 48 48 49 51 51 51 80 132 140 147 155 160 161 161 161 161 161 160 159 158 157 157 157 155 153 151 149 147 
99 100 101 102 102 98 95 125 148 161 166 172 177 180 153 126 99 72 83 93 94 95 96 98 99 100 101 103 104 105 107 100 94 217 210 177 118 120 121 121 122 122 123 124 124 114 97 80 64 62 71 73 58 42 59 76 77 44 47 51 54 57 59 72 85 108 131 155 180 183 182 181 180 174 172 173 175 177 178 180 185 192 196 199 165 116 58 67 89 112 134 156 103 50 49 49 49 49 49 50 49 49 49 51 51 52 108 134 142 149 157 160 160 160 160 160 160 160 159 158 157 157 157 155 153 151 149 147 
99 100 101 102 102 98 94 124 149 160 165 171 176 181 154 127 99 72 83 93 94 96 97 98 99 101 102 103 104 106 107 106 99 218 217 163 116 119 120 121 122 122 123 123 115 98 81 64 47 56 65 74 67 59 52 44 105 72 39 42 46 49 52 75 98 120 143 167 181 179 178 177 176 173 169 171 173 174 178 186 193 196 200 203 176 127 79 54 76 99 128 157 103 50 49 49 50 50 50 50 50 50 50 51 51 66 128 136 143 151 159 159 159 159 159 159 159 159 159 158 157 157 156 154 153 151 149 147 
99 100 101 103 101 97 93 123 149 159 164 170 175 178 155 126 98 71 82 92 95 96 98 99 100 101 102 103 105 106 107 108 105 218 225 144 114 117 120 121 121 122 122 116 99 82 65 49 48 54 63 70 71 66 59 51 95 75 67 34 37 41 108 122 136 150 164 178 177 175 174 173 172 170 167 169 172 179 186 194 197 200 204 207 188 139 90 41 70 100 129 159 104 50 50 50 50 50 50 51 51 51 51 51 52 95 130 138 146 154 159 159 159 159 159 159 159 159 159 158 157 157 156 154 152 150 148 147 
99 101 102 103 100 96 92 122 149 158 163 169 176 176 158 129 99 70 83 92 95 97 99 100 101 102 103 104 105 107 108 109 110 182 222 125 111 115 118 120 121 121 118 101 84 56 51 52 49 52 61 65 67 69 66 58 85 100 45 37 29 149 154 160 165 170 175 178 174 172 171 169 168 166 165 172 180 187 195 198 201 204 208 211 199 150 101 55 43 70 115 160 105 50 50 50 51 51 51 51 51 51 52 52 52 124 133 141 150 158 158 158 158 158 158 158 158 158 158 158 158 157 156 154 152 150 148 146 
100 101 102 103 99 95 91 121 149 157 162 170 177 173 159 132 103 72 85 91 94 97 100 101 102 103 104 105 107 108 109 110 117 142 219 106 109 112 116 119 120 119 102 74 52 53 53 54 50 50 59 61 62 64 66 65 75 124 70 15 141 149 156 162 167 173 178 178 171 170 168 167 165 165 168 181 188 195 199 202 205 208 212 215 211 162 115 68 42 45 53 158 103 57 51 51 51 51 51 52 52 52 52 52 82 128 137 145 154 158 158 158 158 158 158 158 158 158 158 158 158 157 155 154 152 150 148 146 
100 101 102 102 98 94 90 121 150 156 163 171 178 171 156 136 105 73 86 90 93 97 100 102 103 104 105 106 108 109 110 111 124 124 175 116 116 117 118 119 120 92 65 54 55 55 56 57 51 48 55 56 58 60 62 63 65 149 29 108 147 151 156 164 170 175 181 178 170 167 166 164 164 165 171 183 196 199 203 206 209 212 216 219 222 175 129 82 46 40 83 157 106 64 52 52 52 52 52 52 52 52 53 53 111 132 141 149 158 158 158 158 158 157 157 157 157 157 157 157 157 157 155 153 151 149 148 146 
100 101 102 101 97 93 89 120 150 157 164 172 179 168 154 139 107 75 87 90 93 96 99 102 104 105 106 108 109 110 111 118 132 131 130 127 125 126 127 123 99 55 56 56 57 58 59 59 52 46 50 52 54 56 58 60 60 43 74 138 153 156 161 166 171 178 183 178 170 165 163 164 165 166 173 186 191 194 198 201 204 207 211 214 217 187 141 95 49 43 78 155 113 71 53 53 52 52 52 53 53 53 53 68 128 136 145 153 157 157 157 157 157 157 157 157 157 157 157 157 157 155 155 153 151 149 147 145 
100 101 103 100 96 93 89 119 148 159 166 173 180 168 155 137 108 76 86 89 92 95 98 101 104 106 107 109 110 111 112 125 139 138 89 137 135 136 126 112 78 63 56 57 58 60 61 62 53 44 46 49 51 54 56 58 54 41 105 157 159 162 166 171 176 181 186 178 170 162 163 165 166 167 176 184 187 190 193 196 199 203 206 209 211 197 151 95 49 44 40 127 120 78 53 53 53 53 53 53 53 53 54 98 132 140 149 157 157 157 157 157 157 157 157 157 157 157 157 156 155 154 154 153 151 149 147 145 
101 102 103 100 96 92 88 118 147 161 168 175 180 171 159 136 110 78 85 88 91 95 98 101 104 107 109 110 111 112 119 133 146 121 48 96 144 129 115 100 85 71 56 57 58 60 56 64 62 49 46 47 49 51 54 56 49 160 135 163 165 168 171 176 181 186 142 111 113 116 133 166 167 168 176 179 182 185 188 191 194 198 201 203 206 208 141 74 49 46 44 99 136 84 54 54 54 54 54 54 54 54 54 128 136 144 153 157 157 157 157 157 157 157 157 157 157 157 156 154 153 152 152 152 150 149 147 145 
101 102 103 99 95 91 87 116 145 163 170 176 179 175 160 134 108 79 85 88 91 94 97 100 103 106 109 111 112 113 126 140 153 76 56 93 141 105 68 72 75 79 64 57 58 51 48 66 70 55 48 48 49 49 52 54 106 91 166 169 172 174 177 181 186 129 118 127 120 96 72 104 137 169 172 175 178 181 184 187 190 193 196 198 175 151 128 53 51 49 47 45 158 96 55 55 55 55 55 55 54 54 75 132 140 148 157 157 156 156 156 156 157 157 157 157 156 155 154 153 152 151 151 151 150 148 146 144 
101 102 102 98 94 90 86 115 144 165 172 176 179 178 158 132 107 81 84 87 90 93 96 99 102 105 109 112 113 120 134 144 155 27 64 101 138 81 70 74 70 65 61 57 45 33 50 68 79 60 49 50 50 51 51 52 150 160 170 176 178 181 183 186 116 125 134 143 152 116 80 90 101 111 157 181 182 183 184 186 187 188 165 141 118 95 123 86 50 48 46 44 163 110 56 56 55 55 54 54 53 53 95 136 144 152 156 156 156 156 157 157 157 157 157 156 155 154 152 151 150 149 149 149 149 148 146 144 
101 102 101 97 93 89 84 113 142 167 172 176 179 182 157 132 106 81 87 86 85 89 92 96 100 103 107 110 114 125 135 146 156 167 143 119 95 61 72 84 80 76 71 56 64 52 37 49 87 65 51 51 52 52 49 115 155 165 173 183 186 188 191 79 78 81 83 92 101 65 61 100 110 113 126 145 191 192 193 195 196 145 128 104 71 38 60 81 83 47 45 43 169 115 60 53 53 53 53 53 52 52 116 140 148 156 156 156 157 157 157 157 158 156 155 154 153 152 151 150 149 148 148 148 148 148 146 144 
102 103 100 96 92 87 81 111 140 169 172 176 179 182 157 132 106 81 88 94 93 91 90 89 93 96 100 104 200 139 149 160 150 131 104 78 51 63 74 86 90 86 68 55 57 70 56 41 26 71 52 53 51 46 77 149 161 173 181 187 193 195 76 58 40 43 45 48 50 46 43 39 119 116 123 142 160 179 203 204 161 103 84 68 53 62 42 41 39 61 43 41 174 110 64 56 50 51 51 51 51 51 136 142 149 155 157 157 157 157 158 157 156 155 154 153 152 150 149 148 147 146 146 146 146 146 145 144 
102 103 99 95 91 85 79 108 138 167 173 176 179 183 157 132 107 81 88 94 100 99 98 97 95 94 93 191 172 153 143 132 122 95 68 60 51 63 76 88 100 82 64 53 47 76 76 61 35 45 54 48 43 37 142 154 166 178 190 196 200 72 69 66 63 60 58 61 198 156 114 71 123 118 120 139 157 176 194 213 81 60 39 108 176 85 48 46 45 43 42 40 179 96 68 60 52 48 48 48 48 80 138 142 148 154 157 157 158 158 157 156 154 153 152 151 150 149 148 147 145 144 144 144 144 145 145 143 
102 102 98 95 89 83 77 106 135 165 173 177 180 183 158 132 107 82 88 94 100 107 105 104 103 89 74 176 157 172 115 104 85 68 70 72 51 63 76 88 101 79 61 52 46 58 95 52 44 49 50 46 40 108 152 161 173 185 196 208 94 89 89 88 87 84 79 74 199 178 146 104 127 122 117 137 158 178 199 181 103 81 60 129 158 109 54 52 50 49 46 43 174 81 73 64 56 47 45 45 45 108 139 144 148 153 158 158 157 156 155 154 153 152 151 149 148 147 146 145 144 143 143 143 143 143 143 143 
102 102 98 92 86 80 75 104 134 164 174 177 180 184 158 132 107 82 88 94 100 107 113 99 84 70 55 161 159 191 223 76 78 79 81 65 51 63 76 89 102 116 57 51 45 39 42 44 44 45 45 43 75 126 161 171 181 192 204 116 110 107 106 106 105 105 104 152 200 179 157 136 131 125 120 140 164 184 205 149 125 102 81 150 141 112 59 58 56 53 50 47 168 100 69 64 60 52 43 42 74 137 141 145 150 154 158 157 156 155 154 152 151 150 149 148 147 146 145 143 142 141 141 141 141 141 154 167 
103 101 96 90 84 78 72 102 132 162 176 177 181 184 158 133 107 82 88 94 101 109 119 30 80 129 138 146 110 74 38 68 89 91 92 59 51 63 76 90 104 117 95 89 46 41 41 44 44 43 42 41 93 144 171 180 190 200 97 122 127 124 123 123 122 119 117 125 173 174 153 141 133 128 123 130 162 190 211 171 148 124 103 152 123 94 65 62 59 56 53 50 162 118 74 57 52 48 43 39 96 137 142 146 150 154 157 155 154 153 152 151 150 149 147 146 145 144 143 142 141 140 140 140 152 165 177 190 
103 99 94 88 82 76 70 100 130 160 177 178 181 184 159 133 107 82 88 96 105 115 125 85 135 118 114 115 89 53 52 68 91 102 86 52 51 64 78 91 105 118 132 52 48 43 43 44 45 44 43 73 111 162 180 190 200 78 103 128 143 141 141 138 135 132 129 137 145 170 153 146 138 131 125 120 152 185 217 193 170 146 124 134 105 90 75 63 61 58 55 52 162 125 87 49 47 45 43 55 111 138 142 146 151 157 156 154 152 151 150 149 148 147 146 144 143 142 141 140 139 138 154 169 185 192 192 191 
103 97 91 85 79 73 67 98 128 158 179 180 181 185 159 133 108 82 92 101 111 121 130 140 124 107 91 85 69 50 66 81 97 113 79 46 51 65 79 93 108 123 59 54 50 45 45 45 46 46 45 106 143 180 190 199 75 96 117 138 159 156 153 150 147 144 142 150 158 166 158 151 143 136 128 123 143 175 217 197 180 162 145 130 115 100 85 61 61 59 56 53 163 125 87 47 49 48 46 70 127 138 143 147 156 156 154 153 151 149 148 147 146 145 144 143 141 140 139 138 142 168 195 195 194 194 193 193 
100 94 89 83 77 71 65 99 127 157 180 181 182 185 160 134 108 81 90 100 110 119 129 134 107 127 148 98 48 63 78 92 107 103 71 39 54 69 84 99 113 89 144 57 52 48 47 47 46 47 89 138 168 192 195 72 90 107 125 142 156 161 166 163 160 157 154 162 170 165 159 153 147 141 133 126 133 170 218 194 177 159 147 140 125 110 95 58 58 58 58 55 163 125 85 44 50 50 48 86 135 139 143 152 157 155 153 151 150 148 146 145 144 143 142 141 140 138 137 146 172 190 196 196 195 195 194 194 
98 94 86 80 74 68 62 99 127 155 182 183 184 186 160 133 106 79 89 99 108 119 130 129 101 73 70 68 58 72 87 102 116 94 62 43 42 61 80 100 119 96 110 114 54 50 49 49 48 48 133 156 180 203 144 73 90 108 126 143 153 158 163 168 172 169 167 175 169 164 158 152 146 141 135 129 123 171 218 193 174 157 149 142 135 120 105 56 56 56 56 56 163 123 82 42 48 52 50 101 135 139 148 158 156 154 152 150 148 147 145 143 142 141 140 139 138 137 149 173 185 196 197 197 197 196 196 195 
95 95 83 77 71 66 60 99 127 155 183 184 185 186 159 132 105 78 87 97 108 120 131 123 95 90 87 77 67 68 96 111 116 84 53 46 45 44 64 83 55 26 77 128 84 52 51 51 45 89 145 161 188 215 58 74 91 109 126 144 150 155 160 165 169 174 179 173 168 162 157 151 145 139 134 128 124 171 219 193 171 159 152 144 137 130 115 54 54 54 58 48 146 133 80 39 45 51 53 117 136 145 154 156 155 153 151 149 147 145 144 142 140 139 138 137 136 153 168 180 193 196 197 198 198 197 197 196 
93 93 85 75 69 63 57 98 128 155 180 181 182 184 160 131 103 76 86 97 109 121 132 117 105 107 97 87 77 67 98 120 107 76 51 50 49 48 47 44 42 47 82 114 145 54 48 41 35 129 156 171 189 42 59 75 92 110 127 142 147 152 157 162 166 171 176 172 167 161 156 150 144 138 133 127 125 164 219 194 168 161 154 147 139 132 125 52 56 61 65 40 129 153 103 37 43 49 55 132 141 150 157 155 153 152 150 148 146 144 142 141 139 137 136 135 151 163 176 188 196 197 198 199 199 199 198 198 
90 90 86 74 66 60 54 96 128 156 176 177 179 182 163 134 104 75 87 98 110 121 133 119 70 104 99 94 86 76 87 129 98 67 54 53 51 48 49 57 54 67 103 138 143 148 38 31 80 141 168 189 190 42 60 76 93 111 128 139 144 149 154 159 164 169 173 169 166 160 155 149 143 137 131 126 126 157 208 214 174 158 151 144 137 129 106 51 60 67 71 32 111 159 138 35 41 55 77 134 146 155 156 154 152 150 149 147 145 143 141 139 138 136 134 146 158 171 183 195 197 198 199 200 200 200 199 199 
88 87 87 76 64 58 52 93 128 158 173 174 177 180 166 137 108 79 90 101 112 123 134 33 86 100 96 91 86 81 76 70 65 59 55 52 48 46 52 70 67 88 123 144 34 110 66 21 125 152 180 207 25 43 60 77 94 112 129 136 141 146 151 156 162 167 170 167 163 159 153 148 142 136 130 127 127 150 198 235 180 154 148 141 134 127 87 50 60 69 78 24 94 164 98 32 54 76 98 136 152 156 155 153 151 149 147 146 144 142 141 139 137 136 139 154 166 178 190 197 198 199 200 201 202 201 201 200 
85 85 85 77 65 55 49 90 129 161 170 172 175 178 170 140 111 83 92 102 111 121 116 50 102 97 91 86 80 75 80 98 104 99 52 49 46 45 54 72 80 108 129 149 74 75 31 60 114 167 194 82 35 45 61 79 95 112 129 133 138 143 149 154 159 165 168 164 160 156 152 147 141 135 129 128 128 143 187 222 186 151 144 138 131 124 71 50 59 66 70 54 83 172 106 45 58 89 120 139 157 155 154 152 150 149 147 146 144 142 141 139 137 136 144 161 173 186 197 198 199 200 201 202 203 202 202 201 
82 82 82 78 66 55 47 88 129 165 168 170 173 175 173 144 114 82 90 98 107 117 99 67 95 90 85 80 74 76 84 102 120 138 49 46 45 44 56 75 93 100 108 102 71 40 69 98 127 181 138 35 45 55 65 79 96 113 126 131 136 141 146 152 157 163 165 161 157 153 149 145 140 134 130 129 129 136 175 209 183 147 141 134 128 121 55 49 54 58 61 65 71 180 116 58 53 84 131 150 156 155 154 152 151 149 147 146 144 142 141 139 137 136 149 168 181 193 198 199 200 201 202 203 204 204 203 203 
80 80 80 80 68 56 44 88 132 164 168 170 172 174 176 144 113 81 89 97 105 113 89 65 88 100 79 73 71 79 88 106 124 93 46 45 44 43 58 58 38 67 74 56 40 40 114 138 166 195 36 46 55 65 75 85 97 114 123 128 133 139 144 150 155 160 162 158 154 150 146 143 139 133 131 130 130 129 162 195 170 144 139 134 129 92 39 43 46 50 53 57 60 188 129 71 48 79 143 155 155 155 154 152 151 149 147 146 144 142 141 139 138 136 154 176 188 197 198 199 200 201 202 203 204 205 204 204 
77 77 77 77 69 57 55 99 140 163 170 172 174 176 174 143 112 80 88 96 104 116 87 63 86 109 88 67 75 83 91 109 95 66 74 43 43 42 42 41 72 166 40 40 39 39 170 189 207 36 46 56 66 76 85 95 105 115 120 126 131 137 142 147 153 158 159 155 151 147 144 140 136 132 114 96 78 113 147 182 169 155 142 136 115 62 43 46 50 53 57 60 58 150 141 84 43 113 151 153 153 153 153 152 151 149 147 146 144 142 141 139 138 136 159 183 195 198 199 200 201 202 203 204 205 206 206 205 
75 75 75 74 70 59 65 109 141 162 170 173 175 177 172 142 111 79 87 95 107 118 87 60 84 64 44 115 94 87 95 97 86 94 102 41 41 159 45 44 107 43 84 97 111 125 144 163 93 39 45 55 65 75 85 95 105 114 118 124 129 134 140 145 151 156 156 152 148 145 141 137 133 137 140 122 117 152 187 178 168 159 149 139 86 44 46 50 53 57 60 60 55 112 148 93 38 147 152 152 152 152 152 152 151 149 148 146 144 143 141 139 138 136 164 191 198 199 200 201 202 203 204 205 206 207 207 206 
72 72 72 72 72 60 76 115 142 162 169 175 176 178 170 139 109 78 86 98 109 121 89 58 74 90 106 45 63 81 99 107 114 122 129 39 82 125 86 47 45 100 127 141 155 105 118 151 45 42 45 55 65 75 85 94 104 113 118 122 127 132 138 143 149 154 153 150 146 142 138 134 129 141 167 149 157 192 182 173 164 155 145 109 56 47 50 53 57 60 63 58 53 94 156 101 77 149 151 151 151 151 151 151 151 149 148 146 144 143 141 139 138 138 168 198 199 200 201 202 203 204 205 206 207 208 208 208 
70 69 69 69 69 61 87 116 143 161 168 176 178 180 167 137 107 77 89 100 112 123 92 60 60 65 81 71 63 81 84 79 105 131 157 115 48 91 52 56 60 158 171 184 72 140 208 50 48 45 45 55 64 74 84 94 103 112 118 122 125 130 136 141 146 152 151 147 143 139 135 130 125 146 171 175 196 187 178 169 160 151 141 79 48 51 54 57 61 64 60 55 50 76 164 80 115 150 150 150 150 150 150 150 150 150 148 146 145 143 141 140 138 139 169 200 200 201 202 203 204 205 206 207 208 209 209 209 
67 67 67 67 67 63 90 117 145 160 168 175 179 181 165 135 105 77 92 103 115 126 88 63 62 62 61 71 62 73 68 64 59 96 134 141 149 57 72 87 103 124 180 164 86 71 56 54 51 49 46 54 64 74 83 93 102 111 117 121 125 129 133 139 144 150 148 144 140 136 131 126 126 151 176 201 192 183 174 164 155 146 137 49 52 55 58 61 64 63 58 53 48 58 170 103 138 151 150 149 149 149 148 148 148 148 148 146 145 143 141 140 137 141 171 202 202 203 203 204 205 206 207 208 209 210 211 210 
64 64 64 64 64 64 91 118 146 159 167 174 181 183 163 133 111 78 96 107 119 118 84 65 65 64 63 63 62 72 81 83 78 73 110 118 86 74 115 130 145 167 188 144 99 120 56 55 54 52 49 54 64 73 82 92 101 110 117 121 125 128 132 137 142 147 145 141 137 132 127 123 131 156 174 178 173 164 155 146 137 137 92 50 54 59 61 64 65 60 55 50 45 40 176 125 143 152 151 150 149 148 147 147 147 147 147 146 145 143 141 140 133 143 176 204 204 205 205 206 206 207 207 208 209 210 211 211 
62 62 62 62 62 68 92 120 147 158 166 173 181 184 161 136 119 78 100 111 123 109 81 68 67 66 66 60 68 113 108 103 97 92 87 86 63 91 125 172 188 209 78 131 183 56 55 55 55 54 52 53 63 72 81 91 100 109 117 121 124 128 132 136 140 145 142 137 133 128 123 119 135 146 151 155 155 145 136 137 137 137 48 52 56 60 64 68 64 60 57 53 49 42 166 130 148 153 152 150 149 148 147 146 146 146 146 146 145 143 142 140 130 144 182 205 206 206 207 208 208 209 209 210 210 211 212 213 
59 59 59 59 60 71 96 121 148 157 165 173 180 186 162 144 119 78 100 115 120 101 77 70 69 64 59 67 75 132 101 95 90 85 93 53 80 108 135 183 230 123 107 82 56 56 55 55 54 54 53 53 62 71 80 90 99 108 116 120 124 128 132 135 139 143 138 134 129 124 120 115 119 123 128 132 136 136 136 137 137 92 49 53 57 60 62 65 69 66 62 58 52 45 157 135 153 154 152 151 150 149 148 147 146 145 145 145 145 143 142 138 126 147 189 207 208 208 209 209 210 211 211 212 212 213 213 214 
57 57 57 57 59 75 99 124 149 157 164 172 179 187 170 153 120 79 101 119 112 92 73 68 62 57 65 73 81 152 107 88 83 91 100 108 115 122 130 121 167 117 136 111 54 54 53 53 52 52 53 53 55 61 72 83 94 105 116 119 123 126 129 132 136 140 143 138 133 129 124 121 123 127 131 135 139 137 137 137 137 46 49 51 54 57 59 62 75 71 67 61 54 47 147 140 156 155 153 152 151 150 149 148 147 146 145 144 143 143 142 134 123 154 195 209 210 210 211 211 212 212 213 214 214 214 214 211 
54 54 55 56 58 78 103 125 147 158 166 174 181 185 174 161 120 79 101 123 104 84 65 159 55 63 71 79 87 171 126 81 89 96 104 111 113 117 124 219 104 168 165 52 52 51 51 52 52 53 53 53 54 56 59 69 80 91 103 115 118 122 125 128 131 137 143 142 138 133 128 128 129 130 134 138 143 142 139 139 93 47 47 48 51 54 56 59 80 76 71 64 56 49 137 146 157 156 154 153 152 151 150 149 148 147 146 145 144 143 142 131 119 160 201 211 211 212 213 213 214 214 214 214 214 213 212 208 
52 52 54 55 57 79 101 123 145 160 168 176 183 183 173 157 117 76 86 108 98 78 57 110 55 54 62 70 85 125 123 92 92 100 108 113 115 117 119 180 154 220 51 50 50 51 52 52 53 53 54 54 54 55 58 60 67 78 90 104 114 117 121 124 127 133 140 147 142 137 133 134 135 136 138 142 146 146 143 140 49 48 48 48 48 51 53 56 85 80 73 66 59 51 128 151 158 157 155 154 153 151 150 149 148 148 147 146 145 144 139 130 119 167 208 213 213 214 214 214 214 213 213 213 213 213 209 205 
49 51 52 54 55 77 99 122 144 162 170 177 184 181 173 152 114 73 88 93 94 73 64 61 55 49 52 64 82 101 120 102 98 104 111 116 118 120 113 186 203 49 50 50 51 51 52 53 53 54 54 54 54 54 57 59 62 64 78 91 105 113 116 120 123 130 137 143 146 141 139 140 141 143 144 145 149 151 148 50 50 50 50 49 49 49 50 53 90 83 75 68 61 54 118 156 159 158 156 155 154 152 151 150 149 148 147 146 145 142 136 130 119 166 214 214 214 214 213 213 213 213 213 213 213 210 206 201 
49 49 51 52 54 76 98 120 142 164 172 179 182 179 172 148 111 70 91 86 89 75 70 64 58 50 43 62 80 99 117 113 109 107 115 119 121 114 107 237 101 49 50 51 51 52 53 53 54 54 54 54 54 54 56 58 61 63 57 78 92 105 112 115 120 127 133 140 147 146 145 146 148 149 150 151 153 155 105 50 51 51 51 51 50 50 50 50 91 84 77 70 63 56 109 161 160 158 157 156 155 153 152 151 150 149 148 147 145 139 133 127 118 166 213 213 213 213 213 213 213 213 212 212 212 207 203 198 
49 48 49 50 52 74 96 118 140 162 173 181 180 177 172 143 106 66 88 97 85 79 74 68 62 54 47 61 89 107 84 102 120 115 118 121 115 108 101 154 59 48 51 51 52 52 53 54 54 54 54 54 54 54 55 58 60 63 66 49 71 93 106 111 117 124 130 137 143 150 151 153 154 155 156 158 159 160 91 50 52 52 52 52 51 51 51 53 91 84 77 70 64 58 118 157 152 155 158 157 156 154 153 152 151 150 149 148 142 136 130 124 118 177 213 213 213 213 213 212 212 212 212 212 208 204 200 195 
49 48 48 49 50 72 94 116 138 160 175 180 178 175 171 139 102 63 85 107 74 80 77 71 66 58 50 42 79 116 50 68 86 104 122 115 109 102 95 70 59 48 51 52 52 53 54 54 54 54 54 54 54 54 54 57 59 62 65 64 42 63 85 107 114 121 128 135 142 149 153 157 159 160 161 162 164 147 77 50 53 53 53 53 52 51 48 57 92 85 78 72 66 60 128 152 147 143 141 149 157 155 154 153 151 151 150 146 140 133 127 121 129 189 212 212 212 212 212 212 212 212 211 210 205 201 196 192 
48 48 48 47 49 71 93 115 137 159 177 178 176 173 171 134 97 60 103 100 63 69 75 75 69 62 54 46 60 131 79 68 98 116 95 117 138 160 89 114 59 47 50 52 53 54 54 54 54 54 54 54 54 54 54 56 58 61 65 68 56 34 82 113 113 119 126 133 140 147 152 157 162 165 166 167 168 133 62 51 53 54 54 54 52 49 46 60 92 86 80 74 68 62 138 148 143 138 134 129 134 142 150 154 152 151 149 143 137 131 125 119 140 200 212 211 211 211 211 211 211 211 211 180 148 117 85 54 
48 48 48 47 47 69 91 113 135 157 179 177 176 174 172 141 94 118 141 93 52 58 64 69 72 66 58 49 41 146 108 69 85 128 68 111 135 140 82 158 103 47 50 53 53 54 55 55 55 55 55 55 55 55 55 55 57 61 64 68 71 77 104 119 119 118 125 132 139 146 151 155 160 165 170 172 173 120 48 51 53 55 55 52 50 47 44 64 102 85 80 75 69 64 148 143 139 134 129 125 120 120 128 136 144 152 146 140 134 128 122 116 150 211 211 211 210 210 210 210 209 209 169 119 88 56 51 60 
48 49 50 51 52 54 76 98 120 142 174 175 176 175 173 157 141 155 95 86 41 47 53 58 64 70 62 54 46 114 124 92 60 83 105 110 115 119 124 66 169 109 50 53 54 55 55 55 55 55 55 55 55 55 55 55 57 60 63 66 74 100 126 125 125 124 124 130 137 144 149 154 159 164 168 173 178 185 193 200 128 56 53 50 47 44 41 71 112 84 79 74 69 64 148 146 140 134 129 123 117 112 106 113 121 128 135 133 132 126 120 114 161 211 209 209 208 208 208 208 207 177 127 77 27 48 69 65 
91 73 56 57 58 59 60 82 104 152 168 169 170 171 172 173 110 47 48 164 30 39 49 58 67 58 80 60 52 81 133 101 124 95 99 111 119 123 128 86 155 132 112 52 54 55 55 55 55 55 55 55 55 55 55 55 56 59 62 64 77 103 124 127 130 130 130 129 136 143 148 152 157 162 167 172 176 183 190 197 201 205 133 62 54 47 39 81 122 83 78 74 69 64 147 148 143 138 132 126 121 116 112 109 106 104 111 119 117 115 113 111 161 211 209 207 206 206 206 206 186 135 85 37 45 66 75 71 
134 116 99 81 63 64 66 67 115 162 164 166 168 170 173 161 114 118 191 38 42 46 55 64 55 47 111 90 70 49 142 114 85 89 94 98 116 127 132 106 141 114 94 75 55 55 55 55 55 55 55 55 55 55 55 55 55 57 59 61 81 105 123 125 128 131 134 135 135 141 146 151 156 161 165 170 175 180 188 195 199 203 206 209 75 62 50 91 104 76 78 74 69 64 147 147 147 141 136 130 125 122 118 115 112 109 107 104 102 96 90 84 161 211 209 207 206 204 204 194 144 76 47 55 63 84 80 76 
132 147 129 112 86 62 63 64 112 159 166 168 170 172 174 149 117 128 139 39 47 54 61 52 44 35 142 87 59 58 104 75 79 84 88 92 104 122 136 125 126 97 77 75 74 55 55 55 55 55 55 55 55 55 55 54 60 66 62 58 83 107 121 124 126 129 132 135 137 140 145 149 154 159 164 168 173 178 185 192 197 201 204 207 213 136 60 73 86 68 73 74 69 65 146 147 148 145 139 135 131 128 124 121 117 114 112 110 107 101 95 102 153 211 209 207 206 204 202 135 67 56 65 73 81 90 86 82 
130 145 160 134 109 77 60 62 109 156 170 170 172 174 169 137 169 76 87 41 48 56 58 60 87 126 71 70 68 67 65 69 74 78 82 87 91 109 127 145 112 79 96 112 92 55 55 55 55 55 55 55 54 54 54 54 65 80 76 53 85 109 119 122 125 127 130 134 138 139 143 148 153 157 162 167 171 176 183 190 195 199 202 206 211 216 140 55 67 61 66 70 69 65 146 147 147 148 144 141 137 134 130 127 123 120 117 115 112 106 100 120 165 211 210 208 206 204 155 58 66 74 83 91 99 95 91 87 
128 118 149 157 131 102 67 59 106 152 175 174 173 175 157 189 220 128 35 43 51 54 54 55 58 74 66 65 63 62 62 70 73 74 77 81 85 97 115 132 149 51 133 149 111 55 55 55 54 54 54 54 54 53 53 53 69 89 90 49 83 111 117 120 123 128 132 137 139 139 142 146 151 156 160 165 170 175 180 187 193 197 200 204 209 215 220 144 49 54 58 63 68 65 145 146 146 147 146 144 143 140 136 133 129 126 122 120 118 112 118 138 176 211 210 209 207 205 108 67 76 84 92 99 100 101 97 93 
75 85 137 160 154 126 91 56 103 149 180 179 178 177 164 151 138 88 38 46 51 51 51 51 53 57 61 60 59 59 60 65 75 79 80 82 83 84 103 121 140 101 92 186 110 57 54 54 54 53 53 53 53 53 52 54 74 94 105 44 78 113 117 122 126 131 135 139 139 138 141 145 149 154 159 163 168 173 178 185 191 195 198 202 208 213 218 223 138 51 55 58 62 65 145 145 145 146 146 143 140 140 140 139 135 132 128 125 123 117 136 156 188 211 210 209 207 158 81 77 85 93 99 100 101 102 102 98 
22 74 126 164 157 151 101 51 99 146 184 183 180 175 160 162 210 91 41 47 48 48 48 48 48 52 94 57 56 56 57 60 70 79 86 87 88 81 107 121 136 150 40 65 90 58 58 53 53 53 52 52 52 52 52 59 79 99 119 39 77 116 120 125 129 134 138 138 138 138 141 144 148 152 157 162 167 171 176 182 189 193 196 201 206 211 216 222 227 50 50 50 50 103 143 144 145 146 146 143 141 138 135 136 136 137 134 131 128 135 154 174 199 210 210 209 208 131 78 86 94 99 100 101 102 102 103 104 
23 66 116 167 160 153 96 46 94 141 189 183 178 172 166 142 99 72 44 44 44 45 45 45 45 47 126 53 53 54 54 55 64 74 84 92 94 78 116 130 145 151 59 58 123 60 61 57 52 52 52 51 51 51 51 63 84 104 116 43 80 119 123 128 132 137 138 138 137 137 140 144 148 151 155 160 165 170 174 180 187 191 194 199 204 210 215 220 224 138 41 37 34 141 142 143 144 145 146 144 141 138 135 133 131 131 132 132 133 153 172 192 211 211 212 212 181 104 87 95 99 100 101 102 103 103 103 101 
23 57 110 160 163 156 98 41 92 144 188 182 176 170 164 158 125 176 46 46 45 44 44 43 43 42 138 44 49 51 51 52 59 69 79 89 99 75 82 139 149 151 78 50 156 62 57 60 56 51 51 51 50 50 50 68 88 115 114 47 83 122 126 131 135 138 137 137 137 137 139 143 147 151 155 159 163 168 173 177 185 189 192 197 203 208 213 217 221 225 75 32 33 142 141 142 143 144 145 144 141 138 136 133 130 127 127 127 167 186 206 209 212 216 216 201 154 88 97 100 100 101 102 102 102 102 102 98 
24 47 101 154 172 158 100 41 98 149 187 181 175 169 162 156 150 113 48 47 47 47 46 45 45 87 150 35 40 46 49 49 54 64 74 83 90 73 48 148 150 152 98 43 189 95 45 64 59 55 50 50 50 49 53 73 98 122 111 51 86 125 129 133 137 137 137 137 136 136 138 142 146 150 154 158 162 166 171 176 182 187 191 196 201 206 211 214 218 222 149 26 31 144 142 141 142 143 144 144 142 139 136 133 130 128 125 122 200 203 206 210 213 217 221 174 126 98 100 100 100 100 100 100 100 100 100 95 
25 37 91 146 182 151 100 41 101 155 186 180 174 168 162 157 152 50 50 49 49 49 48 48 68 104 112 48 41 40 42 46 49 59 67 73 80 71 88 142 120 122 158 103 173 167 33 67 63 58 54 49 49 49 58 81 111 125 109 55 90 127 132 136 137 137 136 136 136 136 137 141 145 149 153 157 161 165 169 174 180 185 189 194 199 204 208 212 215 219 223 27 31 145 144 142 141 142 143 144 142 139 136 133 131 128 125 134 203 204 207 210 214 218 202 150 99 99 99 99 99 99 99 99 99 99 99 92 
26 32 81 136 191 143 96 41 101 161 185 180 174 169 164 158 153 52 52 51 51 51 50 50 58 66 74 62 49 48 47 45 44 51 57 64 71 70 112 136 131 92 111 163 97 31 51 71 66 62 57 53 48 48 64 94 121 128 106 59 94 130 135 137 136 136 136 136 135 135 136 140 144 148 152 156 160 164 168 172 177 183 187 192 197 201 205 209 213 218 220 28 31 146 145 143 142 141 142 143 142 139 137 134 131 128 125 146 206 206 208 211 215 213 183 131 100 98 98 98 98 98 98 98 98 98 98 89 
26 33 71 126 187 150 95 41 103 146 183 180 176 171 165 160 155 54 54 53 53 53 52 50 53 61 69 65 52 50 49 48 46 60 62 64 66 68 121 131 125 103 64 89 113 136 123 110 100 89 79 68 58 47 77 107 124 132 104 63 98 133 136 136 136 136 135 135 135 134 135 139 143 147 151 155 159 163 167 171 176 181 186 190 194 198 203 208 214 218 218 122 33 148 146 145 143 142 142 142 143 140 137 134 131 129 126 157 209 209 210 212 213 204 164 114 101 96 97 97 97 97 97 97 97 97 97 86 
27 33 61 116 182 163 109 45 108 140 182 178 175 172 167 161 156 56 56 55 55 53 50 50 51 56 64 68 55 50 50 50 49 48 76 78 80 86 130 125 119 114 89 64 39 46 52 67 83 81 71 60 50 65 92 120 128 135 101 67 102 136 136 135 135 135 135 134 134 134 135 138 142 146 150 154 158 162 166 170 174 179 184 188 193 198 204 209 215 216 215 215 35 149 148 146 145 143 142 142 143 140 137 134 132 129 126 169 212 212 213 213 205 196 147 106 102 97 95 95 96 96 96 96 96 96 96 83 
28 34 51 112 178 159 122 50 97 138 180 177 173 170 167 163 158 58 58 57 55 51 50 50 51 52 59 67 59 51 51 51 51 50 64 92 61 85 109 118 113 93 125 109 43 48 50 49 48 56 63 52 54 82 102 123 119 126 85 74 109 135 137 136 135 134 134 134 134 133 134 138 142 146 149 153 157 161 165 169 173 177 182 188 193 199 204 210 214 213 212 209 88 143 131 141 146 144 143 141 142 140 138 135 132 132 133 130 173 173 190 224 216 179 130 107 103 98 94 94 94 94 94 94 94 95 95 80 
29 35 41 107 173 154 135 54 95 137 178 175 172 169 165 162 159 60 60 57 53 49 50 51 51 52 54 62 62 52 52 51 51 51 51 68 84 56 65 111 91 71 104 136 169 48 47 47 46 45 45 44 64 85 105 125 115 117 70 81 132 135 138 138 137 136 135 133 133 133 133 137 141 145 149 153 156 160 164 167 171 174 182 189 194 200 205 211 211 209 206 203 140 137 101 113 124 132 141 143 141 141 138 137 139 141 140 137 133 167 201 235 213 163 113 108 104 99 94 92 93 93 93 93 93 93 93 77 
29 36 48 103 173 161 142 57 94 135 176 173 170 167 164 163 138 62 58 55 51 49 50 51 51 52 53 57 65 53 52 52 52 52 48 91 108 79 51 23 150 50 82 114 70 46 46 46 45 44 44 56 69 87 108 128 118 108 54 104 131 134 137 140 140 138 137 136 135 133 132 136 139 143 146 150 154 157 161 165 168 172 179 187 194 201 206 209 206 203 200 196 193 132 70 83 95 107 115 124 132 141 143 145 147 149 147 135 142 177 211 246 192 139 103 104 105 100 95 91 91 91 92 92 92 92 92 74 
30 42 55 99 173 168 149 60 96 133 175 172 168 168 168 167 117 66 56 53 49 49 50 51 51 52 53 53 60 56 53 53 53 51 45 88 131 104 76 49 55 61 77 92 44 44 45 45 44 43 43 68 81 94 110 130 121 71 71 127 130 133 136 139 142 141 139 138 137 135 134 134 137 140 144 147 151 155 158 162 166 169 176 183 191 199 207 207 208 208 208 208 209 102 74 78 82 86 90 96 103 109 117 131 144 158 137 116 150 184 218 217 164 111 93 94 95 96 96 92 90 90 90 90 91 91 91 71 
42 49 61 95 172 168 156 62 99 136 173 173 172 172 171 171 104 70 54 50 49 50 50 51 52 52 53 54 55 59 54 54 54 48 42 71 100 129 102 75 81 72 57 41 42 43 44 44 43 42 57 79 93 106 120 133 83 33 101 129 132 135 138 140 141 142 141 140 139 137 136 135 136 138 141 145 148 152 156 159 163 167 172 180 188 196 203 208 208 211 215 220 224 73 78 82 87 92 89 80 71 77 83 93 107 139 164 146 155 189 223 189 136 83 83 84 85 86 86 87 88 89 90 91 92 93 87 68 
54 61 68 91 172 168 163 65 99 134 173 176 176 176 175 150 108 74 52 48 49 50 50 51 52 52 53 54 54 58 55 54 51 47 49 54 74 99 128 100 99 84 63 40 42 41 42 43 42 41 71 91 105 118 123 103 53 74 129 132 135 137 138 139 140 141 142 142 141 139 138 137 136 138 140 142 146 149 153 157 160 164 169 177 185 192 199 205 209 209 210 211 215 142 84 89 93 98 89 79 70 61 51 58 69 121 191 176 161 195 212 160 108 73 73 74 75 76 81 88 89 92 94 95 96 94 83 65 
66 73 80 87 172 169 165 97 95 132 173 176 178 180 179 145 112 78 50 49 49 50 51 51 52 53 53 54 55 55 55 53 52 54 55 56 65 86 106 126 106 86 61 40 43 43 41 41 41 55 85 103 116 113 93 72 56 115 131 134 136 137 137 138 139 140 141 142 143 142 140 139 138 137 140 142 144 147 150 154 158 161 166 174 182 188 194 200 207 210 211 211 211 211 81 95 100 97 88 79 69 60 51 41 32 114 196 198 191 200 183 132 80 63 63 66 74 81 89 84 90 96 97 98 99 90 79 62 
78 91 105 118 167 167 167 129 90 132 173 176 178 181 183 149 116 82 48 49 49 50 51 51 52 53 53 54 55 55 56 57 59 60 62 63 64 77 97 128 108 85 56 39 42 45 43 42 40 69 99 115 103 83 62 42 93 131 133 134 135 136 137 138 139 140 140 141 142 143 142 141 140 138 139 142 144 146 149 151 155 159 163 171 178 184 190 196 202 208 212 212 212 212 77 92 106 100 93 87 81 74 68 62 56 119 201 203 204 206 155 103 52 59 67 74 81 89 87 77 91 99 100 101 97 86 75 59 
72 87 112 137 162 169 167 132 93 133 173 174 175 176 177 161 127 82 48 51 52 53 54 54 55 56 56 57 58 58 64 58 61 65 68 69 71 72 89 131 109 80 52 39 42 44 46 44 53 83 113 89 65 41 71 100 130 131 132 133 134 135 136 137 138 139 140 141 142 143 143 143 142 140 139 141 144 146 148 150 153 156 160 167 174 180 186 192 198 204 210 213 213 213 118 85 98 109 104 100 96 92 87 83 79 133 206 208 189 141 90 65 66 67 74 82 89 91 80 74 92 103 104 103 93 82 71 56 
66 75 96 121 156 177 168 135 96 136 172 174 174 173 173 172 117 61 47 51 54 56 57 57 58 59 59 60 61 62 72 57 60 63 67 70 73 77 80 133 104 76 47 38 41 44 47 47 66 73 56 40 65 90 115 129 130 130 131 132 133 134 135 136 137 138 139 140 141 142 143 144 144 142 141 141 143 146 148 150 152 155 157 163 169 175 182 188 194 200 206 212 214 214 158 78 91 103 111 107 103 99 94 90 87 117 211 172 127 76 77 78 80 81 82 89 94 83 73 75 93 106 107 99 89 78 67 53 
60 69 81 106 150 185 168 136 99 139 170 174 175 175 174 158 96 51 47 51 54 58 60 60 61 62 62 63 64 70 80 89 59 62 65 69 72 75 77 99 100 71 43 38 41 43 46 49 54 59 63 75 100 125 127 128 129 130 131 132 132 133 134 135 136 137 138 139 140 141 142 143 144 144 143 142 143 145 147 150 152 154 159 164 169 174 179 184 190 196 202 208 214 215 199 97 84 96 109 114 110 106 101 97 95 93 156 114 89 90 91 92 93 95 96 97 87 76 66 76 94 110 106 95 85 74 63 50 
55 63 71 90 144 193 169 137 102 138 169 173 177 176 176 145 75 51 47 50 54 57 61 63 64 64 65 66 69 78 88 97 57 61 64 67 70 72 74 76 101 67 38 37 40 45 53 61 73 87 92 110 124 126 127 128 129 129 130 131 132 133 134 135 135 136 137 138 139 140 141 142 143 144 145 144 143 145 147 149 152 156 161 166 171 176 181 186 191 196 201 206 211 216 205 116 81 91 101 114 117 112 108 104 103 101 100 99 98 97 97 96 95 94 93 92 83 71 59 77 95 113 102 91 81 70 59 47 
49 57 66 74 138 201 169 137 105 136 167 171 176 178 178 131 54 50 47 50 54 57 61 64 67 67 68 69 77 86 95 105 90 59 63 65 67 69 71 72 85 68 34 42 50 58 66 74 82 97 120 122 125 126 126 127 128 129 130 131 132 132 133 134 135 136 137 138 138 139 140 141 142 143 144 145 145 144 147 149 152 157 162 168 173 178 183 188 193 197 201 205 209 213 212 135 77 87 97 107 119 119 115 112 111 108 105 101 98 94 92 91 90 90 89 88 81 69 83 101 119 106 93 82 73 63 54 44 
43 51 60 69 142 205 198 166 103 135 166 170 174 178 179 118 84 50 46 50 53 57 60 64 67 70 71 75 85 94 103 113 122 58 60 62 64 66 67 69 71 69 55 61 66 72 78 86 94 102 121 123 124 125 126 127 128 128 129 130 131 132 133 134 134 135 136 137 138 139 140 140 141 142 143 144 145 145 146 149 154 159 164 169 173 177 181 185 189 193 197 201 205 209 213 174 74 83 93 103 113 124 122 120 117 113 110 106 102 99 95 91 88 85 84 83 80 81 108 126 112 99 86 73 61 51 42 72 
37 46 54 63 136 209 202 195 100 132 164 168 173 177 181 147 114 80 46 50 53 57 60 64 67 71 74 74 73 73 73 73 72 72 72 72 71 71 71 71 70 70 76 82 87 93 99 105 110 116 122 123 124 125 125 126 127 128 129 130 131 131 132 133 134 135 136 137 137 138 139 140 141 142 143 143 144 145 146 150 154 158 162 166 170 174 178 182 186 190 194 198 202 206 210 214 70 80 90 100 109 119 129 125 122 118 114 111 107 104 100 96 93 89 85 82 78 105 132 119 105 92 79 66 52 39 70 100 
